P3
400 225
255
204 226 255
204 226 255
204 226 255
204 226 255
204 226 255
204 226 255
204 226 255
204 226 255
204 226 255
204 226 255
204 226 255
204 226 255
204 226 255
204 226 255
204 226 255
203 226 255
203 226 255
203 226 255
203 226 255
203 226 255
203 226 255
203 226 255
203 226 255
203 225 255
203 225 255
203 225 255
203 225 255
203 225 255
203 225 255
203 225 255
203 225 255
203 225 255
202 225 255
202 225 255
202 225 255
202 225 255
202 225 255
202 225 255
202 225 255
202 225 255
202 225 255
202 225 255
202 225 255
202 225 255
202 225 255
202 225 255
202 225 255
202 225 255
201 225 255
201 225 255
201 225 255
201 225 255
201 224 255
201 224 255
201 224 255
201 224 255
201 224 255
201 224 255
201 224 255
201 224 255
201 224 255
201 224 255
201 224 255
200 224 255
200 224 255
200 224 255
200 224 255
200 224 255
200 224 255
200 224 255
200 224 255
200 224 255
200 224 255
200 224 255
200 224 255
200 224 255
200 224 255
199 224 255
199 224 255
199 224 255
199 223 255
199 223 255
199 223 255
199 223 255
199 223 255
199 223 255
199 223 255
199 223 255
199 223 255
199 223 255
199 223 255
199 223 255
198 223 255
198 223 255
198 223 255
198 223 255
198 223 255
198 223 255
198 223 255
198 223 255
198 223 255
198 223 255
198 223 255
198 223 255
198 223 255
198 223 255
197 223 255
197 222 255
197 222 255
197 222 255
197 222 255
197 222 255
197 222 255
197 222 255
197 222 255
197 222 255
197 222 255
197 222 255
197 222 255
197 222 255
197 222 255
196 222 255
196 222 255
196 222 255
196 222 255
196 222 255
196 222 255
196 222 255
196 222 255
196 222 255
196 222 255
196 222 255
196 222 255
196 222 255
196 222 255
196 221 255
195 221 255
195 221 255
195 221 255
195 221 255
195 221 255
195 221 255
195 221 255
195 221 255
195 221 255
195 221 255
195 221 255
195 221 255
195 221 255
195 221 255
195 221 255
195 221 255
195 221 255
195 221 255
195 221 255
194 221 255
194 221 255
194 221 255
194 221 255
194 221 255
194 221 255
194 221 255
194 221 255
194 221 255
194 221 255
194 221 255
194 221 255
194 221 255
194 221 255
194 221 255
194 221 255
194 221 255
194 221 255
194 221 255
194 221 255
194 221 255
194 221 255
194 220 255
194 220 255
194 220 255
194 220 255
194 220 255
194 220 255
194 220 255
194 220 255
194 220 255
193 220 255
193 220 255
193 220 255
193 220 255
193 220 255
193 220 255
193 220 255
193 220 255
193 220 255
193 220 255
193 220 255
193 220 255
193 220 255
193 220 255
193 220 255
193 220 255
193 220 255
193 220 255
193 220 255
193 220 255
193 220 255
193 220 255
193 220 255
193 220 255
193 220 255
193 220 255
193 220 255
193 220 255
194 220 255
194 220 255
194 220 255
194 220 255
194 220 255
194 220 255
194 220 255
194 220 255
194 220 255
194 221 255
194 221 255
194 221 255
194 221 255
194 221 255
194 221 255
194 221 255
194 221 255
194 221 255
194 221 255
194 221 255
194 221 255
194 221 255
194 221 255
194 221 255
194 221 255
194 221 255
194 221 255
194 221 255
194 221 255
194 221 255
194 221 255
195 221 255
195 221 255
195 221 255
195 221 255
195 221 255
195 221 255
195 221 255
195 221 255
195 221 255
195 221 255
195 221 255
195 221 255
195 221 255
195 221 255
195 221 255
195 221 255
195 221 255
195 221 255
196 221 255
196 221 255
196 222 255
196 222 255
196 222 255
196 222 255
196 222 255
196 222 255
196 222 255
196 222 255
196 222 255
196 222 255
196 222 255
196 222 255
196 222 255
196 222 255
197 222 255
197 222 255
197 222 255
197 222 255
197 222 255
197 222 255
197 222 255
197 222 255
197 222 255
197 222 255
197 222 255
197 222 255
197 222 255
197 222 255
197 222 255
198 223 255
198 223 255
198 223 255
198 223 255
198 223 255
198 223 255
198 223 255
198 223 255
198 223 255
198 223 255
198 223 255
198 223 255
198 223 255
198 223 255
199 223 255
199 223 255
199 223 255
199 223 255
199 223 255
199 223 255
199 223 255
199 223 255
199 223 255
199 223 255
199 223 255
199 223 255
199 224 255
199 224 255
200 224 255
200 224 255
200 224 255
200 224 255
200 224 255
200 224 255
200 224 255
200 224 255
200 224 255
200 224 255
200 224 255
200 224 255
200 224 255
200 224 255
200 224 255
201 224 255
201 224 255
201 224 255
201 224 255
201 224 255
201 224 255
201 224 255
201 224 255
201 224 255
201 224 255
201 224 255
201 225 255
201 225 255
201 225 255
201 225 255
202 225 255
202 225 255
202 225 255
202 225 255
202 225 255
202 225 255
202 225 255
202 225 255
202 225 255
202 225 255
202 225 255
202 225 255
202 225 255
202 225 255
202 225 255
202 225 255
203 225 255
203 225 255
203 225 255
203 225 255
203 225 255
203 225 255
203 225 255
203 225 255
203 225 255
203 226 255
203 226 255
203 226 255
203 226 255
203 226 255
203 226 255
203 226 255
203 226 255
204 226 255
204 226 255
204 226 255
204 226 255
204 226 255
204 226 255
204 226 255
204 226 255
204 226 255
204 226 255
204 226 255
204 226 255
204 226 255
204 226 255
204 226 255
204 226 255
204 226 255
204 226 255
204 226 255
204 226 255
204 226 255
204 226 255
204 226 255
204 226 255
204 226 255
204 226 255
204 226 255
204 226 255
204 226 255
204 226 255
204 226 255
204 226 255
204 226 255
203 226 255
203 226 255
203 226 255
203 226 255
203 226 255
203 226 255
203 226 255
203 225 255
203 225 255
203 225 255
203 225 255
203 225 255
203 225 255
203 225 255
203 225 255
203 225 255
202 225 255
202 225 255
202 225 255
202 225 255
202 225 255
202 225 255
202 225 255
202 225 255
202 225 255
202 225 255
202 225 255
202 225 255
202 225 255
202 225 255
202 225 255
202 225 255
201 225 255
201 225 255
201 225 255
201 225 255
201 224 255
201 224 255
201 224 255
201 224 255
201 224 255
201 224 255
201 224 255
201 224 255
201 224 255
201 224 255
201 224 255
200 224 255
200 224 255
200 224 255
200 224 255
200 224 255
200 224 255
200 224 255
200 224 255
200 224 255
200 224 255
200 224 255
200 224 255
200 224 255
200 224 255
200 224 255
199 224 255
199 224 255
199 223 255
199 223 255
199 223 255
199 223 255
199 223 255
199 223 255
199 223 255
199 223 255
199 223 255
199 223 255
199 223 255
199 223 255
198 223 255
198 223 255
198 223 255
198 223 255
198 223 255
198 223 255
198 223 255
198 223 255
198 223 255
198 223 255
198 223 255
198 223 255
198 223 255
198 223 255
197 223 255
197 222 255
197 222 255
197 222 255
197 222 255
197 222 255
197 222 255
197 222 255
197 222 255
197 222 255
197 222 255
197 222 255
197 222 255
197 222 255
197 222 255
196 222 255
196 222 255
196 222 255
196 222 255
196 222 255
196 222 255
196 222 255
196 222 255
196 222 255
196 222 255
196 222 255
196 222 255
196 222 255
196 222 255
196 221 255
196 221 255
195 221 255
195 221 255
195 221 255
195 221 255
195 221 255
195 221 255
195 221 255
195 221 255
195 221 255
195 221 255
195 221 255
195 221 255
195 221 255
195 221 255
195 221 255
195 221 255
195 221 255
195 221 255
195 221 255
194 221 255
194 221 255
194 221 255
194 221 255
194 221 255
194 221 255
194 221 255
194 221 255
194 221 255
194 221 255
194 221 255
194 221 255
194 221 255
194 221 255
194 221 255
194 221 255
194 221 255
194 221 255
194 221 255
194 221 255
194 221 255
194 221 255
194 221 255
194 221 255
194 221 255
194 220 255
194 220 255
194 220 255
194 220 255
194 220 255
194 220 255
194 220 255
194 220 255
194 220 255
194 220 255
194 220 255
194 220 255
194 220 255
194 220 255
194 220 255
194 220 255
194 220 255
194 220 255
194 220 255
194 220 255
194 220 255
194 220 255
194 220 255
194 220 255
194 220 255
194 220 255
194 220 255
194 220 255
194 220 255
194 220 255
194 220 255
194 220 255
194 220 255
194 220 255
194 221 255
194 221 255
194 221 255
194 221 255
194 221 255
194 221 255
194 221 255
194 221 255
194 221 255
194 221 255
194 221 255
194 221 255
194 221 255
194 221 255
194 221 255
194 221 255
194 221 255
194 221 255
194 221 255
194 221 255
194 221 255
194 221 255
194 221 255
194 221 255
194 221 255
195 221 255
195 221 255
195 221 255
195 221 255
195 221 255
195 221 255
195 221 255
195 221 255
195 221 255
195 221 255
195 221 255
195 221 255
195 221 255
195 221 255
195 221 255
195 221 255
195 221 255
195 221 255
195 221 255
196 221 255
196 222 255
196 222 255
196 222 255
196 222 255
196 222 255
196 222 255
196 222 255
196 222 255
196 222 255
196 222 255
196 222 255
196 222 255
196 222 255
196 222 255
196 222 255
197 222 255
197 222 255
197 222 255
197 222 255
197 222 255
197 222 255
197 222 255
197 222 255
197 222 255
197 222 255
197 222 255
197 222 255
197 222 255
197 222 255
197 223 255
198 223 255
198 223 255
198 223 255
198 223 255
198 223 255
198 223 255
198 223 255
198 223 255
198 223 255
198 223 255
198 223 255
198 223 255
198 223 255
198 223 255
199 223 255
199 223 255
199 223 255
199 223 255
199 223 255
199 223 255
199 223 255
199 223 255
199 223 255
199 223 255
199 223 255
199 223 255
199 224 255
199 224 255
199 224 255
200 224 255
200 224 255
200 224 255
200 224 255
200 224 255
200 224 255
200 224 255
200 224 255
200 224 255
200 224 255
200 224 255
200 224 255
200 224 255
200 224 255
201 224 255
201 224 255
201 224 255
201 224 255
201 224 255
201 224 255
201 224 255
201 224 255
201 224 255
201 224 255
201 225 255
201 225 255
201 225 255
201 225 255
201 225 255
202 225 255
202 225 255
202 225 255
202 225 255
202 225 255
202 225 255
202 225 255
202 225 255
202 225 255
202 225 255
202 225 255
202 225 255
202 225 255
202 225 255
202 225 255
202 225 255
203 225 255
203 225 255
203 225 255
203 225 255
203 225 255
203 225 255
203 225 255
203 225 255
203 225 255
203 226 255
203 226 255
203 226 255
203 226 255
203 226 255
203 226 255
203 226 255
203 226 255
204 226 255
204 226 255
204 226 255
204 226 255
204 226 255
204 226 255
204 226 255
204 226 255
204 226 255
204 226 255
204 226 255
204 226 255
204 226 255
204 226 255
204 226 255
204 226 255
204 226 255
205 226 255
205 226 255
204 226 255
204 226 255
204 226 255
204 226 255
204 226 255
204 226 255
204 226 255
204 226 255
204 226 255
204 226 255
204 226 255
204 226 255
204 226 255
204 226 255
204 226 255
204 226 255
204 226 255
204 226 255
203 226 255
203 226 255
203 226 255
203 226 255
203 226 255
203 226 255
203 226 255
203 225 255
203 225 255
203 225 255
203 225 255
203 225 255
203 225 255
203 225 255
203 225 255
203 225 255
203 225 255
202 225 255
202 225 255
202 225 255
202 225 255
202 225 255
202 225 255
202 225 255
202 225 255
202 225 255
202 225 255
202 225 255
202 225 255
202 225 255
202 225 255
202 225 255
201 225 255
201 225 255
201 225 255
201 225 255
201 225 255
201 224 255
201 224 255
201 224 255
201 224 255
201 224 255
201 224 255
201 224 255
201 224 255
201 224 255
201 224 255
200 224 255
200 224 255
200 224 255
200 224 255
200 224 255
200 224 255
200 224 255
200 224 255
200 224 255
200 224 255
200 224 255
200 224 255
200 224 255
200 224 255
200 224 255
199 224 255
199 224 255
199 223 255
199 223 255
199 223 255
199 223 255
199 223 255
199 223 255
199 223 255
199 223 255
199 223 255
199 223 255
199 223 255
199 223 255
198 223 255
198 223 255
198 223 255
198 223 255
198 223 255
198 223 255
198 223 255
198 223 255
198 223 255
198 223 255
198 223 255
198 223 255
198 223 255
198 223 255
197 223 255
197 222 255
197 222 255
197 222 255
197 222 255
197 222 255
197 222 255
197 222 255
197 222 255
197 222 255
197 222 255
197 222 255
197 222 255
197 222 255
197 222 255
196 222 255
196 222 255
196 222 255
196 222 255
196 222 255
196 222 255
196 222 255
196 222 255
196 222 255
196 222 255
196 222 255
196 222 255
196 222 255
196 222 255
196 222 255
196 221 255
196 221 255
195 221 255
195 221 255
195 221 255
195 221 255
195 221 255
195 221 255
195 221 255
195 221 255
195 221 255
195 221 255
195 221 255
195 221 255
195 221 255
195 221 255
195 221 255
195 221 255
195 221 255
195 221 255
195 221 255
194 221 255
194 221 255
194 221 255
194 221 255
194 221 255
194 221 255
194 221 255
194 221 255
194 221 255
194 221 255
194 221 255
194 221 255
194 221 255
194 221 255
194 221 255
194 221 255
194 221 255
194 221 255
194 221 255
194 221 255
194 221 255
194 221 255
194 221 255
194 221 255
194 221 255
194 221 255
194 221 255
194 221 255
194 221 255
194 221 255
194 221 255
194 221 255
194 220 255
194 220 255
194 220 255
194 220 255
194 220 255
194 220 255
194 220 255
194 220 255
194 220 255
194 220 255
194 220 255
194 220 255
194 220 255
194 220 255
194 220 255
194 221 255
194 221 255
194 221 255
194 221 255
194 221 255
194 221 255
194 221 255
194 221 255
194 221 255
194 221 255
194 221 255
194 221 255
194 221 255
194 221 255
194 221 255
194 221 255
194 221 255
194 221 255
194 221 255
194 221 255
194 221 255
194 221 255
194 221 255
194 221 255
194 221 255
194 221 255
194 221 255
194 221 255
194 221 255
194 221 255
194 221 255
195 221 255
195 221 255
195 221 255
195 221 255
195 221 255
195 221 255
195 221 255
195 221 255
195 221 255
195 221 255
195 221 255
195 221 255
195 221 255
195 221 255
195 221 255
195 221 255
195 221 255
195 221 255
195 221 255
195 221 255
196 221 255
196 222 255
196 222 255
196 222 255
196 222 255
196 222 255
196 222 255
196 222 255
196 222 255
196 222 255
196 222 255
196 222 255
196 222 255
196 222 255
196 222 255
196 222 255
197 222 255
197 222 255
197 222 255
197 222 255
197 222 255
197 222 255
197 222 255
197 222 255
197 222 255
197 222 255
197 222 255
197 222 255
197 222 255
197 222 255
197 223 255
198 223 255
198 223 255
198 223 255
198 223 255
198 223 255
198 223 255
198 223 255
198 223 255
198 223 255
198 223 255
198 223 255
198 223 255
198 223 255
198 223 255
199 223 255
199 223 255
199 223 255
199 223 255
199 223 255
199 223 255
199 223 255
199 223 255
199 223 255
199 223 255
199 223 255
199 223 255
199 224 255
199 224 255
200 224 255
200 224 255
200 224 255
200 224 255
200 224 255
200 224 255
200 224 255
200 224 255
200 224 255
200 224 255
200 224 255
200 224 255
200 224 255
200 224 255
200 224 255
201 224 255
201 224 255
201 224 255
201 224 255
201 224 255
201 224 255
201 224 255
201 224 255
201 224 255
201 224 255
201 225 255
201 225 255
201 225 255
201 225 255
201 225 255
202 225 255
202 225 255
202 225 255
202 225 255
202 225 255
202 225 255
202 225 255
202 225 255
202 225 255
202 225 255
202 225 255
202 225 255
202 225 255
202 225 255
202 225 255
202 225 255
203 225 255
203 225 255
203 225 255
203 225 255
203 225 255
203 225 255
203 225 255
203 225 255
203 225 255
203 226 255
203 226 255
203 226 255
203 226 255
203 226 255
203 226 255
203 226 255
204 226 255
204 226 255
204 226 255
204 226 255
204 226 255
204 226 255
204 226 255
204 226 255
204 226 255
204 226 255
204 226 255
204 226 255
204 226 255
204 226 255
204 226 255
204 226 255
204 226 255
204 226 255
205 226 255
205 226 255
205 226 255
205 226 255
205 226 255
205 226 255
204 226 255
204 226 255
204 226 255
204 226 255
204 226 255
204 226 255
204 226 255
204 226 255
204 226 255
204 226 255
204 226 255
204 226 255
204 226 255
204 226 255
204 226 255
204 226 255
204 226 255
204 226 255
203 226 255
203 226 255
203 226 255
203 226 255
203 226 255
203 226 255
203 226 255
203 226 255
203 225 255
203 225 255
203 225 255
203 225 255
203 225 255
203 225 255
203 225 255
203 225 255
203 225 255
202 225 255
202 225 255
202 225 255
202 225 255
202 225 255
202 225 255
202 225 255
202 225 255
202 225 255
202 225 255
202 225 255
202 225 255
202 225 255
202 225 255
202 225 255
201 225 255
201 225 255
201 225 255
201 225 255
201 225 255
201 224 255
201 224 255
201 224 255
201 224 255
201 224 255
201 224 255
201 224 255
201 224 255
201 224 255
201 224 255
200 224 255
200 224 255
200 224 255
200 224 255
200 224 255
200 224 255
200 224 255
200 224 255
200 224 255
200 224 255
200 224 255
200 224 255
200 224 255
200 224 255
200 224 255
199 224 255
199 224 255
199 223 255
199 223 255
199 223 255
199 223 255
199 223 255
199 223 255
199 223 255
199 223 255
199 223 255
199 223 255
199 223 255
199 223 255
198 223 255
198 223 255
198 223 255
198 223 255
198 223 255
198 223 255
198 223 255
198 223 255
198 223 255
198 223 255
198 223 255
198 223 255
198 223 255
198 223 255
197 223 255
197 222 255
197 222 255
197 222 255
197 222 255
197 222 255
197 222 255
197 222 255
197 222 255
197 222 255
197 222 255
197 222 255
197 222 255
197 222 255
197 222 255
196 222 255
196 222 255
196 222 255
196 222 255
196 222 255
196 222 255
196 222 255
196 222 255
196 222 255
196 222 255
196 222 255
196 222 255
196 222 255
196 222 255
196 222 255
196 221 255
196 221 255
195 221 255
195 221 255
195 221 255
195 221 255
195 221 255
195 221 255
195 221 255
195 221 255
195 221 255
195 221 255
195 221 255
195 221 255
195 221 255
195 221 255
195 221 255
195 221 255
195 221 255
195 221 255
195 221 255
195 221 255
195 221 255
194 221 255
194 221 255
194 221 255
194 221 255
194 221 255
194 221 255
194 221 255
194 221 255
194 221 255
194 221 255
194 221 255
194 221 255
194 221 255
194 221 255
194 221 255
194 221 255
194 221 255
194 221 255
194 221 255
194 221 255
194 221 255
194 221 255
194 221 255
194 221 255
194 221 255
194 221 255
194 221 255
194 221 255
194 221 255
194 221 255
194 221 255
194 221 255
194 221 255
194 221 255
194 221 255
194 221 255
194 221 255
194 221 255
194 221 255
194 221 255
194 221 255
194 221 255
194 221 255
194 221 255
194 221 255
194 221 255
194 221 255
194 221 255
194 221 255
194 221 255
194 221 255
194 221 255
194 221 255
194 221 255
194 221 255
194 221 255
194 221 255
194 221 255
194 221 255
194 221 255
194 221 255
194 221 255
194 221 255
194 221 255
194 221 255
194 221 255
194 221 255
194 221 255
194 221 255
194 221 255
195 221 255
195 221 255
195 221 255
195 221 255
195 221 255
195 221 255
195 221 255
195 221 255
195 221 255
195 221 255
195 221 255
195 221 255
195 221 255
195 221 255
195 221 255
195 221 255
195 221 255
195 221 255
195 221 255
195 221 255
195 221 255
196 221 255
196 222 255
196 222 255
196 222 255
196 222 255
196 222 255
196 222 255
196 222 255
196 222 255
196 222 255
196 222 255
196 222 255
196 222 255
196 222 255
196 222 255
196 222 255
196 222 255
197 222 255
197 222 255
197 222 255
197 222 255
197 222 255
197 222 255
197 222 255
197 222 255
197 222 255
197 222 255
197 222 255
197 222 255
197 222 255
197 222 255
197 223 255
198 223 255
198 223 255
198 223 255
198 223 255
198 223 255
198 223 255
198 223 255
198 223 255
198 223 255
198 223 255
198 223 255
198 223 255
198 223 255
198 223 255
199 223 255
199 223 255
199 223 255
199 223 255
199 223 255
199 223 255
199 223 255
199 223 255
199 223 255
199 223 255
199 223 255
199 223 255
199 224 255
199 224 255
200 224 255
200 224 255
200 224 255
200 224 255
200 224 255
200 224 255
200 224 255
200 224 255
200 224 255
200 224 255
200 224 255
200 224 255
200 224 255
200 224 255
200 224 255
201 224 255
201 224 255
201 224 255
201 224 255
201 224 255
201 224 255
201 224 255
201 224 255
201 224 255
201 224 255
201 225 255
201 225 255
201 225 255
201 225 255
201 225 255
202 225 255
202 225 255
202 225 255
202 225 255
202 225 255
202 225 255
202 225 255
202 225 255
202 225 255
202 225 255
202 225 255
202 225 255
202 225 255
202 225 255
202 225 255
203 225 255
203 225 255
203 225 255
203 225 255
203 225 255
203 225 255
203 225 255
203 225 255
203 225 255
203 226 255
203 226 255
203 226 255
203 226 255
203 226 255
203 226 255
203 226 255
203 226 255
204 226 255
204 226 255
204 226 255
204 226 255
204 226 255
204 226 255
204 226 255
204 226 255
204 226 255
204 226 255
204 226 255
204 226 255
204 226 255
204 226 255
204 226 255
204 226 255
204 226 255
204 226 255
205 226 255
205 226 255
205 226 255
205 226 255
205 226 255
205 226 255
205 226 255
205 226 255
205 226 255
205 226 255
205 226 255
204 226 255
204 226 255
204 226 255
204 226 255
204 226 255
204 226 255
204 226 255
204 226 255
204 226 255
204 226 255
204 226 255
204 226 255
204 226 255
204 226 255
204 226 255
204 226 255
204 226 255
203 226 255
203 226 255
203 226 255
203 226 255
203 226 255
203 226 255
203 226 255
203 226 255
203 225 255
203 225 255
203 225 255
203 225 255
203 225 255
203 225 255
203 225 255
203 225 255
203 225 255
202 225 255
202 225 255
202 225 255
202 225 255
202 225 255
202 225 255
202 225 255
202 225 255
202 225 255
202 225 255
202 225 255
202 225 255
202 225 255
202 225 255
202 225 255
201 225 255
201 225 255
201 225 255
201 225 255
201 225 255
201 224 255
201 224 255
201 224 255
201 224 255
201 224 255
201 224 255
201 224 255
201 224 255
201 224 255
201 224 255
200 224 255
200 224 255
200 224 255
200 224 255
200 224 255
200 224 255
200 224 255
200 224 255
200 224 255
200 224 255
200 224 255
200 224 255
200 224 255
200 224 255
200 224 255
199 224 255
199 224 255
199 223 255
199 223 255
199 223 255
199 223 255
199 223 255
199 223 255
199 223 255
199 223 255
199 223 255
199 223 255
199 223 255
199 223 255
198 223 255
198 223 255
198 223 255
198 223 255
198 223 255
198 223 255
198 223 255
198 223 255
198 223 255
198 223 255
198 223 255
198 223 255
198 223 255
198 223 255
197 223 255
197 222 255
197 222 255
197 222 255
197 222 255
197 222 255
197 222 255
197 222 255
197 222 255
197 222 255
197 222 255
197 222 255
197 222 255
197 222 255
197 222 255
197 222 255
196 222 255
196 222 255
196 222 255
196 222 255
196 222 255
196 222 255
196 222 255
196 222 255
196 222 255
196 222 255
196 222 255
196 222 255
196 222 255
196 222 255
196 222 255
196 221 255
196 221 255
195 221 255
195 221 255
195 221 255
195 221 255
195 221 255
195 221 255
195 221 255
195 221 255
195 221 255
195 221 255
195 221 255
195 221 255
195 221 255
195 221 255
195 221 255
195 221 255
195 221 255
195 221 255
195 221 255
195 221 255
195 221 255
195 221 255
194 221 255
194 221 255
194 221 255
194 221 255
194 221 255
194 221 255
194 221 255
194 221 255
194 221 255
194 221 255
194 221 255
194 221 255
194 221 255
194 221 255
194 221 255
194 221 255
194 221 255
194 221 255
194 221 255
194 221 255
194 221 255
194 221 255
194 221 255
194 221 255
194 221 255
194 221 255
194 221 255
194 221 255
194 221 255
194 221 255
194 221 255
194 221 255
194 221 255
194 221 255
194 221 255
194 221 255
194 221 255
194 221 255
194 221 255
194 221 255
194 221 255
194 221 255
194 221 255
194 221 255
194 221 255
194 221 255
194 221 255
194 221 255
194 221 255
194 221 255
194 221 255
194 221 255
194 221 255
194 221 255
194 221 255
194 221 255
194 221 255
194 221 255
194 221 255
194 221 255
194 221 255
194 221 255
195 221 255
195 221 255
195 221 255
195 221 255
195 221 255
195 221 255
195 221 255
195 221 255
195 221 255
195 221 255
195 221 255
195 221 255
195 221 255
195 221 255
195 221 255
195 221 255
195 221 255
195 221 255
195 221 255
195 221 255
195 221 255
195 221 255
195 221 255
196 221 255
196 222 255
196 222 255
196 222 255
196 222 255
196 222 255
196 222 255
196 222 255
196 222 255
196 222 255
196 222 255
196 222 255
196 222 255
196 222 255
196 222 255
196 222 255
197 222 255
197 222 255
197 222 255
197 222 255
197 222 255
197 222 255
197 222 255
197 222 255
197 222 255
197 222 255
197 222 255
197 222 255
197 222 255
197 222 255
197 222 255
198 223 255
198 223 255
198 223 255
198 223 255
198 223 255
198 223 255
198 223 255
198 223 255
198 223 255
198 223 255
198 223 255
198 223 255
198 223 255
198 223 255
198 223 255
199 223 255
199 223 255
199 223 255
199 223 255
199 223 255
199 223 255
199 223 255
199 223 255
199 223 255
199 223 255
199 223 255
199 223 255
199 224 255
199 224 255
200 224 255
200 224 255
200 224 255
200 224 255
200 224 255
200 224 255
200 224 255
200 224 255
200 224 255
200 224 255
200 224 255
200 224 255
200 224 255
200 224 255
200 224 255
201 224 255
201 224 255
201 224 255
201 224 255
201 224 255
201 224 255
201 224 255
201 224 255
201 224 255
201 224 255
201 225 255
201 225 255
201 225 255
201 225 255
201 225 255
202 225 255
202 225 255
202 225 255
202 225 255
202 225 255
202 225 255
202 225 255
202 225 255
202 225 255
202 225 255
202 225 255
202 225 255
202 225 255
202 225 255
202 225 255
203 225 255
203 225 255
203 225 255
203 225 255
203 225 255
203 225 255
203 225 255
203 225 255
203 225 255
203 226 255
203 226 255
203 226 255
203 226 255
203 226 255
203 226 255
203 226 255
203 226 255
204 226 255
204 226 255
204 226 255
204 226 255
204 226 255
204 226 255
204 226 255
204 226 255
204 226 255
204 226 255
204 226 255
204 226 255
204 226 255
204 226 255
204 226 255
204 226 255
204 226 255
205 226 255
205 226 255
205 226 255
205 226 255
205 226 255
205 226 255
205 226 255
205 227 255
205 227 255
205 226 255
205 226 255
205 226 255
205 226 255
205 226 255
205 226 255
205 226 255
204 226 255
204 226 255
204 226 255
204 226 255
204 226 255
204 226 255
204 226 255
204 226 255
204 226 255
204 226 255
204 226 255
204 226 255
204 226 255
204 226 255
204 226 255
204 226 255
204 226 255
204 226 255
203 226 255
203 226 255
203 226 255
203 226 255
203 226 255
203 226 255
203 226 255
203 225 255
203 225 255
203 225 255
203 225 255
203 225 255
203 225 255
203 225 255
203 225 255
203 225 255
202 225 255
202 225 255
202 225 255
202 225 255
202 225 255
202 225 255
202 225 255
202 225 255
202 225 255
202 225 255
202 225 255
202 225 255
202 225 255
202 225 255
202 225 255
202 225 255
201 225 255
201 225 255
201 225 255
201 225 255
201 224 255
201 224 255
201 224 255
201 224 255
201 224 255
201 224 255
201 224 255
201 224 255
201 224 255
201 224 255
200 224 255
200 224 255
200 224 255
200 224 255
200 224 255
200 224 255
200 224 255
200 224 255
200 224 255
200 224 255
200 224 255
200 224 255
200 224 255
200 224 255
200 224 255
199 224 255
199 224 255
199 223 255
199 223 255
199 223 255
199 223 255
199 223 255
199 223 255
199 223 255
199 223 255
199 223 255
199 223 255
199 223 255
199 223 255
198 223 255
198 223 255
198 223 255
198 223 255
198 223 255
198 223 255
198 223 255
198 223 255
198 223 255
198 223 255
198 223 255
198 223 255
198 223 255
198 223 255
198 223 255
197 222 255
197 222 255
197 222 255
197 222 255
197 222 255
197 222 255
197 222 255
197 222 255
197 222 255
197 222 255
197 222 255
197 222 255
197 222 255
197 222 255
197 222 255
196 222 255
196 222 255
196 222 255
196 222 255
196 222 255
196 222 255
196 222 255
196 222 255
196 222 255
196 222 255
196 222 255
196 222 255
196 222 255
196 222 255
196 222 255
196 222 255
196 221 255
196 221 255
195 221 255
195 221 255
195 221 255
195 221 255
195 221 255
195 221 255
195 221 255
195 221 255
195 221 255
195 221 255
195 221 255
195 221 255
195 221 255
195 221 255
195 221 255
195 221 255
195 221 255
195 221 255
195 221 255
195 221 255
195 221 255
195 221 255
195 221 255
194 221 255
194 221 255
194 221 255
194 221 255
194 221 255
194 221 255
194 221 255
194 221 255
194 221 255
194 221 255
194 221 255
194 221 255
194 221 255
194 221 255
194 221 255
194 221 255
194 221 255
194 221 255
194 221 255
194 221 255
194 221 255
194 221 255
194 221 255
194 221 255
194 221 255
194 221 255
194 221 255
194 221 255
194 221 255
194 221 255
194 221 255
194 221 255
194 221 255
194 221 255
194 221 255
194 221 255
194 221 255
194 221 255
194 221 255
194 221 255
194 221 255
194 221 255
194 221 255
194 221 255
194 221 255
194 221 255
194 221 255
194 221 255
194 221 255
194 221 255
194 221 255
194 221 255
194 221 255
194 221 255
195 221 255
195 221 255
195 221 255
195 221 255
195 221 255
195 221 255
195 221 255
195 221 255
195 221 255
195 221 255
195 221 255
195 221 255
195 221 255
195 221 255
195 221 255
195 221 255
195 221 255
195 221 255
195 221 255
195 221 255
195 221 255
195 221 255
195 221 255
195 221 255
196 221 255
196 222 255
196 222 255
196 222 255
196 222 255
196 222 255
196 222 255
196 222 255
196 222 255
196 222 255
196 222 255
196 222 255
196 222 255
196 222 255
196 222 255
196 222 255
196 222 255
197 222 255
197 222 255
197 222 255
197 222 255
197 222 255
197 222 255
197 222 255
197 222 255
197 222 255
197 222 255
197 222 255
197 222 255
197 222 255
197 222 255
197 222 255
198 223 255
198 223 255
198 223 255
198 223 255
198 223 255
198 223 255
198 223 255
198 223 255
198 223 255
198 223 255
198 223 255
198 223 255
198 223 255
198 223 255
198 223 255
199 223 255
199 223 255
199 223 255
199 223 255
199 223 255
199 223 255
199 223 255
199 223 255
199 223 255
199 223 255
199 223 255
199 223 255
199 224 255
199 224 255
200 224 255
200 224 255
200 224 255
200 224 255
200 224 255
200 224 255
200 224 255
200 224 255
200 224 255
200 224 255
200 224 255
200 224 255
200 224 255
200 224 255
200 224 255
201 224 255
201 224 255
201 224 255
201 224 255
201 224 255
201 224 255
201 224 255
201 224 255
201 224 255
201 224 255
201 225 255
201 225 255
201 225 255
201 225 255
202 225 255
202 225 255
202 225 255
202 225 255
202 225 255
202 225 255
202 225 255
202 225 255
202 225 255
202 225 255
202 225 255
202 225 255
202 225 255
202 225 255
202 225 255
202 225 255
203 225 255
203 225 255
203 225 255
203 225 255
203 225 255
203 225 255
203 225 255
203 225 255
203 225 255
203 226 255
203 226 255
203 226 255
203 226 255
203 226 255
203 226 255
203 226 255
204 226 255
204 226 255
204 226 255
204 226 255
204 226 255
204 226 255
204 226 255
204 226 255
204 226 255
204 226 255
204 226 255
204 226 255
204 226 255
204 226 255
204 226 255
204 226 255
204 226 255
204 226 255
205 226 255
205 226 255
205 226 255
205 226 255
205 226 255
205 226 255
205 226 255
205 227 255
205 227 255
205 227 255
205 227 255
205 227 255
205 227 255
205 226 255
205 226 255
205 226 255
205 226 255
205 226 255
205 226 255
205 226 255
205 226 255
204 226 255
204 226 255
204 226 255
204 226 255
204 226 255
204 226 255
204 226 255
204 226 255
204 226 255
204 226 255
204 226 255
204 226 255
204 226 255
204 226 255
204 226 255
204 226 255
204 226 255
203 226 255
203 226 255
203 226 255
203 226 255
203 226 255
203 226 255
203 226 255
203 225 255
203 225 255
203 225 255
203 225 255
203 225 255
203 225 255
203 225 255
203 225 255
203 225 255
202 225 255
202 225 255
202 225 255
202 225 255
202 225 255
202 225 255
202 225 255
202 225 255
202 225 255
202 225 255
202 225 255
202 225 255
202 225 255
202 225 255
202 225 255
202 225 255
201 225 255
201 225 255
201 225 255
201 225 255
201 224 255
201 224 255
201 224 255
201 224 255
201 224 255
201 224 255
201 224 255
201 224 255
201 224 255
201 224 255
200 224 255
200 224 255
200 224 255
200 224 255
200 224 255
200 224 255
200 224 255
200 224 255
200 224 255
200 224 255
200 224 255
200 224 255
200 224 255
200 224 255
200 224 255
199 224 255
199 224 255
199 223 255
199 223 255
199 223 255
199 223 255
199 223 255
199 223 255
199 223 255
199 223 255
199 223 255
199 223 255
199 223 255
199 223 255
198 223 255
198 223 255
198 223 255
198 223 255
198 223 255
198 223 255
198 223 255
198 223 255
198 223 255
198 223 255
198 223 255
198 223 255
198 223 255
198 223 255
198 223 255
197 222 255
197 222 255
197 222 255
197 222 255
197 222 255
197 222 255
197 222 255
197 222 255
197 222 255
197 222 255
197 222 255
197 222 255
197 222 255
197 222 255
197 222 255
196 222 255
196 222 255
196 222 255
196 222 255
196 222 255
196 222 255
196 222 255
196 222 255
196 222 255
196 222 255
196 222 255
196 222 255
196 222 255
196 222 255
196 222 255
196 222 255
196 222 255
196 221 255
195 221 255
195 221 255
195 221 255
195 221 255
195 221 255
195 221 255
195 221 255
195 221 255
195 221 255
195 221 255
195 221 255
195 221 255
195 221 255
195 221 255
195 221 255
195 221 255
195 221 255
195 221 255
195 221 255
195 221 255
195 221 255
195 221 255
195 221 255
195 221 255
195 221 255
195 221 255
194 221 255
194 221 255
194 221 255
194 221 255
194 221 255
194 221 255
194 221 255
194 221 255
194 221 255
194 221 255
194 221 255
194 221 255
194 221 255
194 221 255
194 221 255
194 221 255
194 221 255
194 221 255
194 221 255
194 221 255
194 221 255
194 221 255
194 221 255
194 221 255
194 221 255
194 221 255
194 221 255
194 221 255
194 221 255
194 221 255
194 221 255
194 221 255
194 221 255
194 221 255
194 221 255
194 221 255
194 221 255
194 221 255
194 221 255
194 221 255
194 221 255
194 221 255
194 221 255
194 221 255
195 221 255
195 221 255
195 221 255
195 221 255
195 221 255
195 221 255
195 221 255
195 221 255
195 221 255
195 221 255
195 221 255
195 221 255
195 221 255
195 221 255
195 221 255
195 221 255
195 221 255
195 221 255
195 221 255
195 221 255
195 221 255
195 221 255
195 221 255
195 221 255
195 221 255
195 221 255
196 221 255
196 222 255
196 222 255
196 222 255
196 222 255
196 222 255
196 222 255
196 222 255
196 222 255
196 222 255
196 222 255
196 222 255
196 222 255
196 222 255
196 222 255
196 222 255
196 222 255
196 222 255
197 222 255
197 222 255
197 222 255
197 222 255
197 222 255
197 222 255
197 222 255
197 222 255
197 222 255
197 222 255
197 222 255
197 222 255
197 222 255
197 222 255
197 222 255
198 223 255
198 223 255
198 223 255
198 223 255
198 223 255
198 223 255
198 223 255
198 223 255
198 223 255
198 223 255
198 223 255
198 223 255
198 223 255
198 223 255
198 223 255
199 223 255
199 223 255
199 223 255
199 223 255
199 223 255
199 223 255
199 223 255
199 223 255
199 223 255
199 223 255
199 223 255
199 223 255
199 224 255
199 224 255
200 224 255
200 224 255
200 224 255
200 224 255
200 224 255
200 224 255
200 224 255
200 224 255
200 224 255
200 224 255
200 224 255
200 224 255
200 224 255
200 224 255
200 224 255
201 224 255
201 224 255
201 224 255
201 224 255
201 224 255
201 224 255
201 224 255
201 224 255
201 224 255
201 224 255
201 225 255
201 225 255
201 225 255
201 225 255
202 225 255
202 225 255
202 225 255
202 225 255
202 225 255
202 225 255
202 225 255
202 225 255
202 225 255
202 225 255
202 225 255
202 225 255
202 225 255
202 225 255
202 225 255
202 225 255
203 225 255
203 225 255
203 225 255
203 225 255
203 225 255
203 225 255
203 225 255
203 225 255
203 225 255
203 226 255
203 226 255
203 226 255
203 226 255
203 226 255
203 226 255
203 226 255
204 226 255
204 226 255
204 226 255
204 226 255
204 226 255
204 226 255
204 226 255
204 226 255
204 226 255
204 226 255
204 226 255
204 226 255
204 226 255
204 226 255
204 226 255
204 226 255
204 226 255
204 226 255
205 226 255
205 226 255
205 226 255
205 226 255
205 226 255
205 226 255
205 226 255
205 227 255
205 227 255
205 227 255
205 227 255
205 227 255
205 227 255
205 227 255
205 227 255
205 227 255
205 227 255
205 227 255
205 226 255
205 226 255
205 226 255
205 226 255
205 226 255
205 226 255
205 226 255
204 226 255
204 226 255
204 226 255
204 226 255
204 226 255
204 226 255
204 226 255
204 226 255
204 226 255
204 226 255
204 226 255
204 226 255
204 226 255
204 226 255
204 226 255
204 226 255
204 226 255
203 226 255
203 226 255
203 226 255
203 226 255
203 226 255
203 226 255
203 226 255
203 226 255
203 225 255
203 225 255
203 225 255
203 225 255
203 225 255
203 225 255
203 225 255
203 225 255
203 225 255
202 225 255
202 225 255
202 225 255
202 225 255
202 225 255
202 225 255
202 225 255
202 225 255
202 225 255
202 225 255
202 225 255
202 225 255
202 225 255
202 225 255
202 225 255
201 225 255
201 225 255
201 225 255
201 225 255
201 224 255
201 224 255
201 224 255
201 224 255
201 224 255
201 224 255
201 224 255
201 224 255
201 224 255
201 224 255
201 224 255
200 224 255
200 224 255
200 224 255
200 224 255
200 224 255
200 224 255
200 224 255
200 224 255
200 224 255
200 224 255
200 224 255
200 224 255
200 224 255
200 224 255
199 224 255
199 224 255
199 223 255
199 223 255
199 223 255
199 223 255
199 223 255
199 223 255
199 223 255
199 223 255
199 223 255
199 223 255
199 223 255
199 223 255
198 223 255
198 223 255
198 223 255
198 223 255
198 223 255
198 223 255
198 223 255
198 223 255
198 223 255
198 223 255
198 223 255
198 223 255
198 223 255
198 223 255
198 223 255
197 223 255
197 222 255
197 222 255
197 222 255
197 222 255
197 222 255
197 222 255
197 222 255
197 222 255
197 222 255
197 222 255
197 222 255
197 222 255
197 222 255
197 222 255
197 222 255
196 222 255
196 222 255
196 222 255
196 222 255
196 222 255
196 222 255
196 222 255
196 222 255
196 222 255
196 222 255
196 222 255
196 222 255
196 222 255
196 222 255
196 222 255
196 222 255
196 221 255
196 221 255
195 221 255
195 221 255
195 221 255
195 221 255
195 221 255
195 221 255
195 221 255
195 221 255
195 221 255
195 221 255
195 221 255
195 221 255
195 221 255
195 221 255
195 221 255
195 221 255
195 221 255
195 221 255
195 221 255
195 221 255
195 221 255
195 221 255
195 221 255
195 221 255
195 221 255
195 221 255
195 221 255
195 221 255
195 221 255
195 221 255
194 221 255
194 221 255
194 221 255
194 221 255
194 221 255
194 221 255
194 221 255
194 221 255
194 221 255
194 221 255
194 221 255
194 221 255
194 221 255
194 221 255
194 221 255
194 221 255
194 221 255
194 221 255
194 221 255
194 221 255
194 221 255
194 221 255
194 221 255
194 221 255
194 221 255
194 221 255
194 221 255
194 221 255
194 221 255
194 221 255
195 221 255
195 221 255
195 221 255
195 221 255
195 221 255
195 221 255
195 221 255
195 221 255
195 221 255
195 221 255
195 221 255
195 221 255
195 221 255
195 221 255
195 221 255
195 221 255
195 221 255
195 221 255
195 221 255
195 221 255
195 221 255
195 221 255
195 221 255
195 221 255
195 221 255
195 221 255
195 221 255
195 221 255
195 221 255
195 221 255
196 221 255
196 221 255
196 222 255
196 222 255
196 222 255
196 222 255
196 222 255
196 222 255
196 222 255
196 222 255
196 222 255
196 222 255
196 222 255
196 222 255
196 222 255
196 222 255
196 222 255
196 222 255
197 222 255
197 222 255
197 222 255
197 222 255
197 222 255
197 222 255
197 222 255
197 222 255
197 222 255
197 222 255
197 222 255
197 222 255
197 222 255
197 222 255
197 222 255
197 222 255
198 223 255
198 223 255
198 223 255
198 223 255
198 223 255
198 223 255
198 223 255
198 223 255
198 223 255
198 223 255
198 223 255
198 223 255
198 223 255
198 223 255
198 223 255
199 223 255
199 223 255
199 223 255
199 223 255
199 223 255
199 223 255
199 223 255
199 223 255
199 223 255
199 223 255
199 223 255
199 223 255
199 224 255
199 224 255
200 224 255
200 224 255
200 224 255
200 224 255
200 224 255
200 224 255
200 224 255
200 224 255
200 224 255
200 224 255
200 224 255
200 224 255
200 224 255
200 224 255
201 224 255
201 224 255
201 224 255
201 224 255
201 224 255
201 224 255
201 224 255
201 224 255
201 224 255
201 224 255
201 224 255
201 225 255
201 225 255
201 225 255
201 225 255
202 225 255
202 225 255
202 225 255
202 225 255
202 225 255
202 225 255
202 225 255
202 225 255
202 225 255
202 225 255
202 225 255
202 225 255
202 225 255
202 225 255
202 225 255
203 225 255
203 225 255
203 225 255
203 225 255
203 225 255
203 225 255
203 225 255
203 225 255
203 225 255
203 226 255
203 226 255
203 226 255
203 226 255
203 226 255
203 226 255
203 226 255
203 226 255
204 226 255
204 226 255
204 226 255
204 226 255
204 226 255
204 226 255
204 226 255
204 226 255
204 226 255
204 226 255
204 226 255
204 226 255
204 226 255
204 226 255
204 226 255
204 226 255
204 226 255
205 226 255
205 226 255
205 226 255
205 226 255
205 226 255
205 226 255
205 226 255
205 227 255
205 227 255
205 227 255
205 227 255
205 227 255
205 227 255
205 227 255
205 227 255
205 227 255
205 227 255
205 227 255
205 227 255
205 227 255
205 227 255
205 227 255
205 227 255
205 226 255
205 226 255
205 226 255
205 226 255
205 226 255
205 226 255
205 226 255
205 226 255
204 226 255
204 226 255
204 226 255
204 226 255
204 226 255
204 226 255
204 226 255
204 226 255
204 226 255
204 226 255
204 226 255
204 226 255
204 226 255
204 226 255
204 226 255
204 226 255
204 226 255
203 226 255
203 226 255
203 226 255
203 226 255
203 226 255
203 226 255
203 226 255
203 225 255
203 225 255
203 225 255
203 225 255
203 225 255
203 225 255
203 225 255
203 225 255
203 225 255
202 225 255
202 225 255
202 225 255
202 225 255
202 225 255
202 225 255
202 225 255
202 225 255
202 225 255
202 225 255
202 225 255
202 225 255
202 225 255
202 225 255
202 225 255
201 225 255
201 225 255
201 225 255
201 225 255
201 224 255
201 224 255
201 224 255
201 224 255
201 224 255
201 224 255
201 224 255
201 224 255
201 224 255
201 224 255
201 224 255
200 224 255
200 224 255
200 224 255
200 224 255
200 224 255
200 224 255
200 224 255
200 224 255
200 224 255
200 224 255
200 224 255
200 224 255
200 224 255
200 224 255
199 224 255
199 224 255
199 223 255
199 223 255
199 223 255
199 223 255
199 223 255
199 223 255
199 223 255
199 223 255
199 223 255
199 223 255
199 223 255
199 223 255
199 223 255
198 223 255
198 223 255
198 223 255
198 223 255
198 223 255
198 223 255
198 223 255
198 223 255
198 223 255
198 223 255
198 223 255
198 223 255
198 223 255
198 223 255
197 223 255
197 222 255
197 222 255
197 222 255
197 222 255
197 222 255
197 222 255
197 222 255
197 222 255
197 222 255
197 222 255
197 222 255
197 222 255
197 222 255
197 222 255
197 222 255
196 222 255
196 222 255
196 222 255
196 222 255
196 222 255
196 222 255
196 222 255
196 222 255
196 222 255
196 222 255
196 222 255
196 222 255
196 222 255
196 222 255
196 222 255
196 222 255
196 222 255
196 221 255
196 221 255
195 221 255
195 221 255
195 221 255
195 221 255
195 221 255
195 221 255
195 221 255
195 221 255
195 221 255
195 221 255
195 221 255
195 221 255
195 221 255
195 221 255
195 221 255
195 221 255
195 221 255
195 221 255
195 221 255
195 221 255
195 221 255
195 221 255
195 221 255
195 221 255
195 221 255
195 221 255
195 221 255
195 221 255
195 221 255
195 221 255
195 221 255
195 221 255
195 221 255
195 221 255
195 221 255
195 221 255
195 221 255
195 221 255
195 221 255
195 221 255
195 221 255
195 221 255
195 221 255
195 221 255
195 221 255
195 221 255
195 221 255
195 221 255
195 221 255
195 221 255
195 221 255
195 221 255
195 221 255
195 221 255
195 221 255
195 221 255
195 221 255
195 221 255
195 221 255
195 221 255
195 221 255
195 221 255
195 221 255
195 221 255
195 221 255
195 221 255
195 221 255
195 221 255
195 221 255
195 221 255
195 221 255
195 221 255
195 221 255
195 221 255
195 221 255
195 221 255
195 221 255
195 221 255
195 221 255
195 221 255
195 221 255
195 221 255
195 221 255
195 221 255
196 221 255
196 222 255
196 222 255
196 222 255
196 222 255
196 222 255
196 222 255
196 222 255
196 222 255
196 222 255
196 222 255
196 222 255
196 222 255
196 222 255
196 222 255
196 222 255
196 222 255
196 222 255
196 222 255
197 222 255
197 222 255
197 222 255
197 222 255
197 222 255
197 222 255
197 222 255
197 222 255
197 222 255
197 222 255
197 222 255
197 222 255
197 222 255
197 222 255
197 222 255
197 223 255
198 223 255
198 223 255
198 223 255
198 223 255
198 223 255
198 223 255
198 223 255
198 223 255
198 223 255
198 223 255
198 223 255
198 223 255
198 223 255
198 223 255
199 223 255
199 223 255
199 223 255
199 223 255
199 223 255
199 223 255
199 223 255
199 223 255
199 223 255
199 223 255
199 223 255
199 223 255
199 224 255
199 224 255
199 224 255
200 224 255
200 224 255
200 224 255
200 224 255
200 224 255
200 224 255
200 224 255
200 224 255
200 224 255
200 224 255
200 224 255
200 224 255
200 224 255
200 224 255
201 224 255
201 224 255
201 224 255
201 224 255
201 224 255
201 224 255
201 224 255
201 224 255
201 224 255
201 224 255
201 225 255
201 225 255
201 225 255
201 225 255
201 225 255
202 225 255
202 225 255
202 225 255
202 225 255
202 225 255
202 225 255
202 225 255
202 225 255
202 225 255
202 225 255
202 225 255
202 225 255
202 225 255
202 225 255
202 225 255
203 225 255
203 225 255
203 225 255
203 225 255
203 225 255
203 225 255
203 225 255
203 225 255
203 225 255
203 226 255
203 226 255
203 226 255
203 226 255
203 226 255
203 226 255
203 226 255
204 226 255
204 226 255
204 226 255
204 226 255
204 226 255
204 226 255
204 226 255
204 226 255
204 226 255
204 226 255
204 226 255
204 226 255
204 226 255
204 226 255
204 226 255
204 226 255
204 226 255
204 226 255
205 226 255
205 226 255
205 226 255
205 226 255
205 226 255
205 226 255
205 226 255
205 227 255
205 227 255
205 227 255
205 227 255
205 227 255
205 227 255
205 227 255
205 227 255
205 227 255
205 227 255
205 227 255
205 227 255
205 227 255
205 227 255
205 227 255
205 227 255
205 227 255
205 227 255
205 227 255
205 227 255
205 226 255
205 226 255
205 226 255
205 226 255
205 226 255
205 226 255
205 226 255
205 226 255
204 226 255
204 226 255
204 226 255
204 226 255
204 226 255
204 226 255
204 226 255
204 226 255
204 226 255
204 226 255
204 226 255
204 226 255
204 226 255
204 226 255
204 226 255
204 226 255
204 226 255
203 226 255
203 226 255
203 226 255
203 226 255
203 226 255
203 226 255
203 226 255
203 225 255
203 225 255
203 225 255
203 225 255
203 225 255
203 225 255
203 225 255
203 225 255
203 225 255
202 225 255
202 225 255
202 225 255
202 225 255
202 225 255
202 225 255
202 225 255
202 225 255
202 225 255
202 225 255
202 225 255
202 225 255
202 225 255
202 225 255
202 225 255
201 225 255
201 225 255
201 225 255
201 225 255
201 225 255
201 224 255
201 224 255
201 224 255
201 224 255
201 224 255
201 224 255
201 224 255
201 224 255
201 224 255
201 224 255
200 224 255
200 224 255
200 224 255
200 224 255
200 224 255
200 224 255
200 224 255
200 224 255
200 224 255
200 224 255
200 224 255
200 224 255
200 224 255
200 224 255
199 224 255
199 224 255
199 224 255
199 223 255
199 223 255
199 223 255
199 223 255
199 223 255
199 223 255
199 223 255
199 223 255
199 223 255
199 223 255
199 223 255
199 223 255
198 223 255
198 223 255
198 223 255
198 223 255
198 223 255
198 223 255
198 223 255
198 223 255
198 223 255
198 223 255
198 223 255
198 223 255
198 223 255
198 223 255
198 223 255
197 222 255
197 222 255
197 222 255
197 222 255
197 222 255
197 222 255
197 222 255
197 222 255
197 222 255
197 222 255
197 222 255
197 222 255
197 222 255
197 222 255
197 222 255
197 222 255
196 222 255
196 222 255
196 222 255
196 222 255
196 222 255
196 222 255
196 222 255
196 222 255
196 222 255
196 222 255
196 222 255
196 222 255
196 222 255
196 222 255
196 222 255
196 222 255
196 222 255
196 222 255
196 221 255
196 221 255
195 221 255
195 221 255
195 221 255
195 221 255
195 221 255
195 221 255
195 221 255
195 221 255
195 221 255
195 221 255
195 221 255
195 221 255
195 221 255
195 221 255
195 221 255
195 221 255
195 221 255
195 221 255
195 221 255
195 221 255
195 221 255
195 221 255
195 221 255
195 221 255
195 221 255
195 221 255
195 221 255
195 221 255
195 221 255
195 221 255
195 221 255
195 221 255
195 221 255
195 221 255
195 221 255
195 221 255
195 221 255
195 221 255
195 221 255
195 221 255
195 221 255
195 221 255
195 221 255
195 221 255
195 221 255
195 221 255
195 221 255
195 221 255
195 221 255
195 221 255
195 221 255
195 221 255
195 221 255
195 221 255
195 221 255
195 221 255
195 221 255
195 221 255
195 221 255
195 221 255
195 221 255
195 221 255
195 221 255
195 221 255
195 221 255
195 221 255
195 221 255
195 221 255
195 221 255
195 221 255
195 221 255
195 221 255
195 221 255
195 221 255
195 221 255
195 221 255
196 221 255
196 221 255
196 222 255
196 222 255
196 222 255
196 222 255
196 222 255
196 222 255
196 222 255
196 222 255
196 222 255
196 222 255
196 222 255
196 222 255
196 222 255
196 222 255
196 222 255
196 222 255
196 222 255
196 222 255
197 222 255
197 222 255
197 222 255
197 222 255
197 222 255
197 222 255
197 222 255
197 222 255
197 222 255
197 222 255
197 222 255
197 222 255
197 222 255
197 222 255
197 222 255
197 222 255
198 223 255
198 223 255
198 223 255
198 223 255
198 223 255
198 223 255
198 223 255
198 223 255
198 223 255
198 223 255
198 223 255
198 223 255
198 223 255
198 223 255
198 223 255
199 223 255
199 223 255
199 223 255
199 223 255
199 223 255
199 223 255
199 223 255
199 223 255
199 223 255
199 223 255
199 223 255
199 223 255
199 224 255
199 224 255
199 224 255
200 224 255
200 224 255
200 224 255
200 224 255
200 224 255
200 224 255
200 224 255
200 224 255
200 224 255
200 224 255
200 224 255
200 224 255
200 224 255
200 224 255
201 224 255
201 224 255
201 224 255
201 224 255
201 224 255
201 224 255
201 224 255
201 224 255
201 224 255
201 224 255
201 225 255
201 225 255
201 225 255
201 225 255
201 225 255
202 225 255
202 225 255
202 225 255
202 225 255
202 225 255
202 225 255
202 225 255
202 225 255
202 225 255
202 225 255
202 225 255
202 225 255
202 225 255
202 225 255
202 225 255
203 225 255
203 225 255
203 225 255
203 225 255
203 225 255
203 225 255
203 225 255
203 225 255
203 225 255
203 226 255
203 226 255
203 226 255
203 226 255
203 226 255
203 226 255
203 226 255
204 226 255
204 226 255
204 226 255
204 226 255
204 226 255
204 226 255
204 226 255
204 226 255
204 226 255
204 226 255
204 226 255
204 226 255
204 226 255
204 226 255
204 226 255
204 226 255
204 226 255
205 226 255
205 226 255
205 226 255
205 226 255
205 226 255
205 226 255
205 226 255
205 226 255
205 227 255
205 227 255
205 227 255
205 227 255
205 227 255
205 227 255
205 227 255
205 227 255
205 227 255
205 227 255
205 227 255
206 227 255
206 227 255
206 227 255
205 227 255
205 227 255
205 227 255
205 227 255
205 227 255
205 227 255
205 227 255
205 227 255
205 227 255
205 227 255
205 227 255
205 226 255
205 226 255
205 226 255
205 226 255
205 226 255
205 226 255
205 226 255
204 226 255
204 226 255
204 226 255
204 226 255
204 226 255
204 226 255
204 226 255
204 226 255
204 226 255
204 226 255
204 226 255
204 226 255
204 226 255
204 226 255
204 226 255
204 226 255
204 226 255
203 226 255
203 226 255
203 226 255
203 226 255
203 226 255
203 226 255
203 226 255
203 226 255
203 225 255
203 225 255
203 225 255
203 225 255
203 225 255
203 225 255
203 225 255
203 225 255
202 225 255
202 225 255
202 225 255
202 225 255
202 225 255
202 225 255
202 225 255
202 225 255
202 225 255
202 225 255
202 225 255
202 225 255
202 225 255
202 225 255
202 225 255
202 225 255
201 225 255
201 225 255
201 225 255
201 225 255
201 224 255
201 224 255
201 224 255
201 224 255
201 224 255
201 224 255
201 224 255
201 224 255
201 224 255
201 224 255
200 224 255
200 224 255
200 224 255
200 224 255
200 224 255
200 224 255
200 224 255
200 224 255
200 224 255
200 224 255
200 224 255
200 224 255
200 224 255
200 224 255
200 224 255
199 224 255
199 224 255
199 223 255
199 223 255
199 223 255
199 223 255
199 223 255
199 223 255
199 223 255
199 223 255
199 223 255
199 223 255
199 223 255
199 223 255
198 223 255
198 223 255
198 223 255
198 223 255
198 223 255
198 223 255
198 223 255
198 223 255
198 223 255
198 223 255
198 223 255
198 223 255
198 223 255
198 223 255
198 223 255
197 222 255
197 222 255
197 222 255
197 222 255
197 222 255
197 222 255
197 222 255
197 222 255
197 222 255
197 222 255
197 222 255
197 222 255
197 222 255
197 222 255
197 222 255
197 222 255
197 222 255
196 222 255
196 222 255
196 222 255
196 222 255
196 222 255
196 222 255
196 222 255
196 222 255
196 222 255
196 222 255
196 222 255
196 222 255
196 222 255
196 222 255
196 222 255
196 222 255
196 222 255
196 222 255
196 221 255
196 221 255
196 221 255
195 221 255
195 221 255
195 221 255
195 221 255
195 221 255
195 221 255
195 221 255
195 221 255
195 221 255
195 221 255
195 221 255
195 221 255
195 221 255
195 221 255
195 221 255
195 221 255
195 221 255
195 221 255
195 221 255
195 221 255
195 221 255
195 221 255
195 221 255
195 221 255
195 221 255
195 221 255
195 221 255
195 221 255
195 221 255
195 221 255
195 221 255
195 221 255
195 221 255
195 221 255
195 221 255
195 221 255
195 221 255
195 221 255
195 221 255
195 221 255
195 221 255
195 221 255
195 221 255
195 221 255
195 221 255
195 221 255
195 221 255
195 221 255
195 221 255
195 221 255
195 221 255
195 221 255
195 221 255
195 221 255
195 221 255
195 221 255
195 221 255
195 221 255
195 221 255
195 221 255
195 221 255
195 221 255
195 221 255
195 221 255
195 221 255
195 221 255
195 221 255
195 221 255
196 221 255
196 221 255
196 222 255
196 222 255
196 222 255
196 222 255
196 222 255
196 222 255
196 222 255
196 222 255
196 222 255
196 222 255
196 222 255
196 222 255
196 222 255
196 222 255
196 222 255
196 222 255
196 222 255
196 222 255
196 222 255
197 222 255
197 222 255
197 222 255
197 222 255
197 222 255
197 222 255
197 222 255
197 222 255
197 222 255
197 222 255
197 222 255
197 222 255
197 222 255
197 222 255
197 222 255
197 222 255
197 223 255
198 223 255
198 223 255
198 223 255
198 223 255
198 223 255
198 223 255
198 223 255
198 223 255
198 223 255
198 223 255
198 223 255
198 223 255
198 223 255
198 223 255
198 223 255
199 223 255
199 223 255
199 223 255
199 223 255
199 223 255
199 223 255
199 223 255
199 223 255
199 223 255
199 223 255
199 223 255
199 223 255
199 224 255
199 224 255
199 224 255
200 224 255
200 224 255
200 224 255
200 224 255
200 224 255
200 224 255
200 224 255
200 224 255
200 224 255
200 224 255
200 224 255
200 224 255
200 224 255
200 224 255
201 224 255
201 224 255
201 224 255
201 224 255
201 224 255
201 224 255
201 224 255
201 224 255
201 224 255
201 224 255
201 225 255
201 225 255
201 225 255
201 225 255
201 225 255
202 225 255
202 225 255
202 225 255
202 225 255
202 225 255
202 225 255
202 225 255
202 225 255
202 225 255
202 225 255
202 225 255
202 225 255
202 225 255
202 225 255
202 225 255
203 225 255
203 225 255
203 225 255
203 225 255
203 225 255
203 225 255
203 225 255
203 225 255
203 226 255
203 226 255
203 226 255
203 226 255
203 226 255
203 226 255
203 226 255
204 226 255
204 226 255
204 226 255
204 226 255
204 226 255
204 226 255
204 226 255
204 226 255
204 226 255
204 226 255
204 226 255
204 226 255
204 226 255
204 226 255
204 226 255
204 226 255
204 226 255
204 226 255
205 226 255
205 226 255
205 226 255
205 226 255
205 226 255
205 226 255
205 226 255
205 227 255
205 227 255
205 227 255
205 227 255
205 227 255
205 227 255
205 227 255
205 227 255
205 227 255
205 227 255
205 227 255
206 227 255
206 227 255
206 227 255
206 227 255
206 227 255
206 227 255
206 227 255
206 227 255
205 227 255
205 227 255
205 227 255
205 227 255
205 227 255
205 227 255
205 227 255
205 227 255
205 227 255
205 227 255
205 227 255
205 226 255
205 226 255
205 226 255
205 226 255
205 226 255
205 226 255
205 226 255
205 226 255
204 226 255
204 226 255
204 226 255
204 226 255
204 226 255
204 226 255
204 226 255
204 226 255
204 226 255
204 226 255
204 226 255
204 226 255
204 226 255
204 226 255
204 226 255
204 226 255
204 226 255
203 226 255
203 226 255
203 226 255
203 226 255
203 226 255
203 226 255
203 226 255
203 225 255
203 225 255
203 225 255
203 225 255
203 225 255
203 225 255
203 225 255
203 225 255
203 225 255
202 225 255
202 225 255
202 225 255
202 225 255
202 225 255
202 225 255
202 225 255
202 225 255
202 225 255
202 225 255
202 225 255
202 225 255
202 225 255
202 225 255
202 225 255
201 225 255
201 225 255
201 225 255
201 225 255
201 224 255
201 224 255
201 224 255
201 224 255
201 224 255
201 224 255
201 224 255
201 224 255
201 224 255
201 224 255
200 224 255
200 224 255
200 224 255
200 224 255
200 224 255
200 224 255
200 224 255
200 224 255
200 224 255
200 224 255
200 224 255
200 224 255
200 224 255
200 224 255
200 224 255
199 224 255
199 224 255
199 223 255
199 223 255
199 223 255
199 223 255
199 223 255
199 223 255
199 223 255
199 223 255
199 223 255
199 223 255
199 223 255
199 223 255
198 223 255
198 223 255
198 223 255
198 223 255
198 223 255
198 223 255
198 223 255
198 223 255
198 223 255
198 223 255
198 223 255
198 223 255
198 223 255
198 223 255
198 223 255
198 223 255
197 222 255
197 222 255
197 222 255
197 222 255
197 222 255
197 222 255
197 222 255
197 222 255
197 222 255
197 222 255
197 222 255
197 222 255
197 222 255
197 222 255
197 222 255
197 222 255
197 222 255
196 222 255
196 222 255
196 222 255
196 222 255
196 222 255
196 222 255
196 222 255
196 222 255
196 222 255
196 222 255
196 222 255
196 222 255
196 222 255
196 222 255
196 222 255
196 222 255
196 222 255
196 222 255
196 222 255
196 222 255
196 221 255
196 221 255
195 221 255
195 221 255
195 221 255
195 221 255
195 221 255
195 221 255
195 221 255
195 221 255
195 221 255
195 221 255
195 221 255
195 221 255
195 221 255
195 221 255
195 221 255
195 221 255
195 221 255
195 221 255
195 221 255
195 221 255
195 221 255
195 221 255
195 221 255
195 221 255
195 221 255
195 221 255
195 221 255
195 221 255
195 221 255
195 221 255
195 221 255
195 221 255
195 221 255
195 221 255
195 221 255
195 221 255
195 221 255
195 221 255
195 221 255
195 221 255
195 221 255
195 221 255
195 221 255
195 221 255
195 221 255
195 221 255
195 221 255
195 221 255
195 221 255
195 221 255
195 221 255
195 221 255
195 221 255
195 221 255
195 221 255
195 221 255
195 221 255
195 221 255
195 221 255
195 221 255
196 221 255
196 221 255
196 221 255
196 222 255
196 222 255
196 222 255
196 222 255
196 222 255
196 222 255
196 222 255
196 222 255
196 222 255
196 222 255
196 222 255
196 222 255
196 222 255
196 222 255
196 222 255
196 222 255
196 222 255
196 222 255
196 222 255
197 222 255
197 222 255
197 222 255
197 222 255
197 222 255
197 222 255
197 222 255
197 222 255
197 222 255
197 222 255
197 222 255
197 222 255
197 222 255
197 222 255
197 222 255
197 222 255
197 222 255
198 223 255
198 223 255
198 223 255
198 223 255
198 223 255
198 223 255
198 223 255
198 223 255
198 223 255
198 223 255
198 223 255
198 223 255
198 223 255
198 223 255
198 223 255
199 223 255
199 223 255
199 223 255
199 223 255
199 223 255
199 223 255
199 223 255
199 223 255
199 223 255
199 223 255
199 223 255
199 223 255
199 223 255
199 224 255
199 224 255
200 224 255
200 224 255
200 224 255
200 224 255
200 224 255
200 224 255
200 224 255
200 224 255
200 224 255
200 224 255
200 224 255
200 224 255
200 224 255
200 224 255
200 224 255
201 224 255
201 224 255
201 224 255
201 224 255
201 224 255
201 224 255
201 224 255
201 224 255
201 224 255
201 224 255
201 225 255
201 225 255
201 225 255
201 225 255
202 225 255
202 225 255
202 225 255
202 225 255
202 225 255
202 225 255
202 225 255
202 225 255
202 225 255
202 225 255
202 225 255
202 225 255
202 225 255
202 225 255
202 225 255
203 225 255
203 225 255
203 225 255
203 225 255
203 225 255
203 225 255
203 225 255
203 225 255
203 225 255
203 226 255
203 226 255
203 226 255
203 226 255
203 226 255
203 226 255
203 226 255
204 226 255
204 226 255
204 226 255
204 226 255
204 226 255
204 226 255
204 226 255
204 226 255
204 226 255
204 226 255
204 226 255
204 226 255
204 226 255
204 226 255
204 226 255
204 226 255
204 226 255
205 226 255
205 226 255
205 226 255
205 226 255
205 226 255
205 226 255
205 226 255
205 227 255
205 227 255
205 227 255
205 227 255
205 227 255
205 227 255
205 227 255
205 227 255
205 227 255
205 227 255
205 227 255
205 227 255
206 227 255
206 227 255
206 227 255
206 227 255
206 227 255
206 227 255
206 227 255
206 227 255
206 227 255
206 227 255
206 227 255
206 227 255
206 227 255
205 227 255
205 227 255
205 227 255
205 227 255
205 227 255
205 227 255
205 227 255
205 227 255
205 227 255
205 227 255
205 227 255
205 226 255
205 226 255
205 226 255
205 226 255
205 226 255
205 226 255
205 226 255
204 226 255
204 226 255
204 226 255
204 226 255
204 226 255
204 226 255
204 226 255
204 226 255
204 226 255
204 226 255
204 226 255
204 226 255
204 226 255
204 226 255
204 226 255
204 226 255
204 226 255
203 226 255
203 226 255
203 226 255
203 226 255
203 226 255
203 226 255
203 226 255
203 225 255
203 225 255
203 225 255
203 225 255
203 225 255
203 225 255
203 225 255
203 225 255
203 225 255
202 225 255
202 225 255
202 225 255
202 225 255
202 225 255
202 225 255
202 225 255
202 225 255
202 225 255
202 225 255
202 225 255
202 225 255
202 225 255
202 225 255
202 225 255
201 225 255
201 225 255
201 225 255
201 225 255
201 224 255
201 224 255
201 224 255
201 224 255
201 224 255
201 224 255
201 224 255
201 224 255
201 224 255
201 224 255
200 224 255
200 224 255
200 224 255
200 224 255
200 224 255
200 224 255
200 224 255
200 224 255
200 224 255
200 224 255
200 224 255
200 224 255
200 224 255
200 224 255
200 224 255
199 224 255
199 224 255
199 223 255
199 223 255
199 223 255
199 223 255
199 223 255
199 223 255
199 223 255
199 223 255
199 223 255
199 223 255
199 223 255
199 223 255
199 223 255
198 223 255
198 223 255
198 223 255
198 223 255
198 223 255
198 223 255
198 223 255
198 223 255
198 223 255
198 223 255
198 223 255
198 223 255
198 223 255
198 223 255
198 223 255
197 223 255
197 222 255
197 222 255
197 222 255
197 222 255
197 222 255
197 222 255
197 222 255
197 222 255
197 222 255
197 222 255
197 222 255
197 222 255
197 222 255
197 222 255
197 222 255
197 222 255
197 222 255
196 222 255
196 222 255
196 222 255
196 222 255
196 222 255
196 222 255
196 222 255
196 222 255
196 222 255
196 222 255
196 222 255
196 222 255
196 222 255
196 222 255
196 222 255
196 222 255
196 222 255
196 222 255
196 222 255
196 222 255
196 222 255
196 221 255
196 221 255
196 221 255
195 221 255
195 221 255
195 221 255
195 221 255
195 221 255
195 221 255
195 221 255
195 221 255
195 221 255
195 221 255
195 221 255
195 221 255
195 221 255
195 221 255
195 221 255
195 221 255
195 221 255
195 221 255
195 221 255
195 221 255
195 221 255
195 221 255
195 221 255
195 221 255
195 221 255
195 221 255
195 221 255
195 221 255
195 221 255
195 221 255
195 221 255
195 221 255
195 221 255
195 221 255
195 221 255
195 221 255
195 221 255
195 221 255
195 221 255
195 221 255
195 221 255
195 221 255
195 221 255
195 221 255
195 221 255
195 221 255
195 221 255
195 221 255
195 221 255
195 221 255
195 221 255
196 221 255
196 221 255
196 222 255
196 222 255
196 222 255
196 222 255
196 222 255
196 222 255
196 222 255
196 222 255
196 222 255
196 222 255
196 222 255
196 222 255
196 222 255
196 222 255
196 222 255
196 222 255
196 222 255
196 222 255
196 222 255
196 222 255
196 222 255
196 222 255
197 222 255
197 222 255
197 222 255
197 222 255
197 222 255
197 222 255
197 222 255
197 222 255
197 222 255
197 222 255
197 222 255
197 222 255
197 222 255
197 222 255
197 222 255
197 222 255
197 223 255
198 223 255
198 223 255
198 223 255
198 223 255
198 223 255
198 223 255
198 223 255
198 223 255
198 223 255
198 223 255
198 223 255
198 223 255
198 223 255
198 223 255
198 223 255
199 223 255
199 223 255
199 223 255
199 223 255
199 223 255
199 223 255
199 223 255
199 223 255
199 223 255
199 223 255
199 223 255
199 223 255
199 224 255
199 224 255
199 224 255
200 224 255
200 224 255
200 224 255
200 224 255
200 224 255
200 224 255
200 224 255
200 224 255
200 224 255
200 224 255
200 224 255
200 224 255
200 224 255
200 224 255
201 224 255
201 224 255
201 224 255
201 224 255
201 224 255
201 224 255
201 224 255
201 224 255
201 224 255
201 224 255
201 224 255
201 225 255
201 225 255
201 225 255
201 225 255
202 225 255
202 225 255
202 225 255
202 225 255
202 225 255
202 225 255
202 225 255
202 225 255
202 225 255
202 225 255
202 225 255
202 225 255
202 225 255
202 225 255
202 225 255
203 225 255
203 225 255
203 225 255
203 225 255
203 225 255
203 225 255
203 225 255
203 225 255
203 225 255
203 226 255
203 226 255
203 226 255
203 226 255
203 226 255
203 226 255
203 226 255
204 226 255
204 226 255
204 226 255
204 226 255
204 226 255
204 226 255
204 226 255
204 226 255
204 226 255
204 226 255
204 226 255
204 226 255
204 226 255
204 226 255
204 226 255
204 226 255
204 226 255
205 226 255
205 226 255
205 226 255
205 226 255
205 226 255
205 226 255
205 226 255
205 227 255
205 227 255
205 227 255
205 227 255
205 227 255
205 227 255
205 227 255
205 227 255
205 227 255
205 227 255
205 227 255
206 227 255
206 227 255
206 227 255
206 227 255
206 227 255
206 227 255
206 227 255
206 227 255
206 227 255
206 227 255
206 227 255
206 227 255
206 227 255
206 227 255
206 227 255
206 227 255
206 227 255
206 227 255
206 227 255
205 227 255
205 227 255
205 227 255
205 227 255
205 227 255
205 227 255
205 227 255
205 227 255
205 227 255
205 227 255
205 226 255
205 226 255
205 226 255
205 226 255
205 226 255
205 226 255
205 226 255
205 226 255
204 226 255
204 226 255
204 226 255
204 226 255
204 226 255
204 226 255
204 226 255
204 226 255
204 226 255
204 226 255
204 226 255
204 226 255
204 226 255
204 226 255
204 226 255
204 226 255
204 226 255
203 226 255
203 226 255
203 226 255
203 226 255
203 226 255
203 226 255
203 226 255
203 225 255
203 225 255
203 225 255
203 225 255
203 225 255
203 225 255
203 225 255
203 225 255
202 225 255
202 225 255
202 225 255
202 225 255
202 225 255
202 225 255
202 225 255
202 225 255
202 225 255
202 225 255
202 225 255
202 225 255
202 225 255
202 225 255
202 225 255
201 225 255
201 225 255
201 225 255
201 225 255
201 225 255
201 224 255
201 224 255
201 224 255
201 224 255
201 224 255
201 224 255
201 224 255
201 224 255
201 224 255
201 224 255
200 224 255
200 224 255
200 224 255
200 224 255
200 224 255
200 224 255
200 224 255
200 224 255
200 224 255
200 224 255
200 224 255
200 224 255
200 224 255
200 224 255
199 224 255
199 224 255
199 224 255
199 223 255
199 223 255
199 223 255
199 223 255
199 223 255
199 223 255
199 223 255
199 223 255
199 223 255
199 223 255
199 223 255
199 223 255
198 223 255
198 223 255
198 223 255
198 223 255
198 223 255
198 223 255
198 223 255
198 223 255
198 223 255
198 223 255
198 223 255
198 223 255
198 223 255
198 223 255
198 223 255
198 223 255
197 223 255
197 222 255
197 222 255
197 222 255
197 222 255
197 222 255
197 222 255
197 222 255
197 222 255
197 222 255
197 222 255
197 222 255
197 222 255
197 222 255
197 222 255
197 222 255
197 222 255
197 222 255
196 222 255
196 222 255
196 222 255
196 222 255
196 222 255
196 222 255
196 222 255
196 222 255
196 222 255
196 222 255
196 222 255
196 222 255
196 222 255
196 222 255
196 222 255
196 222 255
196 222 255
196 222 255
196 222 255
196 222 255
196 222 255
196 222 255
196 222 255
196 221 255
196 221 255
196 221 255
196 221 255
195 221 255
195 221 255
195 221 255
195 221 255
195 221 255
195 221 255
195 221 255
195 221 255
195 221 255
195 221 255
195 221 255
195 221 255
195 221 255
195 221 255
195 221 255
195 221 255
195 221 255
195 221 255
195 221 255
195 221 255
195 221 255
195 221 255
195 221 255
195 221 255
195 221 255
195 221 255
195 221 255
195 221 255
195 221 255
195 221 255
195 221 255
195 221 255
195 221 255
195 221 255
195 221 255
195 221 255
195 221 255
195 221 255
196 221 255
196 221 255
196 221 255
196 221 255
196 222 255
196 222 255
196 222 255
196 222 255
196 222 255
196 222 255
196 222 255
196 222 255
196 222 255
196 222 255
196 222 255
196 222 255
196 222 255
196 222 255
196 222 255
196 222 255
196 222 255
196 222 255
196 222 255
196 222 255
196 222 255
196 222 255
196 222 255
197 222 255
197 222 255
197 222 255
197 222 255
197 222 255
197 222 255
197 222 255
197 222 255
197 222 255
197 222 255
197 222 255
197 222 255
197 222 255
197 222 255
197 222 255
197 222 255
197 222 255
197 222 255
198 223 255
198 223 255
198 223 255
198 223 255
198 223 255
198 223 255
198 223 255
198 223 255
198 223 255
198 223 255
198 223 255
198 223 255
198 223 255
198 223 255
198 223 255
198 223 255
199 223 255
199 223 255
199 223 255
199 223 255
199 223 255
199 223 255
199 223 255
199 223 255
199 223 255
199 223 255
199 223 255
199 223 255
199 224 255
199 224 255
199 224 255
200 224 255
200 224 255
200 224 255
200 224 255
200 224 255
200 224 255
200 224 255
200 224 255
200 224 255
200 224 255
200 224 255
200 224 255
200 224 255
200 224 255
201 224 255
201 224 255
201 224 255
201 224 255
201 224 255
201 224 255
201 224 255
201 224 255
201 224 255
201 224 255
201 225 255
201 225 255
201 225 255
201 225 255
201 225 255
202 225 255
202 225 255
202 225 255
202 225 255
202 225 255
202 225 255
202 225 255
202 225 255
202 225 255
202 225 255
202 225 255
202 225 255
202 225 255
202 225 255
202 225 255
203 225 255
203 225 255
203 225 255
203 225 255
203 225 255
203 225 255
203 225 255
203 225 255
203 226 255
203 226 255
203 226 255
203 226 255
203 226 255
203 226 255
203 226 255
204 226 255
204 226 255
204 226 255
204 226 255
204 226 255
204 226 255
204 226 255
204 226 255
204 226 255
204 226 255
204 226 255
204 226 255
204 226 255
204 226 255
204 226 255
204 226 255
204 226 255
205 226 255
205 226 255
205 226 255
205 226 255
205 226 255
205 226 255
205 226 255
205 227 255
205 227 255
205 227 255
205 227 255
205 227 255
205 227 255
205 227 255
205 227 255
205 227 255
205 227 255
205 227 255
206 227 255
206 227 255
206 227 255
206 227 255
206 227 255
206 227 255
206 227 255
206 227 255
206 227 255
206 227 255
206 227 255
206 227 255
206 227 255
206 227 255
206 227 255
206 227 255
206 227 255
206 227 255
206 227 255
206 227 255
206 227 255
206 227 255
206 227 255
206 227 255
205 227 255
205 227 255
205 227 255
205 227 255
205 227 255
205 227 255
205 227 255
205 227 255
205 227 255
205 227 255
205 227 255
205 226 255
205 226 255
205 226 255
205 226 255
205 226 255
205 226 255
205 226 255
204 226 255
204 226 255
204 226 255
204 226 255
204 226 255
204 226 255
204 226 255
204 226 255
204 226 255
204 226 255
204 226 255
204 226 255
204 226 255
204 226 255
204 226 255
204 226 255
204 226 255
203 226 255
203 226 255
203 226 255
203 226 255
203 226 255
203 226 255
203 226 255
203 225 255
203 225 255
203 225 255
203 225 255
203 225 255
203 225 255
203 225 255
203 225 255
203 225 255
202 225 255
202 225 255
202 225 255
202 225 255
202 225 255
202 225 255
202 225 255
202 225 255
202 225 255
202 225 255
202 225 255
202 225 255
202 225 255
202 225 255
202 225 255
201 225 255
201 225 255
201 225 255
201 225 255
201 224 255
201 224 255
201 224 255
201 224 255
201 224 255
201 224 255
201 224 255
201 224 255
201 224 255
201 224 255
200 224 255
200 224 255
200 224 255
200 224 255
200 224 255
200 224 255
200 224 255
200 224 255
200 224 255
200 224 255
200 224 255
200 224 255
200 224 255
200 224 255
200 224 255
199 224 255
199 224 255
199 223 255
199 223 255
199 223 255
199 223 255
199 223 255
199 223 255
199 223 255
199 223 255
199 223 255
199 223 255
199 223 255
199 223 255
198 223 255
198 223 255
198 223 255
198 223 255
198 223 255
198 223 255
198 223 255
198 223 255
198 223 255
198 223 255
198 223 255
198 223 255
198 223 255
198 223 255
198 223 255
198 223 255
197 223 255
197 222 255
197 222 255
197 222 255
197 222 255
197 222 255
197 222 255
197 222 255
197 222 255
197 222 255
197 222 255
197 222 255
197 222 255
197 222 255
197 222 255
197 222 255
197 222 255
197 222 255
197 222 255
196 222 255
196 222 255
196 222 255
196 222 255
196 222 255
196 222 255
196 222 255
196 222 255
196 222 255
196 222 255
196 222 255
196 222 255
196 222 255
196 222 255
196 222 255
196 222 255
196 222 255
196 222 255
196 222 255
196 222 255
196 222 255
196 222 255
196 222 255
196 222 255
196 222 255
196 222 255
196 222 255
196 221 255
196 221 255
196 221 255
196 221 255
196 221 255
196 221 255
195 221 255
195 221 255
195 221 255
195 221 255
195 221 255
195 221 255
195 221 255
195 221 255
195 221 255
195 221 255
195 221 255
195 221 255
195 221 255
195 221 255
195 221 255
195 221 255
195 221 255
195 221 255
195 221 255
195 221 255
196 221 255
196 221 255
196 221 255
196 221 255
196 221 255
196 221 255
196 222 255
196 222 255
196 222 255
196 222 255
196 222 255
196 222 255
196 222 255
196 222 255
196 222 255
196 222 255
196 222 255
196 222 255
196 222 255
196 222 255
196 222 255
196 222 255
196 222 255
196 222 255
196 222 255
196 222 255
196 222 255
196 222 255
196 222 255
196 222 255
196 222 255
196 222 255
196 222 255
197 222 255
197 222 255
197 222 255
197 222 255
197 222 255
197 222 255
197 222 255
197 222 255
197 222 255
197 222 255
197 222 255
197 222 255
197 222 255
197 222 255
197 222 255
197 222 255
197 222 255
197 222 255
197 223 255
198 223 255
198 223 255
198 223 255
198 223 255
198 223 255
198 223 255
198 223 255
198 223 255
198 223 255
198 223 255
198 223 255
198 223 255
198 223 255
198 223 255
198 223 255
198 223 255
199 223 255
199 223 255
199 223 255
199 223 255
199 223 255
199 223 255
199 223 255
199 223 255
199 223 255
199 223 255
199 223 255
199 223 255
199 224 255
199 224 255
200 224 255
200 224 255
200 224 255
200 224 255
200 224 255
200 224 255
200 224 255
200 224 255
200 224 255
200 224 255
200 224 255
200 224 255
200 224 255
200 224 255
200 224 255
201 224 255
201 224 255
201 224 255
201 224 255
201 224 255
201 224 255
201 224 255
201 224 255
201 224 255
201 224 255
201 225 255
201 225 255
201 225 255
201 225 255
202 225 255
202 225 255
202 225 255
202 225 255
202 225 255
202 225 255
202 225 255
202 225 255
202 225 255
202 225 255
202 225 255
202 225 255
202 225 255
202 225 255
202 225 255
203 225 255
203 225 255
203 225 255
203 225 255
203 225 255
203 225 255
203 225 255
203 225 255
203 225 255
203 226 255
203 226 255
203 226 255
203 226 255
203 226 255
203 226 255
203 226 255
204 226 255
204 226 255
204 226 255
204 226 255
204 226 255
204 226 255
204 226 255
204 226 255
204 226 255
204 226 255
204 226 255
204 226 255
204 226 255
204 226 255
204 226 255
204 226 255
204 226 255
205 226 255
205 226 255
205 226 255
205 226 255
205 226 255
205 226 255
205 226 255
205 227 255
205 227 255
205 227 255
205 227 255
205 227 255
205 227 255
205 227 255
205 227 255
205 227 255
205 227 255
205 227 255
206 227 255
206 227 255
206 227 255
206 227 255
206 227 255
206 227 255
206 227 255
206 227 255
206 227 255
206 227 255
206 227 255
206 227 255
206 227 255
206 227 255
206 227 255
206 227 255
206 227 255
206 227 255
206 227 255
206 227 255
206 227 255
206 227 255
206 227 255
206 227 255
206 227 255
206 227 255
206 227 255
206 227 255
206 227 255
205 227 255
205 227 255
205 227 255
205 227 255
205 227 255
205 227 255
205 227 255
205 227 255
205 227 255
205 227 255
205 227 255
205 226 255
205 226 255
205 226 255
205 226 255
205 226 255
205 226 255
205 226 255
204 226 255
204 226 255
204 226 255
204 226 255
204 226 255
204 226 255
204 226 255
204 226 255
204 226 255
204 226 255
204 226 255
204 226 255
204 226 255
204 226 255
204 226 255
204 226 255
203 226 255
203 226 255
203 226 255
203 226 255
203 226 255
203 226 255
203 226 255
203 225 255
203 225 255
203 225 255
203 225 255
203 225 255
203 225 255
203 225 255
203 225 255
203 225 255
202 225 255
202 225 255
202 225 255
202 225 255
202 225 255
202 225 255
202 225 255
202 225 255
202 225 255
202 225 255
202 225 255
202 225 255
202 225 255
202 225 255
202 225 255
201 225 255
201 225 255
201 225 255
201 225 255
201 224 255
201 224 255
201 224 255
201 224 255
201 224 255
201 224 255
201 224 255
201 224 255
201 224 255
201 224 255
201 224 255
200 224 255
200 224 255
200 224 255
200 224 255
200 224 255
200 224 255
200 224 255
200 224 255
200 224 255
200 224 255
200 224 255
200 224 255
200 224 255
200 224 255
199 224 255
199 224 255
199 223 255
199 223 255
199 223 255
199 223 255
199 223 255
199 223 255
199 223 255
199 223 255
199 223 255
199 223 255
199 223 255
199 223 255
199 223 255
198 223 255
198 223 255
198 223 255
198 223 255
198 223 255
198 223 255
198 223 255
198 223 255
198 223 255
198 223 255
198 223 255
198 223 255
198 223 255
198 223 255
198 223 255
198 223 255
197 223 255
197 222 255
197 222 255
197 222 255
197 222 255
197 222 255
197 222 255
197 222 255
197 222 255
197 222 255
197 222 255
197 222 255
197 222 255
197 222 255
197 222 255
197 222 255
197 222 255
197 222 255
197 222 255
196 222 255
196 222 255
196 222 255
196 222 255
196 222 255
196 222 255
196 222 255
196 222 255
196 222 255
196 222 255
196 222 255
196 222 255
196 222 255
196 222 255
196 222 255
196 222 255
196 222 255
196 222 255
196 222 255
196 222 255
196 222 255
196 222 255
196 222 255
196 222 255
196 222 255
196 222 255
196 222 255
196 222 255
196 222 255
196 222 255
196 222 255
196 222 255
196 222 255
196 222 255
196 222 255
196 222 255
196 222 255
196 222 255
196 222 255
196 222 255
196 222 255
196 222 255
196 222 255
196 222 255
196 222 255
196 222 255
196 222 255
196 222 255
196 222 255
196 222 255
196 222 255
196 222 255
196 222 255
196 222 255
196 222 255
196 222 255
196 222 255
196 222 255
196 222 255
196 222 255
196 222 255
196 222 255
196 222 255
196 222 255
196 222 255
196 222 255
196 222 255
196 222 255
196 222 255
196 222 255
196 222 255
196 222 255
196 222 255
196 222 255
196 222 255
196 222 255
196 222 255
196 222 255
196 222 255
197 222 255
197 222 255
197 222 255
197 222 255
197 222 255
197 222 255
197 222 255
197 222 255
197 222 255
197 222 255
197 222 255
197 222 255
197 222 255
197 222 255
197 222 255
197 222 255
197 222 255
197 222 255
197 222 255
197 223 255
198 223 255
198 223 255
198 223 255
198 223 255
198 223 255
198 223 255
198 223 255
198 223 255
198 223 255
198 223 255
198 223 255
198 223 255
198 223 255
198 223 255
198 223 255
198 223 255
199 223 255
199 223 255
199 223 255
199 223 255
199 223 255
199 223 255
199 223 255
199 223 255
199 223 255
199 223 255
199 223 255
199 223 255
199 223 255
199 224 255
199 224 255
200 224 255
200 224 255
200 224 255
200 224 255
200 224 255
200 224 255
200 224 255
200 224 255
200 224 255
200 224 255
200 224 255
200 224 255
200 224 255
200 224 255
201 224 255
201 224 255
201 224 255
201 224 255
201 224 255
201 224 255
201 224 255
201 224 255
201 224 255
201 224 255
201 224 255
201 225 255
201 225 255
201 225 255
201 225 255
202 225 255
202 225 255
202 225 255
202 225 255
202 225 255
202 225 255
202 225 255
202 225 255
202 225 255
202 225 255
202 225 255
202 225 255
202 225 255
202 225 255
202 225 255
203 225 255
203 225 255
203 225 255
203 225 255
203 225 255
203 225 255
203 225 255
203 225 255
203 225 255
203 226 255
203 226 255
203 226 255
203 226 255
203 226 255
203 226 255
203 226 255
204 226 255
204 226 255
204 226 255
204 226 255
204 226 255
204 226 255
204 226 255
204 226 255
204 226 255
204 226 255
204 226 255
204 226 255
204 226 255
204 226 255
204 226 255
204 226 255
205 226 255
205 226 255
205 226 255
205 226 255
205 226 255
205 226 255
205 226 255
205 226 255
205 227 255
205 227 255
205 227 255
205 227 255
205 227 255
205 227 255
205 227 255
205 227 255
205 227 255
205 227 255
206 227 255
206 227 255
206 227 255
206 227 255
206 227 255
206 227 255
206 227 255
206 227 255
206 227 255
206 227 255
206 227 255
206 227 255
206 227 255
206 227 255
206 227 255
206 227 255
206 227 255
206 227 255
206 227 255
206 227 255
206 227 255
206 227 255
206 227 255
206 227 255
206 227 255
206 227 255
206 227 255
206 227 255
206 227 255
206 227 255
206 227 255
206 227 255
206 227 255
206 227 255
205 227 255
205 227 255
205 227 255
205 227 255
205 227 255
205 227 255
205 227 255
205 227 255
205 227 255
205 227 255
205 227 255
205 226 255
205 226 255
205 226 255
205 226 255
205 226 255
205 226 255
205 226 255
204 226 255
204 226 255
204 226 255
204 226 255
204 226 255
204 226 255
204 226 255
204 226 255
204 226 255
204 226 255
204 226 255
204 226 255
204 226 255
204 226 255
204 226 255
204 226 255
204 226 255
203 226 255
203 226 255
203 226 255
203 226 255
203 226 255
203 226 255
203 226 255
203 225 255
203 225 255
203 225 255
203 225 255
203 225 255
203 225 255
203 225 255
203 225 255
202 225 255
202 225 255
202 225 255
202 225 255
202 225 255
202 225 255
202 225 255
202 225 255
202 225 255
202 225 255
202 225 255
202 225 255
202 225 255
202 225 255
202 225 255
201 225 255
201 225 255
201 225 255
201 225 255
201 225 255
201 224 255
201 224 255
201 224 255
201 224 255
201 224 255
201 224 255
201 224 255
201 224 255
201 224 255
201 224 255
200 224 255
200 224 255
200 224 255
200 224 255
200 224 255
200 224 255
200 224 255
200 224 255
200 224 255
200 224 255
200 224 255
200 224 255
200 224 255
200 224 255
199 224 255
199 224 255
199 224 255
199 223 255
199 223 255
199 223 255
199 223 255
199 223 255
199 223 255
199 223 255
199 223 255
199 223 255
199 223 255
199 223 255
199 223 255
198 223 255
198 223 255
198 223 255
198 223 255
198 223 255
198 223 255
198 223 255
198 223 255
198 223 255
198 223 255
198 223 255
198 223 255
198 223 255
198 223 255
198 223 255
198 223 255
198 223 255
197 223 255
197 222 255
197 222 255
197 222 255
197 222 255
197 222 255
197 222 255
197 222 255
197 222 255
197 222 255
197 222 255
197 222 255
197 222 255
197 222 255
197 222 255
197 222 255
197 222 255
197 222 255
197 222 255
197 222 255
196 222 255
196 222 255
196 222 255
196 222 255
196 222 255
196 222 255
196 222 255
196 222 255
196 222 255
196 222 255
196 222 255
196 222 255
196 222 255
196 222 255
196 222 255
196 222 255
196 222 255
196 222 255
196 222 255
196 222 255
196 222 255
196 222 255
196 222 255
196 222 255
196 222 255
196 222 255
196 222 255
196 222 255
196 222 255
196 222 255
196 222 255
196 222 255
196 222 255
196 222 255
196 222 255
196 222 255
196 222 255
196 222 255
196 222 255
196 222 255
196 222 255
196 222 255
196 222 255
196 222 255
196 222 255
196 222 255
196 222 255
196 222 255
196 222 255
196 222 255
196 222 255
196 222 255
196 222 255
196 222 255
196 222 255
196 222 255
196 222 255
196 222 255
196 222 255
196 222 255
196 222 255
196 222 255
196 222 255
196 222 255
196 222 255
196 222 255
196 222 255
196 222 255
196 222 255
196 222 255
196 222 255
196 222 255
197 222 255
197 222 255
197 222 255
197 222 255
197 222 255
197 222 255
197 222 255
197 222 255
197 222 255
197 222 255
197 222 255
197 222 255
197 222 255
197 222 255
197 222 255
197 222 255
197 222 255
197 222 255
197 222 255
197 222 255
198 223 255
198 223 255
198 223 255
198 223 255
198 223 255
198 223 255
198 223 255
198 223 255
198 223 255
198 223 255
198 223 255
198 223 255
198 223 255
198 223 255
198 223 255
198 223 255
198 223 255
199 223 255
199 223 255
199 223 255
199 223 255
199 223 255
199 223 255
199 223 255
199 223 255
199 223 255
199 223 255
199 223 255
199 223 255
199 224 255
199 224 255
200 224 255
200 224 255
200 224 255
200 224 255
200 224 255
200 224 255
200 224 255
200 224 255
200 224 255
200 224 255
200 224 255
200 224 255
200 224 255
200 224 255
200 224 255
201 224 255
201 224 255
201 224 255
201 224 255
201 224 255
201 224 255
201 224 255
201 224 255
201 224 255
201 224 255
201 225 255
201 225 255
201 225 255
201 225 255
201 225 255
202 225 255
202 225 255
202 225 255
202 225 255
202 225 255
202 225 255
202 225 255
202 225 255
202 225 255
202 225 255
202 225 255
202 225 255
202 225 255
202 225 255
202 225 255
203 225 255
203 225 255
203 225 255
203 225 255
203 225 255
203 225 255
203 225 255
203 225 255
203 226 255
203 226 255
203 226 255
203 226 255
203 226 255
203 226 255
203 226 255
204 226 255
204 226 255
204 226 255
204 226 255
204 226 255
204 226 255
204 226 255
204 226 255
204 226 255
204 226 255
204 226 255
204 226 255
204 226 255
204 226 255
204 226 255
204 226 255
204 226 255
205 226 255
205 226 255
205 226 255
205 226 255
205 226 255
205 226 255
205 226 255
205 227 255
205 227 255
205 227 255
205 227 255
205 227 255
205 227 255
205 227 255
205 227 255
205 227 255
205 227 255
206 227 255
206 227 255
206 227 255
206 227 255
206 227 255
206 227 255
206 227 255
206 227 255
206 227 255
206 227 255
206 227 255
206 227 255
206 227 255
206 227 255
206 227 255
206 227 255
206 227 255
206 227 255
206 227 255
207 227 255
207 227 255
206 227 255
206 227 255
206 227 255
206 227 255
206 227 255
206 227 255
206 227 255
206 227 255
206 227 255
206 227 255
206 227 255
206 227 255
206 227 255
206 227 255
206 227 255
206 227 255
206 227 255
206 227 255
206 227 255
205 227 255
205 227 255
205 227 255
205 227 255
205 227 255
205 227 255
205 227 255
205 227 255
205 227 255
205 227 255
205 227 255
205 226 255
205 226 255
205 226 255
205 226 255
205 226 255
205 226 255
205 226 255
204 226 255
204 226 255
204 226 255
204 226 255
204 226 255
204 226 255
204 226 255
204 226 255
204 226 255
204 226 255
204 226 255
204 226 255
204 226 255
204 226 255
204 226 255
204 226 255
203 226 255
203 226 255
203 226 255
203 226 255
203 226 255
203 226 255
203 226 255
203 225 255
203 225 255
203 225 255
203 225 255
203 225 255
203 225 255
203 225 255
203 225 255
203 225 255
202 225 255
202 225 255
202 225 255
202 225 255
202 225 255
202 225 255
202 225 255
202 225 255
202 225 255
202 225 255
202 225 255
202 225 255
202 225 255
202 225 255
201 225 255
201 225 255
201 225 255
201 225 255
201 225 255
201 224 255
201 224 255
201 224 255
201 224 255
201 224 255
201 224 255
201 224 255
201 224 255
201 224 255
201 224 255
200 224 255
200 224 255
200 224 255
200 224 255
200 224 255
200 224 255
200 224 255
200 224 255
200 224 255
200 224 255
200 224 255
200 224 255
200 224 255
200 224 255
200 224 255
199 224 255
199 224 255
199 223 255
199 223 255
199 223 255
199 223 255
199 223 255
199 223 255
199 223 255
199 223 255
199 223 255
199 223 255
199 223 255
199 223 255
199 223 255
198 223 255
198 223 255
198 223 255
198 223 255
198 223 255
198 223 255
198 223 255
198 223 255
198 223 255
198 223 255
198 223 255
198 223 255
198 223 255
198 223 255
198 223 255
198 223 255
198 223 255
197 223 255
197 222 255
197 222 255
197 222 255
197 222 255
197 222 255
197 222 255
197 222 255
197 222 255
197 222 255
197 222 255
197 222 255
197 222 255
197 222 255
197 222 255
197 222 255
197 222 255
197 222 255
197 222 255
197 222 255
197 222 255
197 222 255
196 222 255
196 222 255
196 222 255
196 222 255
196 222 255
196 222 255
196 222 255
196 222 255
196 222 255
196 222 255
196 222 255
196 222 255
196 222 255
196 222 255
196 222 255
196 222 255
196 222 255
196 222 255
196 222 255
196 222 255
196 222 255
196 222 255
196 222 255
196 222 255
196 222 255
196 222 255
196 222 255
196 222 255
196 222 255
196 222 255
196 222 255
196 222 255
196 222 255
196 222 255
196 222 255
196 222 255
196 222 255
196 222 255
196 222 255
196 222 255
196 222 255
196 222 255
196 222 255
196 222 255
196 222 255
196 222 255
196 222 255
196 222 255
196 222 255
196 222 255
196 222 255
196 222 255
196 222 255
196 222 255
196 222 255
196 222 255
196 222 255
196 222 255
196 222 255
196 222 255
196 222 255
196 222 255
197 222 255
197 222 255
197 222 255
197 222 255
197 222 255
197 222 255
197 222 255
197 222 255
197 222 255
197 222 255
197 222 255
197 222 255
197 222 255
197 222 255
197 222 255
197 222 255
197 222 255
197 222 255
197 222 255
197 222 255
197 222 255
197 223 255
198 223 255
198 223 255
198 223 255
198 223 255
198 223 255
198 223 255
198 223 255
198 223 255
198 223 255
198 223 255
198 223 255
198 223 255
198 223 255
198 223 255
198 223 255
198 223 255
198 223 255
199 223 255
199 223 255
199 223 255
199 223 255
199 223 255
199 223 255
199 223 255
199 223 255
199 223 255
199 223 255
199 223 255
199 223 255
199 223 255
199 224 255
199 224 255
200 224 255
200 224 255
200 224 255
200 224 255
200 224 255
200 224 255
200 224 255
200 224 255
200 224 255
200 224 255
200 224 255
200 224 255
200 224 255
200 224 255
200 224 255
201 224 255
201 224 255
201 224 255
201 224 255
201 224 255
201 224 255
201 224 255
201 224 255
201 224 255
201 224 255
201 225 255
201 225 255
201 225 255
201 225 255
202 225 255
202 225 255
202 225 255
202 225 255
202 225 255
202 225 255
202 225 255
202 225 255
202 225 255
202 225 255
202 225 255
202 225 255
202 225 255
202 225 255
202 225 255
203 225 255
203 225 255
203 225 255
203 225 255
203 225 255
203 225 255
203 225 255
203 225 255
203 225 255
203 226 255
203 226 255
203 226 255
203 226 255
203 226 255
203 226 255
203 226 255
204 226 255
204 226 255
204 226 255
204 226 255
204 226 255
204 226 255
204 226 255
204 226 255
204 226 255
204 226 255
204 226 255
204 226 255
204 226 255
204 226 255
204 226 255
204 226 255
205 226 255
205 226 255
205 226 255
205 226 255
205 226 255
205 226 255
205 226 255
205 227 255
205 227 255
205 227 255
205 227 255
205 227 255
205 227 255
205 227 255
205 227 255
205 227 255
205 227 255
205 227 255
206 227 255
206 227 255
206 227 255
206 227 255
206 227 255
206 227 255
206 227 255
206 227 255
206 227 255
206 227 255
206 227 255
206 227 255
206 227 255
206 227 255
206 227 255
206 227 255
206 227 255
206 227 255
206 227 255
207 227 255
207 227 255
207 227 255
207 227 255
207 227 255
207 227 255
207 227 255
206 227 255
206 227 255
206 227 255
206 227 255
206 227 255
206 227 255
206 227 255
206 227 255
206 227 255
206 227 255
206 227 255
206 227 255
206 227 255
206 227 255
206 227 255
206 227 255
206 227 255
206 227 255
206 227 255
205 227 255
205 227 255
205 227 255
205 227 255
205 227 255
205 227 255
205 227 255
205 227 255
205 227 255
205 227 255
205 226 255
205 226 255
205 226 255
205 226 255
205 226 255
205 226 255
205 226 255
204 226 255
204 226 255
204 226 255
204 226 255
204 226 255
204 226 255
204 226 255
204 226 255
204 226 255
204 226 255
204 226 255
204 226 255
204 226 255
204 226 255
204 226 255
204 226 255
204 226 255
203 226 255
203 226 255
203 226 255
203 226 255
203 226 255
203 226 255
203 226 255
203 225 255
203 225 255
203 225 255
203 225 255
203 225 255
203 225 255
203 225 255
203 225 255
202 225 255
202 225 255
202 225 255
202 225 255
202 225 255
202 225 255
202 225 255
202 225 255
202 225 255
202 225 255
202 225 255
202 225 255
202 225 255
202 225 255
202 225 255
201 225 255
201 225 255
201 225 255
201 225 255
201 224 255
201 224 255
201 224 255
201 224 255
201 224 255
201 224 255
201 224 255
201 224 255
201 224 255
201 224 255
201 224 255
200 224 255
200 224 255
200 224 255
200 224 255
200 224 255
200 224 255
200 224 255
200 224 255
200 224 255
200 224 255
200 224 255
200 224 255
200 224 255
200 224 255
199 224 255
199 224 255
199 224 255
199 223 255
199 223 255
199 223 255
199 223 255
199 223 255
199 223 255
199 223 255
199 223 255
199 223 255
199 223 255
199 223 255
199 223 255
199 223 255
198 223 255
198 223 255
198 223 255
198 223 255
198 223 255
198 223 255
198 223 255
198 223 255
198 223 255
198 223 255
198 223 255
198 223 255
198 223 255
198 223 255
198 223 255
198 223 255
198 223 255
197 223 255
197 222 255
197 222 255
197 222 255
197 222 255
197 222 255
197 222 255
197 222 255
197 222 255
197 222 255
197 222 255
197 222 255
197 222 255
197 222 255
197 222 255
197 222 255
197 222 255
197 222 255
197 222 255
197 222 255
197 222 255
197 222 255
197 222 255
197 222 255
196 222 255
196 222 255
196 222 255
196 222 255
196 222 255
196 222 255
196 222 255
196 222 255
196 222 255
196 222 255
196 222 255
196 222 255
196 222 255
196 222 255
196 222 255
196 222 255
196 222 255
196 222 255
196 222 255
196 222 255
196 222 255
196 222 255
196 222 255
196 222 255
196 222 255
196 222 255
196 222 255
196 222 255
196 222 255
196 222 255
196 222 255
196 222 255
196 222 255
196 222 255
196 222 255
196 222 255
196 222 255
196 222 255
196 222 255
196 222 255
196 222 255
196 222 255
196 222 255
196 222 255
196 222 255
196 222 255
196 222 255
196 222 255
196 222 255
196 222 255
196 222 255
196 222 255
197 222 255
197 222 255
197 222 255
197 222 255
197 222 255
197 222 255
197 222 255
197 222 255
197 222 255
197 222 255
197 222 255
197 222 255
197 222 255
197 222 255
197 222 255
197 222 255
197 222 255
197 222 255
197 222 255
197 222 255
197 222 255
197 222 255
197 222 255
197 223 255
198 223 255
198 223 255
198 223 255
198 223 255
198 223 255
198 223 255
198 223 255
198 223 255
198 223 255
198 223 255
198 223 255
198 223 255
198 223 255
198 223 255
198 223 255
198 223 255
198 223 255
199 223 255
199 223 255
199 223 255
199 223 255
199 223 255
199 223 255
199 223 255
199 223 255
199 223 255
199 223 255
199 223 255
199 223 255
199 223 255
199 224 255
199 224 255
199 224 255
200 224 255
200 224 255
200 224 255
200 224 255
200 224 255
200 224 255
200 224 255
200 224 255
200 224 255
200 224 255
200 224 255
200 224 255
200 224 255
200 224 255
201 224 255
201 224 255
201 224 255
201 224 255
201 224 255
201 224 255
201 224 255
201 224 255
201 224 255
201 224 255
201 224 255
201 225 255
201 225 255
201 225 255
201 225 255
202 225 255
202 225 255
202 225 255
202 225 255
202 225 255
202 225 255
202 225 255
202 225 255
202 225 255
202 225 255
202 225 255
202 225 255
202 225 255
202 225 255
202 225 255
203 225 255
203 225 255
203 225 255
203 225 255
203 225 255
203 225 255
203 225 255
203 225 255
203 226 255
203 226 255
203 226 255
203 226 255
203 226 255
203 226 255
203 226 255
204 226 255
204 226 255
204 226 255
204 226 255
204 226 255
204 226 255
204 226 255
204 226 255
204 226 255
204 226 255
204 226 255
204 226 255
204 226 255
204 226 255
204 226 255
204 226 255
204 226 255
205 226 255
205 226 255
205 226 255
205 226 255
205 226 255
205 226 255
205 226 255
205 227 255
205 227 255
205 227 255
205 227 255
205 227 255
205 227 255
205 227 255
205 227 255
205 227 255
205 227 255
206 227 255
206 227 255
206 227 255
206 227 255
206 227 255
206 227 255
206 227 255
206 227 255
206 227 255
206 227 255
206 227 255
206 227 255
206 227 255
206 227 255
206 227 255
206 227 255
206 227 255
206 227 255
206 227 255
206 227 255
207 227 255
207 227 255
207 227 255
207 227 255
207 228 255
207 228 255
207 227 255
207 227 255
207 227 255
207 227 255
207 227 255
206 227 255
206 227 255
206 227 255
206 227 255
206 227 255
206 227 255
206 227 255
206 227 255
206 227 255
206 227 255
206 227 255
206 227 255
206 227 255
206 227 255
206 227 255
206 227 255
206 227 255
206 227 255
206 227 255
205 227 255
205 227 255
205 227 255
205 227 255
205 227 255
205 227 255
205 227 255
205 227 255
205 227 255
205 227 255
205 227 255
205 226 255
205 226 255
205 226 255
205 226 255
205 226 255
205 226 255
205 226 255
204 226 255
204 226 255
204 226 255
204 226 255
204 226 255
204 226 255
204 226 255
204 226 255
204 226 255
204 226 255
204 226 255
204 226 255
204 226 255
204 226 255
204 226 255
204 226 255
203 226 255
203 226 255
203 226 255
203 226 255
203 226 255
203 226 255
203 226 255
203 225 255
203 225 255
203 225 255
203 225 255
203 225 255
203 225 255
203 225 255
203 225 255
202 225 255
202 225 255
202 225 255
202 225 255
202 225 255
202 225 255
202 225 255
202 225 255
202 225 255
202 225 255
202 225 255
202 225 255
202 225 255
202 225 255
202 225 255
201 225 255
201 225 255
201 225 255
201 225 255
201 225 255
201 224 255
201 224 255
201 224 255
201 224 255
201 224 255
201 224 255
201 224 255
201 224 255
201 224 255
201 224 255
200 224 255
200 224 255
200 224 255
200 224 255
200 224 255
200 224 255
200 224 255
200 224 255
200 224 255
200 224 255
200 224 255
200 224 255
200 224 255
200 224 255
200 224 255
199 224 255
199 224 255
199 223 255
199 223 255
199 223 255
199 223 255
199 223 255
199 223 255
199 223 255
199 223 255
199 223 255
199 223 255
199 223 255
199 223 255
199 223 255
198 223 255
198 223 255
198 223 255
198 223 255
198 223 255
198 223 255
198 223 255
198 223 255
198 223 255
198 223 255
198 223 255
198 223 255
198 223 255
198 223 255
198 223 255
198 223 255
198 223 255
198 223 255
197 223 255
197 222 255
197 222 255
197 222 255
197 222 255
197 222 255
197 222 255
197 222 255
197 222 255
197 222 255
197 222 255
197 222 255
197 222 255
197 222 255
197 222 255
197 222 255
197 222 255
197 222 255
197 222 255
197 222 255
197 222 255
197 222 255
197 222 255
197 222 255
197 222 255
197 222 255
197 222 255
196 222 255
196 222 255
196 222 255
196 222 255
196 222 255
196 222 255
196 222 255
196 222 255
196 222 255
196 222 255
196 222 255
196 222 255
196 222 255
196 222 255
196 222 255
196 222 255
196 222 255
196 222 255
196 222 255
196 222 255
196 222 255
196 222 255
196 222 255
196 222 255
196 222 255
196 222 255
196 222 255
196 222 255
196 222 255
196 222 255
196 222 255
196 222 255
196 222 255
196 222 255
196 222 255
196 222 255
196 222 255
196 222 255
196 222 255
196 222 255
197 222 255
197 222 255
197 222 255
197 222 255
197 222 255
197 222 255
197 222 255
197 222 255
197 222 255
197 222 255
197 222 255
197 222 255
197 222 255
197 222 255
197 222 255
197 222 255
197 222 255
197 222 255
197 222 255
197 222 255
197 222 255
197 222 255
197 222 255
197 222 255
197 222 255
197 222 255
198 223 255
198 223 255
198 223 255
198 223 255
198 223 255
198 223 255
198 223 255
198 223 255
198 223 255
198 223 255
198 223 255
198 223 255
198 223 255
198 223 255
198 223 255
198 223 255
198 223 255
198 223 255
199 223 255
199 223 255
199 223 255
199 223 255
199 223 255
199 223 255
199 223 255
199 223 255
199 223 255
199 223 255
199 223 255
199 223 255
199 223 255
199 223 255
199 224 255
199 224 255
200 224 255
200 224 255
200 224 255
200 224 255
200 224 255
200 224 255
200 224 255
200 224 255
200 224 255
200 224 255
200 224 255
200 224 255
200 224 255
200 224 255
200 224 255
201 224 255
201 224 255
201 224 255
201 224 255
201 224 255
201 224 255
201 224 255
201 224 255
201 224 255
201 224 255
201 225 255
201 225 255
201 225 255
201 225 255
202 225 255
202 225 255
202 225 255
202 225 255
202 225 255
202 225 255
202 225 255
202 225 255
202 225 255
202 225 255
202 225 255
202 225 255
202 225 255
202 225 255
202 225 255
203 225 255
203 225 255
203 225 255
203 225 255
203 225 255
203 225 255
203 225 255
203 225 255
203 225 255
203 226 255
203 226 255
203 226 255
203 226 255
203 226 255
203 226 255
203 226 255
204 226 255
204 226 255
204 226 255
204 226 255
204 226 255
204 226 255
204 226 255
204 226 255
204 226 255
204 226 255
204 226 255
204 226 255
204 226 255
204 226 255
204 226 255
204 226 255
205 226 255
205 226 255
205 226 255
205 226 255
205 226 255
205 226 255
205 226 255
205 227 255
205 227 255
205 227 255
205 227 255
205 227 255
205 227 255
205 227 255
205 227 255
205 227 255
205 227 255
205 227 255
206 227 255
206 227 255
206 227 255
206 227 255
206 227 255
206 227 255
206 227 255
206 227 255
206 227 255
206 227 255
206 227 255
206 227 255
206 227 255
206 227 255
206 227 255
206 227 255
206 227 255
206 227 255
206 227 255
207 227 255
207 227 255
207 227 255
207 227 255
207 227 255
207 228 255
207 228 255
207 228 255
207 228 255
207 228 255
207 228 255
207 228 255
207 227 255
207 227 255
207 227 255
207 227 255
207 227 255
206 227 255
206 227 255
206 227 255
206 227 255
206 227 255
206 227 255
206 227 255
206 227 255
206 227 255
206 227 255
206 227 255
206 227 255
206 227 255
206 227 255
206 227 255
206 227 255
206 227 255
206 227 255
206 227 255
205 227 255
205 227 255
205 227 255
205 227 255
205 227 255
205 227 255
205 227 255
205 227 255
205 227 255
205 227 255
205 226 255
205 226 255
205 226 255
205 226 255
205 226 255
205 226 255
205 226 255
204 226 255
204 226 255
204 226 255
204 226 255
204 226 255
204 226 255
204 226 255
204 226 255
204 226 255
204 226 255
204 226 255
204 226 255
204 226 255
204 226 255
204 226 255
204 226 255
203 226 255
203 226 255
203 226 255
203 226 255
203 226 255
203 226 255
203 226 255
203 226 255
203 225 255
203 225 255
203 225 255
203 225 255
203 225 255
203 225 255
203 225 255
203 225 255
202 225 255
202 225 255
202 225 255
202 225 255
202 225 255
202 225 255
202 225 255
202 225 255
202 225 255
202 225 255
202 225 255
202 225 255
202 225 255
202 225 255
202 225 255
201 225 255
201 225 255
201 225 255
201 225 255
201 224 255
201 224 255
201 224 255
201 224 255
201 224 255
201 224 255
201 224 255
201 224 255
201 224 255
201 224 255
201 224 255
200 224 255
200 224 255
200 224 255
200 224 255
200 224 255
200 224 255
200 224 255
200 224 255
200 224 255
200 224 255
200 224 255
200 224 255
200 224 255
200 224 255
199 224 255
199 224 255
199 224 255
199 223 255
199 223 255
199 223 255
199 223 255
199 223 255
199 223 255
199 223 255
199 223 255
199 223 255
199 223 255
199 223 255
199 223 255
199 223 255
199 223 255
198 223 255
198 223 255
198 223 255
198 223 255
198 223 255
198 223 255
198 223 255
198 223 255
198 223 255
198 223 255
198 223 255
198 223 255
198 223 255
198 223 255
198 223 255
198 223 255
198 223 255
198 223 255
197 223 255
197 222 255
197 222 255
197 222 255
197 222 255
197 222 255
197 222 255
197 222 255
197 222 255
197 222 255
197 222 255
197 222 255
197 222 255
197 222 255
197 222 255
197 222 255
197 222 255
197 222 255
197 222 255
197 222 255
197 222 255
197 222 255
197 222 255
197 222 255
197 222 255
197 222 255
197 222 255
197 222 255
197 222 255
197 222 255
197 222 255
197 222 255
197 222 255
196 222 255
196 222 255
196 222 255
196 222 255
196 222 255
196 222 255
196 222 255
196 222 255
196 222 255
196 222 255
196 222 255
196 222 255
196 222 255
196 222 255
196 222 255
196 222 255
196 222 255
196 222 255
196 222 255
196 222 255
196 222 255
196 222 255
197 222 255
197 222 255
197 222 255
197 222 255
197 222 255
197 222 255
197 222 255
197 222 255
197 222 255
197 222 255
197 222 255
197 222 255
197 222 255
197 222 255
197 222 255
197 222 255
197 222 255
197 222 255
197 222 255
197 222 255
197 222 255
197 222 255
197 222 255
197 222 255
197 222 255
197 222 255
197 222 255
197 222 255
197 222 255
197 222 255
197 223 255
198 223 255
198 223 255
198 223 255
198 223 255
198 223 255
198 223 255
198 223 255
198 223 255
198 223 255
198 223 255
198 223 255
198 223 255
198 223 255
198 223 255
198 223 255
198 223 255
198 223 255
198 223 255
198 223 255
199 223 255
199 223 255
199 223 255
199 223 255
199 223 255
199 223 255
199 223 255
199 223 255
199 223 255
199 223 255
199 223 255
199 223 255
199 223 255
199 224 255
199 224 255
199 224 255
200 224 255
200 224 255
200 224 255
200 224 255
200 224 255
200 224 255
200 224 255
200 224 255
200 224 255
200 224 255
200 224 255
200 224 255
200 224 255
200 224 255
200 224 255
201 224 255
201 224 255
201 224 255
201 224 255
201 224 255
201 224 255
201 224 255
201 224 255
201 224 255
201 224 255
201 225 255
201 225 255
201 225 255
201 225 255
202 225 255
202 225 255
202 225 255
202 225 255
202 225 255
202 225 255
202 225 255
202 225 255
202 225 255
202 225 255
202 225 255
202 225 255
202 225 255
202 225 255
202 225 255
203 225 255
203 225 255
203 225 255
203 225 255
203 225 255
203 225 255
203 225 255
203 225 255
203 225 255
203 226 255
203 226 255
203 226 255
203 226 255
203 226 255
203 226 255
204 226 255
204 226 255
204 226 255
204 226 255
204 226 255
204 226 255
204 226 255
204 226 255
204 226 255
204 226 255
204 226 255
204 226 255
204 226 255
204 226 255
204 226 255
204 226 255
204 226 255
205 226 255
205 226 255
205 226 255
205 226 255
205 226 255
205 226 255
205 227 255
205 227 255
205 227 255
205 227 255
205 227 255
205 227 255
205 227 255
205 227 255
205 227 255
205 227 255
205 227 255
206 227 255
206 227 255
206 227 255
206 227 255
206 227 255
206 227 255
206 227 255
206 227 255
206 227 255
206 227 255
206 227 255
206 227 255
206 227 255
206 227 255
206 227 255
206 227 255
206 227 255
206 227 255
206 227 255
207 227 255
207 227 255
207 227 255
207 227 255
207 227 255
207 228 255
207 228 255
207 228 255
207 228 255
207 228 255
207 228 255
207 228 255
207 228 255
207 228 255
207 228 255
207 228 255
207 228 255
207 228 255
207 227 255
207 227 255
207 227 255
207 227 255
207 227 255
206 227 255
206 227 255
206 227 255
206 227 255
206 227 255
206 227 255
206 227 255
206 227 255
206 227 255
206 227 255
206 227 255
206 227 255
206 227 255
206 227 255
206 227 255
206 227 255
206 227 255
206 227 255
206 227 255
205 227 255
205 227 255
205 227 255
205 227 255
205 227 255
205 227 255
205 227 255
205 227 255
205 227 255
205 227 255
205 226 255
205 226 255
205 226 255
205 226 255
205 226 255
205 226 255
205 226 255
204 226 255
204 226 255
204 226 255
204 226 255
204 226 255
204 226 255
204 226 255
204 226 255
204 226 255
204 226 255
204 226 255
204 226 255
204 226 255
204 226 255
204 226 255
204 226 255
203 226 255
203 226 255
203 226 255
203 226 255
203 226 255
203 226 255
203 226 255
203 225 255
203 225 255
203 225 255
203 225 255
203 225 255
203 225 255
203 225 255
203 225 255
202 225 255
202 225 255
202 225 255
202 225 255
202 225 255
202 225 255
202 225 255
202 225 255
202 225 255
202 225 255
202 225 255
202 225 255
202 225 255
202 225 255
202 225 255
201 225 255
201 225 255
201 225 255
201 225 255
201 225 255
201 224 255
201 224 255
201 224 255
201 224 255
201 224 255
201 224 255
201 224 255
201 224 255
201 224 255
201 224 255
200 224 255
200 224 255
200 224 255
200 224 255
200 224 255
200 224 255
200 224 255
200 224 255
200 224 255
200 224 255
200 224 255
200 224 255
200 224 255
200 224 255
200 224 255
199 224 255
199 224 255
199 223 255
199 223 255
199 223 255
199 223 255
199 223 255
199 223 255
199 223 255
199 223 255
199 223 255
199 223 255
199 223 255
199 223 255
199 223 255
199 223 255
199 223 255
198 223 255
198 223 255
198 223 255
198 223 255
198 223 255
198 223 255
198 223 255
198 223 255
198 223 255
198 223 255
198 223 255
198 223 255
198 223 255
198 223 255
198 223 255
198 223 255
198 223 255
198 223 255
198 223 255
197 223 255
197 222 255
197 222 255
197 222 255
197 222 255
197 222 255
197 222 255
197 222 255
197 222 255
197 222 255
197 222 255
197 222 255
197 222 255
197 222 255
197 222 255
197 222 255
197 222 255
197 222 255
197 222 255
197 222 255
197 222 255
197 222 255
197 222 255
197 222 255
197 222 255
197 222 255
197 222 255
197 222 255
197 222 255
197 222 255
197 222 255
197 222 255
197 222 255
197 222 255
197 222 255
197 222 255
197 222 255
197 222 255
197 222 255
197 222 255
197 222 255
197 222 255
197 222 255
197 222 255
197 222 255
197 222 255
197 222 255
197 222 255
197 222 255
197 222 255
197 222 255
197 222 255
197 222 255
197 222 255
197 222 255
197 222 255
197 222 255
197 222 255
197 222 255
197 222 255
197 222 255
197 222 255
197 222 255
197 222 255
197 222 255
197 222 255
197 222 255
197 222 255
197 222 255
197 222 255
197 222 255
197 222 255
197 222 255
197 222 255
197 222 255
197 222 255
197 222 255
197 223 255
198 223 255
198 223 255
198 223 255
198 223 255
198 223 255
198 223 255
198 223 255
198 223 255
198 223 255
198 223 255
198 223 255
198 223 255
198 223 255
198 223 255
198 223 255
198 223 255
198 223 255
198 223 255
198 223 255
198 223 255
199 223 255
199 223 255
199 223 255
199 223 255
199 223 255
199 223 255
199 223 255
199 223 255
199 223 255
199 223 255
199 223 255
199 223 255
199 223 255
199 224 255
199 224 255
199 224 255
200 224 255
200 224 255
200 224 255
200 224 255
200 224 255
200 224 255
200 224 255
200 224 255
200 224 255
200 224 255
200 224 255
200 224 255
200 224 255
200 224 255
200 224 255
201 224 255
201 224 255
201 224 255
201 224 255
201 224 255
201 224 255
201 224 255
201 224 255
201 224 255
201 224 255
201 225 255
201 225 255
201 225 255
201 225 255
201 225 255
202 225 255
202 225 255
202 225 255
202 225 255
202 225 255
202 225 255
202 225 255
202 225 255
202 225 255
202 225 255
202 225 255
202 225 255
202 225 255
202 225 255
202 225 255
203 225 255
203 225 255
203 225 255
203 225 255
203 225 255
203 225 255
203 225 255
203 225 255
203 226 255
203 226 255
203 226 255
203 226 255
203 226 255
203 226 255
203 226 255
204 226 255
204 226 255
204 226 255
204 226 255
204 226 255
204 226 255
204 226 255
204 226 255
204 226 255
204 226 255
204 226 255
204 226 255
204 226 255
204 226 255
204 226 255
204 226 255
205 226 255
205 226 255
205 226 255
205 226 255
205 226 255
205 226 255
205 226 255
205 227 255
205 227 255
205 227 255
205 227 255
205 227 255
205 227 255
205 227 255
205 227 255
205 227 255
205 227 255
206 227 255
206 227 255
206 227 255
206 227 255
206 227 255
206 227 255
206 227 255
206 227 255
206 227 255
206 227 255
206 227 255
206 227 255
206 227 255
206 227 255
206 227 255
206 227 255
206 227 255
206 227 255
206 227 255
207 227 255
207 227 255
207 227 255
207 227 255
207 227 255
207 228 255
207 228 255
207 228 255
207 228 255
207 228 255
207 228 255
207 228 255
207 228 255
207 228 255
207 228 255
207 228 255
207 228 255
207 228 255
207 228 255
207 228 255
207 228 255
207 228 255
207 228 255
207 228 255
207 227 255
207 227 255
207 227 255
207 227 255
207 227 255
206 227 255
206 227 255
206 227 255
206 227 255
206 227 255
206 227 255
206 227 255
206 227 255
206 227 255
206 227 255
206 227 255
206 227 255
206 227 255
206 227 255
206 227 255
206 227 255
206 227 255
206 227 255
205 227 255
205 227 255
205 227 255
205 227 255
205 227 255
205 227 255
205 227 255
205 227 255
205 227 255
205 227 255
205 227 255
205 226 255
205 226 255
205 226 255
205 226 255
205 226 255
205 226 255
204 226 255
204 226 255
204 226 255
204 226 255
204 226 255
204 226 255
204 226 255
204 226 255
204 226 255
204 226 255
204 226 255
204 226 255
204 226 255
204 226 255
204 226 255
204 226 255
203 226 255
203 226 255
203 226 255
203 226 255
203 226 255
203 226 255
203 226 255
203 225 255
203 225 255
203 225 255
203 225 255
203 225 255
203 225 255
203 225 255
203 225 255
203 225 255
202 225 255
202 225 255
202 225 255
202 225 255
202 225 255
202 225 255
202 225 255
202 225 255
202 225 255
202 225 255
202 225 255
202 225 255
202 225 255
202 225 255
202 225 255
201 225 255
201 225 255
201 225 255
201 225 255
201 224 255
201 224 255
201 224 255
201 224 255
201 224 255
201 224 255
201 224 255
201 224 255
201 224 255
201 224 255
200 224 255
200 224 255
200 224 255
200 224 255
200 224 255
200 224 255
200 224 255
200 224 255
200 224 255
200 224 255
200 224 255
200 224 255
200 224 255
200 224 255
200 224 255
200 224 255
199 224 255
199 224 255
199 224 255
199 223 255
199 223 255
199 223 255
199 223 255
199 223 255
199 223 255
199 223 255
199 223 255
199 223 255
199 223 255
199 223 255
199 223 255
199 223 255
199 223 255
198 223 255
198 223 255
198 223 255
198 223 255
198 223 255
198 223 255
198 223 255
198 223 255
198 223 255
198 223 255
198 223 255
198 223 255
198 223 255
198 223 255
198 223 255
198 223 255
198 223 255
198 223 255
198 223 255
198 223 255
197 223 255
197 222 255
197 222 255
197 222 255
197 222 255
197 222 255
197 222 255
197 222 255
197 222 255
197 222 255
197 222 255
197 222 255
197 222 255
197 222 255
197 222 255
197 222 255
197 222 255
197 222 255
197 222 255
197 222 255
197 222 255
197 222 255
197 222 255
197 222 255
197 222 255
197 222 255
197 222 255
197 222 255
197 222 255
197 222 255
197 222 255
197 222 255
197 222 255
197 222 255
197 222 255
197 222 255
197 222 255
197 222 255
197 222 255
197 222 255
197 222 255
197 222 255
197 222 255
197 222 255
197 222 255
197 222 255
197 222 255
197 222 255
197 222 255
197 222 255
197 222 255
197 222 255
197 222 255
197 222 255
197 222 255
197 222 255
197 222 255
197 222 255
197 222 255
197 222 255
197 222 255
197 222 255
197 222 255
197 222 255
197 222 255
197 222 255
197 222 255
197 222 255
197 222 255
197 223 255
198 223 255
198 223 255
198 223 255
198 223 255
198 223 255
198 223 255
198 223 255
198 223 255
198 223 255
198 223 255
198 223 255
198 223 255
198 223 255
198 223 255
198 223 255
198 223 255
198 223 255
198 223 255
198 223 255
198 223 255
199 223 255
199 223 255
199 223 255
199 223 255
199 223 255
199 223 255
199 223 255
199 223 255
199 223 255
199 223 255
199 223 255
199 223 255
199 223 255
199 223 255
199 223 255
199 224 255
199 224 255
200 224 255
200 224 255
200 224 255
200 224 255
200 224 255
200 224 255
200 224 255
200 224 255
200 224 255
200 224 255
200 224 255
200 224 255
200 224 255
200 224 255
200 224 255
201 224 255
201 224 255
201 224 255
201 224 255
201 224 255
201 224 255
201 224 255
201 224 255
201 224 255
201 224 255
201 224 255
201 225 255
201 225 255
201 225 255
201 225 255
202 225 255
202 225 255
202 225 255
202 225 255
202 225 255
202 225 255
202 225 255
202 225 255
202 225 255
202 225 255
202 225 255
202 225 255
202 225 255
202 225 255
202 225 255
203 225 255
203 225 255
203 225 255
203 225 255
203 225 255
203 225 255
203 225 255
203 225 255
203 225 255
203 226 255
203 226 255
203 226 255
203 226 255
203 226 255
203 226 255
204 226 255
204 226 255
204 226 255
204 226 255
204 226 255
204 226 255
204 226 255
204 226 255
204 226 255
204 226 255
204 226 255
204 226 255
204 226 255
204 226 255
204 226 255
204 226 255
204 226 255
205 226 255
205 226 255
205 226 255
205 226 255
205 226 255
205 226 255
205 227 255
205 227 255
205 227 255
205 227 255
205 227 255
205 227 255
205 227 255
205 227 255
205 227 255
205 227 255
205 227 255
206 227 255
206 227 255
206 227 255
206 227 255
206 227 255
206 227 255
206 227 255
206 227 255
206 227 255
206 227 255
206 227 255
206 227 255
206 227 255
206 227 255
206 227 255
206 227 255
206 227 255
206 227 255
207 227 255
207 227 255
207 227 255
207 227 255
207 227 255
207 228 255
207 228 255
207 228 255
207 228 255
207 228 255
207 228 255
207 228 255
207 228 255
207 228 255
207 228 255
207 228 255
207 228 255
207 228 255
207 228 255
207 228 255
207 228 255
207 228 255
207 228 255
207 228 255
207 228 255
207 228 255
207 228 255
207 228 255
207 228 255
207 228 255
207 227 255
207 227 255
207 227 255
207 227 255
207 227 255
206 227 255
206 227 255
206 227 255
206 227 255
206 227 255
206 227 255
206 227 255
206 227 255
206 227 255
206 227 255
206 227 255
206 227 255
206 227 255
206 227 255
206 227 255
206 227 255
206 227 255
206 227 255
205 227 255
205 227 255
205 227 255
205 227 255
205 227 255
205 227 255
205 227 255
205 227 255
205 227 255
205 227 255
205 226 255
205 226 255
205 226 255
205 226 255
205 226 255
205 226 255
205 226 255
204 226 255
204 226 255
204 226 255
204 226 255
204 226 255
204 226 255
204 226 255
204 226 255
204 226 255
204 226 255
204 226 255
204 226 255
204 226 255
204 226 255
204 226 255
204 226 255
203 226 255
203 226 255
203 226 255
203 226 255
203 226 255
203 226 255
203 226 255
203 225 255
203 225 255
203 225 255
203 225 255
203 225 255
203 225 255
203 225 255
203 225 255
202 225 255
202 225 255
202 225 255
202 225 255
202 225 255
202 225 255
202 225 255
202 225 255
202 225 255
202 225 255
202 225 255
202 225 255
202 225 255
202 225 255
202 225 255
201 225 255
201 225 255
201 225 255
201 225 255
201 225 255
201 224 255
201 224 255
201 224 255
201 224 255
201 224 255
201 224 255
201 224 255
201 224 255
201 224 255
201 224 255
200 224 255
200 224 255
200 224 255
200 224 255
200 224 255
200 224 255
200 224 255
200 224 255
200 224 255
200 224 255
200 224 255
200 224 255
200 224 255
200 224 255
200 224 255
200 224 255
199 224 255
199 224 255
199 223 255
199 223 255
199 223 255
199 223 255
199 223 255
199 223 255
199 223 255
199 223 255
199 223 255
199 223 255
199 223 255
199 223 255
199 223 255
199 223 255
199 223 255
198 223 255
198 223 255
198 223 255
198 223 255
198 223 255
198 223 255
198 223 255
198 223 255
198 223 255
198 223 255
198 223 255
198 223 255
198 223 255
198 223 255
198 223 255
198 223 255
198 223 255
198 223 255
198 223 255
198 223 255
198 223 255
198 223 255
197 222 255
197 222 255
197 222 255
197 222 255
197 222 255
197 222 255
197 222 255
197 222 255
197 222 255
197 222 255
197 222 255
197 222 255
197 222 255
197 222 255
197 222 255
197 222 255
197 222 255
197 222 255
197 222 255
197 222 255
197 222 255
197 222 255
197 222 255
197 222 255
197 222 255
197 222 255
197 222 255
197 222 255
197 222 255
197 222 255
197 222 255
197 222 255
197 222 255
197 222 255
197 222 255
197 222 255
197 222 255
197 222 255
197 222 255
197 222 255
197 222 255
197 222 255
197 222 255
197 222 255
197 222 255
197 222 255
197 222 255
197 222 255
197 222 255
197 222 255
197 222 255
197 222 255
197 222 255
197 222 255
197 222 255
197 222 255
197 222 255
197 222 255
197 222 255
197 223 255
198 223 255
198 223 255
198 223 255
198 223 255
198 223 255
198 223 255
198 223 255
198 223 255
198 223 255
198 223 255
198 223 255
198 223 255
198 223 255
198 223 255
198 223 255
198 223 255
198 223 255
198 223 255
198 223 255
198 223 255
198 223 255
198 223 255
199 223 255
199 223 255
199 223 255
199 223 255
199 223 255
199 223 255
199 223 255
199 223 255
199 223 255
199 223 255
199 223 255
199 223 255
199 223 255
199 223 255
199 223 255
199 224 255
199 224 255
200 224 255
200 224 255
200 224 255
200 224 255
200 224 255
200 224 255
200 224 255
200 224 255
200 224 255
200 224 255
200 224 255
200 224 255
200 224 255
200 224 255
200 224 255
200 224 255
201 224 255
201 224 255
201 224 255
201 224 255
201 224 255
201 224 255
201 224 255
201 224 255
201 224 255
201 224 255
201 225 255
201 225 255
201 225 255
201 225 255
201 225 255
202 225 255
202 225 255
202 225 255
202 225 255
202 225 255
202 225 255
202 225 255
202 225 255
202 225 255
202 225 255
202 225 255
202 225 255
202 225 255
202 225 255
202 225 255
203 225 255
203 225 255
203 225 255
203 225 255
203 225 255
203 225 255
203 225 255
203 225 255
203 226 255
203 226 255
203 226 255
203 226 255
203 226 255
203 226 255
203 226 255
204 226 255
204 226 255
204 226 255
204 226 255
204 226 255
204 226 255
204 226 255
204 226 255
204 226 255
204 226 255
204 226 255
204 226 255
204 226 255
204 226 255
204 226 255
204 226 255
205 226 255
205 226 255
205 226 255
205 226 255
205 226 255
205 226 255
205 226 255
205 227 255
205 227 255
205 227 255
205 227 255
205 227 255
205 227 255
205 227 255
205 227 255
205 227 255
205 227 255
206 227 255
206 227 255
206 227 255
206 227 255
206 227 255
206 227 255
206 227 255
206 227 255
206 227 255
206 227 255
206 227 255
206 227 255
206 227 255
206 227 255
206 227 255
206 227 255
206 227 255
206 227 255
207 227 255
207 227 255
207 227 255
207 227 255
207 227 255
207 228 255
207 228 255
207 228 255
207 228 255
207 228 255
207 228 255
207 228 255
207 228 255
207 228 255
207 228 255
207 228 255
207 228 255
207 228 255
207 228 255
208 228 255
207 228 255
207 228 255
207 228 255
207 228 255
207 228 255
207 228 255
207 228 255
207 228 255
207 228 255
207 228 255
207 228 255
207 228 255
207 228 255
207 228 255
207 228 255
207 227 255
207 227 255
207 227 255
207 227 255
207 227 255
206 227 255
206 227 255
206 227 255
206 227 255
206 227 255
206 227 255
206 227 255
206 227 255
206 227 255
206 227 255
206 227 255
206 227 255
206 227 255
206 227 255
206 227 255
206 227 255
206 227 255
206 227 255
206 227 255
205 227 255
205 227 255
205 227 255
205 227 255
205 227 255
205 227 255
205 227 255
205 227 255
205 227 255
205 227 255
205 226 255
205 226 255
205 226 255
205 226 255
205 226 255
205 226 255
205 226 255
204 226 255
204 226 255
204 226 255
204 226 255
204 226 255
204 226 255
204 226 255
204 226 255
204 226 255
204 226 255
204 226 255
204 226 255
204 226 255
204 226 255
204 226 255
204 226 255
203 226 255
203 226 255
203 226 255
203 226 255
203 226 255
203 226 255
203 226 255
203 225 255
203 225 255
203 225 255
203 225 255
203 225 255
203 225 255
203 225 255
203 225 255
202 225 255
202 225 255
202 225 255
202 225 255
202 225 255
202 225 255
202 225 255
202 225 255
202 225 255
202 225 255
202 225 255
202 225 255
202 225 255
202 225 255
202 225 255
201 225 255
201 225 255
201 225 255
201 225 255
201 224 255
201 224 255
201 224 255
201 224 255
201 224 255
201 224 255
201 224 255
201 224 255
201 224 255
201 224 255
201 224 255
200 224 255
200 224 255
200 224 255
200 224 255
200 224 255
200 224 255
200 224 255
200 224 255
200 224 255
200 224 255
200 224 255
200 224 255
200 224 255
200 224 255
200 224 255
200 224 255
199 224 255
199 224 255
199 223 255
199 223 255
199 223 255
199 223 255
199 223 255
199 223 255
199 223 255
199 223 255
199 223 255
199 223 255
199 223 255
199 223 255
199 223 255
199 223 255
199 223 255
198 223 255
198 223 255
198 223 255
198 223 255
198 223 255
198 223 255
198 223 255
198 223 255
198 223 255
198 223 255
198 223 255
198 223 255
198 223 255
198 223 255
198 223 255
198 223 255
198 223 255
198 223 255
198 223 255
198 223 255
198 223 255
198 223 255
198 223 255
198 223 255
197 223 255
197 223 255
197 222 255
197 222 255
197 222 255
197 222 255
197 222 255
197 222 255
197 222 255
197 222 255
197 222 255
197 222 255
197 222 255
197 222 255
197 222 255
197 222 255
197 222 255
197 222 255
197 222 255
197 222 255
197 222 255
197 222 255
197 222 255
197 222 255
197 222 255
197 222 255
197 222 255
197 222 255
197 222 255
197 222 255
197 222 255
197 222 255
197 222 255
197 222 255
197 222 255
197 222 255
197 222 255
197 222 255
197 222 255
197 222 255
197 222 255
197 222 255
197 222 255
197 222 255
197 222 255
197 222 255
197 222 255
197 222 255
197 222 255
197 223 255
198 223 255
198 223 255
198 223 255
198 223 255
198 223 255
198 223 255
198 223 255
198 223 255
198 223 255
198 223 255
198 223 255
198 223 255
198 223 255
198 223 255
198 223 255
198 223 255
198 223 255
198 223 255
198 223 255
198 223 255
198 223 255
198 223 255
198 223 255
198 223 255
199 223 255
199 223 255
199 223 255
199 223 255
199 223 255
199 223 255
199 223 255
199 223 255
199 223 255
199 223 255
199 223 255
199 223 255
199 223 255
199 223 255
199 223 255
199 224 255
199 224 255
200 224 255
200 224 255
200 224 255
200 224 255
200 224 255
200 224 255
200 224 255
200 224 255
200 224 255
200 224 255
200 224 255
200 224 255
200 224 255
200 224 255
200 224 255
200 224 255
201 224 255
201 224 255
201 224 255
201 224 255
201 224 255
201 224 255
201 224 255
201 224 255
201 224 255
201 224 255
201 224 255
201 225 255
201 225 255
201 225 255
201 225 255
202 225 255
202 225 255
202 225 255
202 225 255
202 225 255
202 225 255
202 225 255
202 225 255
202 225 255
202 225 255
202 225 255
202 225 255
202 225 255
202 225 255
202 225 255
203 225 255
203 225 255
203 225 255
203 225 255
203 225 255
203 225 255
203 225 255
203 225 255
203 226 255
203 226 255
203 226 255
203 226 255
203 226 255
203 226 255
203 226 255
204 226 255
204 226 255
204 226 255
204 226 255
204 226 255
204 226 255
204 226 255
204 226 255
204 226 255
204 226 255
204 226 255
204 226 255
204 226 255
204 226 255
204 226 255
204 226 255
204 226 255
205 226 255
205 226 255
205 226 255
205 226 255
205 226 255
205 226 255
205 227 255
205 227 255
205 227 255
205 227 255
205 227 255
205 227 255
205 227 255
205 227 255
205 227 255
205 227 255
206 227 255
206 227 255
206 227 255
206 227 255
206 227 255
206 227 255
206 227 255
206 227 255
206 227 255
206 227 255
206 227 255
206 227 255
206 227 255
206 227 255
206 227 255
206 227 255
206 227 255
206 227 255
206 227 255
207 227 255
207 227 255
207 227 255
207 227 255
207 228 255
207 228 255
207 228 255
207 228 255
207 228 255
207 228 255
207 228 255
207 228 255
207 228 255
207 228 255
207 228 255
207 228 255
207 228 255
207 228 255
207 228 255
207 228 255
208 228 255
208 228 255
208 228 255
208 228 255
208 228 255
207 228 255
207 228 255
207 228 255
207 228 255
207 228 255
207 228 255
207 228 255
207 228 255
207 228 255
207 228 255
207 228 255
207 228 255
207 228 255
207 228 255
207 228 255
207 227 255
207 227 255
207 227 255
207 227 255
207 227 255
206 227 255
206 227 255
206 227 255
206 227 255
206 227 255
206 227 255
206 227 255
206 227 255
206 227 255
206 227 255
206 227 255
206 227 255
206 227 255
206 227 255
206 227 255
206 227 255
206 227 255
206 227 255
205 227 255
205 227 255
205 227 255
205 227 255
205 227 255
205 227 255
205 227 255
205 227 255
205 227 255
205 227 255
205 226 255
205 226 255
205 226 255
205 226 255
205 226 255
205 226 255
205 226 255
204 226 255
204 226 255
204 226 255
204 226 255
204 226 255
204 226 255
204 226 255
204 226 255
204 226 255
204 226 255
204 226 255
204 226 255
204 226 255
204 226 255
204 226 255
204 226 255
203 226 255
203 226 255
203 226 255
203 226 255
203 226 255
203 226 255
203 226 255
203 225 255
203 225 255
203 225 255
203 225 255
203 225 255
203 225 255
203 225 255
203 225 255
203 225 255
202 225 255
202 225 255
202 225 255
202 225 255
202 225 255
202 225 255
202 225 255
202 225 255
202 225 255
202 225 255
202 225 255
202 225 255
202 225 255
202 225 255
201 225 255
201 225 255
201 225 255
201 225 255
201 225 255
201 224 255
201 224 255
201 224 255
201 224 255
201 224 255
201 224 255
201 224 255
201 224 255
201 224 255
201 224 255
201 224 255
200 224 255
200 224 255
200 224 255
200 224 255
200 224 255
200 224 255
200 224 255
200 224 255
200 224 255
200 224 255
200 224 255
200 224 255
200 224 255
200 224 255
200 224 255
199 224 255
199 224 255
199 224 255
199 223 255
199 223 255
199 223 255
199 223 255
199 223 255
199 223 255
199 223 255
199 223 255
199 223 255
199 223 255
199 223 255
199 223 255
199 223 255
199 223 255
199 223 255
199 223 255
198 223 255
198 223 255
198 223 255
198 223 255
198 223 255
198 223 255
198 223 255
198 223 255
198 223 255
198 223 255
198 223 255
198 223 255
198 223 255
198 223 255
198 223 255
198 223 255
198 223 255
198 223 255
198 223 255
198 223 255
198 223 255
198 223 255
198 223 255
198 223 255
198 223 255
198 223 255
198 223 255
198 223 255
197 223 255
197 223 255
197 222 255
197 222 255
197 222 255
197 222 255
197 222 255
197 222 255
197 222 255
197 222 255
197 222 255
197 222 255
197 222 255
197 222 255
197 222 255
197 222 255
197 222 255
197 222 255
197 222 255
197 222 255
197 222 255
197 222 255
197 222 255
197 222 255
197 222 255
197 222 255
197 222 255
197 222 255
197 222 255
197 222 255
197 222 255
197 222 255
197 222 255
197 223 255
198 223 255
198 223 255
198 223 255
198 223 255
198 223 255
198 223 255
198 223 255
198 223 255
198 223 255
198 223 255
198 223 255
198 223 255
198 223 255
198 223 255
198 223 255
198 223 255
198 223 255
198 223 255
198 223 255
198 223 255
198 223 255
198 223 255
198 223 255
198 223 255
198 223 255
198 223 255
198 223 255
198 223 255
199 223 255
199 223 255
199 223 255
199 223 255
199 223 255
199 223 255
199 223 255
199 223 255
199 223 255
199 223 255
199 223 255
199 223 255
199 223 255
199 223 255
199 223 255
199 223 255
199 224 255
199 224 255
200 224 255
200 224 255
200 224 255
200 224 255
200 224 255
200 224 255
200 224 255
200 224 255
200 224 255
200 224 255
200 224 255
200 224 255
200 224 255
200 224 255
200 224 255
200 224 255
201 224 255
201 224 255
201 224 255
201 224 255
201 224 255
201 224 255
201 224 255
201 224 255
201 224 255
201 224 255
201 224 255
201 225 255
201 225 255
201 225 255
201 225 255
201 225 255
202 225 255
202 225 255
202 225 255
202 225 255
202 225 255
202 225 255
202 225 255
202 225 255
202 225 255
202 225 255
202 225 255
202 225 255
202 225 255
202 225 255
203 225 255
203 225 255
203 225 255
203 225 255
203 225 255
203 225 255
203 225 255
203 225 255
203 225 255
203 226 255
203 226 255
203 226 255
203 226 255
203 226 255
203 226 255
203 226 255
204 226 255
204 226 255
204 226 255
204 226 255
204 226 255
204 226 255
204 226 255
204 226 255
204 226 255
204 226 255
204 226 255
204 226 255
204 226 255
204 226 255
204 226 255
204 226 255
205 226 255
205 226 255
205 226 255
205 226 255
205 226 255
205 226 255
205 227 255
205 227 255
205 227 255
205 227 255
205 227 255
205 227 255
205 227 255
205 227 255
205 227 255
205 227 255
206 227 255
206 227 255
206 227 255
206 227 255
206 227 255
206 227 255
206 227 255
206 227 255
206 227 255
206 227 255
206 227 255
206 227 255
206 227 255
206 227 255
206 227 255
206 227 255
206 227 255
206 227 255
206 227 255
207 227 255
207 227 255
207 227 255
207 227 255
207 228 255
207 228 255
207 228 255
207 228 255
207 228 255
207 228 255
207 228 255
207 228 255
207 228 255
207 228 255
207 228 255
207 228 255
207 228 255
207 228 255
207 228 255
207 228 255
208 228 255
208 228 255
208 228 255
208 228 255
208 228 255
208 228 255
208 228 255
208 228 255
208 228 255
208 228 255
208 228 255
207 228 255
207 228 255
207 228 255
207 228 255
207 228 255
207 228 255
207 228 255
207 228 255
207 228 255
207 228 255
207 228 255
207 228 255
207 228 255
207 228 255
207 228 255
207 227 255
207 227 255
207 227 255
207 227 255
207 227 255
206 227 255
206 227 255
206 227 255
206 227 255
206 227 255
206 227 255
206 227 255
206 227 255
206 227 255
206 227 255
206 227 255
206 227 255
206 227 255
206 227 255
206 227 255
206 227 255
206 227 255
206 227 255
205 227 255
205 227 255
205 227 255
205 227 255
205 227 255
205 227 255
205 227 255
205 227 255
205 227 255
205 227 255
205 226 255
205 226 255
205 226 255
205 226 255
205 226 255
205 226 255
205 226 255
204 226 255
204 226 255
204 226 255
204 226 255
204 226 255
204 226 255
204 226 255
204 226 255
204 226 255
204 226 255
204 226 255
204 226 255
204 226 255
204 226 255
204 226 255
204 226 255
203 226 255
203 226 255
203 226 255
203 226 255
203 226 255
203 226 255
203 226 255
203 225 255
203 225 255
203 225 255
203 225 255
203 225 255
203 225 255
203 225 255
203 225 255
202 225 255
202 225 255
202 225 255
202 225 255
202 225 255
202 225 255
202 225 255
202 225 255
202 225 255
202 225 255
202 225 255
202 225 255
202 225 255
202 225 255
202 225 255
201 225 255
201 225 255
201 225 255
201 225 255
201 225 255
201 224 255
201 224 255
201 224 255
201 224 255
201 224 255
201 224 255
201 224 255
201 224 255
201 224 255
201 224 255
200 224 255
200 224 255
200 224 255
200 224 255
200 224 255
200 224 255
200 224 255
200 224 255
200 224 255
200 224 255
200 224 255
200 224 255
200 224 255
200 224 255
200 224 255
200 224 255
200 224 255
199 224 255
199 224 255
199 223 255
199 223 255
199 223 255
199 223 255
199 223 255
199 223 255
199 223 255
199 223 255
199 223 255
199 223 255
199 223 255
199 223 255
199 223 255
199 223 255
199 223 255
199 223 255
199 223 255
198 223 255
198 223 255
198 223 255
198 223 255
198 223 255
198 223 255
198 223 255
198 223 255
198 223 255
198 223 255
198 223 255
198 223 255
198 223 255
198 223 255
198 223 255
198 223 255
198 223 255
198 223 255
198 223 255
198 223 255
198 223 255
198 223 255
198 223 255
198 223 255
198 223 255
198 223 255
198 223 255
198 223 255
198 223 255
198 223 255
198 223 255
198 223 255
198 223 255
198 223 255
198 223 255
198 223 255
198 223 255
198 223 255
197 223 255
197 223 255
197 223 255
198 223 255
197 223 255
198 223 255
197 223 255
197 223 255
198 223 255
198 223 255
198 223 255
198 223 255
198 223 255
198 223 255
198 223 255
198 223 255
198 223 255
198 223 255
198 223 255
198 223 255
198 223 255
198 223 255
198 223 255
198 223 255
198 223 255
198 223 255
198 223 255
198 223 255
198 223 255
198 223 255
198 223 255
198 223 255
198 223 255
198 223 255
198 223 255
198 223 255
198 223 255
198 223 255
198 223 255
198 223 255
198 223 255
198 223 255
198 223 255
198 223 255
199 223 255
199 223 255
199 223 255
199 223 255
199 223 255
199 223 255
199 223 255
199 223 255
199 223 255
199 223 255
199 223 255
199 223 255
199 223 255
199 223 255
199 223 255
199 223 255
199 223 255
199 224 255
199 224 255
200 224 255
200 224 255
200 224 255
200 224 255
200 224 255
200 224 255
200 224 255
200 224 255
200 224 255
200 224 255
200 224 255
200 224 255
200 224 255
200 224 255
200 224 255
200 224 255
200 224 255
201 224 255
201 224 255
201 224 255
201 224 255
201 224 255
201 224 255
201 224 255
201 224 255
201 224 255
201 224 255
201 225 255
201 225 255
201 225 255
201 225 255
201 225 255
202 225 255
202 225 255
202 225 255
202 225 255
202 225 255
202 225 255
202 225 255
202 225 255
202 225 255
202 225 255
202 225 255
202 225 255
202 225 255
202 225 255
202 225 255
203 225 255
203 225 255
203 225 255
203 225 255
203 225 255
203 225 255
203 225 255
203 225 255
203 226 255
203 226 255
203 226 255
203 226 255
203 226 255
203 226 255
203 226 255
204 226 255
204 226 255
204 226 255
204 226 255
204 226 255
204 226 255
204 226 255
204 226 255
204 226 255
204 226 255
204 226 255
204 226 255
204 226 255
204 226 255
204 226 255
204 226 255
205 226 255
205 226 255
205 226 255
205 226 255
205 226 255
205 226 255
205 227 255
205 227 255
205 227 255
205 227 255
205 227 255
205 227 255
205 227 255
205 227 255
205 227 255
205 227 255
205 227 255
206 227 255
206 227 255
206 227 255
206 227 255
206 227 255
206 227 255
206 227 255
206 227 255
206 227 255
206 227 255
206 227 255
206 227 255
206 227 255
206 227 255
206 227 255
206 227 255
206 227 255
206 227 255
207 227 255
207 227 255
207 227 255
207 227 255
207 227 255
207 228 255
207 228 255
207 228 255
207 228 255
207 228 255
207 228 255
207 228 255
207 228 255
207 228 255
207 228 255
207 228 255
207 228 255
207 228 255
207 228 255
207 228 255
208 228 255
208 228 255
208 228 255
208 228 255
208 228 255
208 228 255
208 228 255
208 228 255
208 228 255
208 228 255
208 228 255
208 228 255
208 228 255
208 228 255
208 228 255
208 228 255
208 228 255
207 228 255
207 228 255
207 228 255
207 228 255
207 228 255
207 228 255
207 228 255
207 228 255
207 228 255
207 228 255
207 228 255
207 228 255
207 228 255
207 228 255
207 228 255
207 227 255
207 227 255
207 227 255
207 227 255
207 227 255
206 227 255
206 227 255
206 227 255
206 227 255
206 227 255
206 227 255
206 227 255
206 227 255
206 227 255
206 227 255
206 227 255
206 227 255
206 227 255
206 227 255
206 227 255
206 227 255
206 227 255
206 227 255
205 227 255
205 227 255
205 227 255
205 227 255
205 227 255
205 227 255
205 227 255
205 227 255
205 227 255
205 227 255
205 226 255
205 226 255
205 226 255
205 226 255
205 226 255
205 226 255
205 226 255
204 226 255
204 226 255
204 226 255
204 226 255
204 226 255
204 226 255
204 226 255
204 226 255
204 226 255
204 226 255
204 226 255
204 226 255
204 226 255
204 226 255
204 226 255
204 226 255
203 226 255
203 226 255
203 226 255
203 226 255
203 226 255
203 226 255
203 225 255
203 225 255
203 225 255
203 225 255
203 225 255
203 225 255
203 225 255
203 225 255
203 225 255
202 225 255
202 225 255
202 225 255
202 225 255
202 225 255
202 225 255
202 225 255
202 225 255
202 225 255
202 225 255
202 225 255
202 225 255
202 225 255
202 225 255
202 225 255
201 225 255
201 225 255
201 225 255
201 225 255
201 224 255
201 224 255
201 224 255
201 224 255
201 224 255
201 224 255
201 224 255
201 224 255
201 224 255
201 224 255
201 224 255
200 224 255
200 224 255
200 224 255
200 224 255
200 224 255
200 224 255
200 224 255
200 224 255
200 224 255
200 224 255
200 224 255
200 224 255
200 224 255
200 224 255
200 224 255
200 224 255
200 224 255
199 224 255
199 224 255
199 224 255
199 223 255
199 223 255
199 223 255
199 223 255
199 223 255
199 223 255
199 223 255
199 223 255
199 223 255
199 223 255
199 223 255
199 223 255
199 223 255
199 223 255
199 223 255
199 223 255
199 223 255
198 223 255
198 223 255
198 223 255
198 223 255
198 223 255
198 223 255
198 223 255
198 223 255
198 223 255
198 223 255
198 223 255
198 223 255
198 223 255
198 223 255
198 223 255
198 223 255
198 223 255
198 223 255
198 223 255
198 223 255
198 223 255
198 223 255
198 223 255
198 223 255
198 223 255
198 223 255
198 223 255
198 223 255
198 223 255
198 223 255
198 223 255
198 223 255
198 223 255
198 223 255
198 223 255
198 223 255
198 223 255
198 223 255
198 223 255
198 223 255
198 223 255
198 223 255
198 223 255
198 223 255
198 223 255
198 223 255
198 223 255
198 223 255
198 223 255
198 223 255
198 223 255
198 223 255
198 223 255
198 223 255
198 223 255
198 223 255
198 223 255
198 223 255
198 223 255
198 223 255
198 223 255
198 223 255
198 223 255
198 223 255
198 223 255
198 223 255
198 223 255
198 223 255
198 223 255
198 223 255
198 223 255
198 223 255
198 223 255
198 223 255
199 223 255
199 223 255
199 223 255
199 223 255
199 223 255
199 223 255
199 223 255
199 223 255
199 223 255
199 223 255
199 223 255
199 223 255
199 223 255
199 223 255
199 223 255
199 223 255
199 223 255
199 223 255
199 224 255
199 224 255
200 224 255
200 224 255
200 224 255
200 224 255
200 224 255
200 224 255
200 224 255
200 224 255
200 224 255
200 224 255
200 224 255
200 224 255
200 224 255
200 224 255
200 224 255
200 224 255
200 224 255
201 224 255
201 224 255
201 224 255
201 224 255
201 224 255
201 224 255
201 224 255
201 224 255
201 224 255
201 224 255
201 224 255
201 225 255
201 225 255
201 225 255
201 225 255
202 225 255
202 225 255
202 225 255
202 225 255
202 225 255
202 225 255
202 225 255
202 225 255
202 225 255
202 225 255
202 225 255
202 225 255
202 225 255
202 225 255
202 225 255
203 225 255
203 225 255
203 225 255
203 225 255
203 225 255
203 225 255
203 225 255
203 225 255
203 225 255
203 226 255
203 226 255
203 226 255
203 226 255
203 226 255
203 226 255
203 226 255
204 226 255
204 226 255
204 226 255
204 226 255
204 226 255
204 226 255
204 226 255
204 226 255
204 226 255
204 226 255
204 226 255
204 226 255
204 226 255
204 226 255
204 226 255
205 226 255
205 226 255
205 226 255
205 226 255
205 226 255
205 226 255
205 226 255
205 227 255
205 227 255
205 227 255
205 227 255
205 227 255
205 227 255
205 227 255
205 227 255
205 227 255
205 227 255
206 227 255
206 227 255
206 227 255
206 227 255
206 227 255
206 227 255
206 227 255
206 227 255
206 227 255
206 227 255
206 227 255
206 227 255
206 227 255
206 227 255
206 227 255
206 227 255
206 227 255
206 227 255
207 227 255
207 227 255
207 227 255
207 227 255
207 227 255
207 228 255
207 228 255
207 228 255
207 228 255
207 228 255
207 228 255
207 228 255
207 228 255
207 228 255
207 228 255
207 228 255
207 228 255
207 228 255
207 228 255
207 228 255
208 228 255
208 228 255
208 228 255
208 228 255
208 228 255
208 228 255
208 228 255
208 228 255
208 228 255
208 228 255
208 228 255
208 228 255
208 228 255
208 228 255
208 228 255
208 228 255
208 228 255
208 228 255
208 228 255
208 228 255
208 228 255
208 228 255
208 228 255
207 228 255
207 228 255
207 228 255
207 228 255
207 228 255
207 228 255
207 228 255
207 228 255
207 228 255
207 228 255
207 228 255
207 228 255
207 228 255
207 228 255
207 228 255
207 227 255
207 227 255
207 227 255
207 227 255
207 227 255
206 227 255
206 227 255
206 227 255
206 227 255
206 227 255
206 227 255
206 227 255
206 227 255
206 227 255
206 227 255
206 227 255
206 227 255
206 227 255
206 227 255
206 227 255
206 227 255
206 227 255
205 227 255
205 227 255
205 227 255
205 227 255
205 227 255
205 227 255
205 227 255
205 227 255
205 227 255
205 227 255
205 227 255
205 226 255
205 226 255
205 226 255
205 226 255
205 226 255
205 226 255
204 226 255
204 226 255
204 226 255
204 226 255
204 226 255
204 226 255
204 226 255
204 226 255
204 226 255
204 226 255
204 226 255
204 226 255
204 226 255
204 226 255
204 226 255
204 226 255
203 226 255
203 226 255
203 226 255
203 226 255
203 226 255
203 226 255
203 226 255
203 225 255
203 225 255
203 225 255
203 225 255
203 225 255
203 225 255
203 225 255
203 225 255
202 225 255
202 225 255
202 225 255
202 225 255
202 225 255
202 225 255
202 225 255
202 225 255
202 225 255
202 225 255
202 225 255
202 225 255
202 225 255
202 225 255
202 225 255
202 225 255
201 225 255
201 225 255
201 225 255
201 225 255
201 224 255
201 224 255
201 224 255
201 224 255
201 224 255
201 224 255
201 224 255
201 224 255
201 224 255
201 224 255
201 224 255
200 224 255
200 224 255
200 224 255
200 224 255
200 224 255
200 224 255
200 224 255
200 224 255
200 224 255
200 224 255
200 224 255
200 224 255
200 224 255
200 224 255
200 224 255
200 224 255
200 224 255
199 224 255
199 224 255
199 224 255
199 223 255
199 223 255
199 223 255
199 223 255
199 223 255
199 223 255
199 223 255
199 223 255
199 223 255
199 223 255
199 223 255
199 223 255
199 223 255
199 223 255
199 223 255
199 223 255
199 223 255
199 223 255
199 223 255
198 223 255
198 223 255
198 223 255
198 223 255
198 223 255
198 223 255
198 223 255
198 223 255
198 223 255
198 223 255
198 223 255
198 223 255
198 223 255
198 223 255
198 223 255
198 223 255
198 223 255
198 223 255
198 223 255
198 223 255
198 223 255
198 223 255
198 223 255
198 223 255
198 223 255
198 223 255
198 223 255
198 223 255
198 223 255
198 223 255
198 223 255
198 223 255
198 223 255
198 223 255
198 223 255
198 223 255
198 223 255
198 223 255
198 223 255
198 223 255
198 223 255
198 223 255
198 223 255
198 223 255
198 223 255
198 223 255
198 223 255
198 223 255
198 223 255
198 223 255
198 223 255
198 223 255
198 223 255
198 223 255
198 223 255
198 223 255
198 223 255
198 223 255
198 223 255
198 223 255
198 223 255
198 223 255
198 223 255
198 223 255
198 223 255
199 223 255
199 223 255
199 223 255
199 223 255
199 223 255
199 223 255
199 223 255
199 223 255
199 223 255
199 223 255
199 223 255
199 223 255
199 223 255
199 223 255
199 223 255
199 223 255
199 223 255
199 223 255
199 224 255
199 224 255
199 224 255
200 224 255
200 224 255
200 224 255
200 224 255
200 224 255
200 224 255
200 224 255
200 224 255
200 224 255
200 224 255
200 224 255
200 224 255
200 224 255
200 224 255
200 224 255
200 224 255
200 224 255
201 224 255
201 224 255
201 224 255
201 224 255
201 224 255
201 224 255
201 224 255
201 224 255
201 224 255
201 224 255
201 224 255
201 225 255
201 225 255
201 225 255
201 225 255
202 225 255
202 225 255
202 225 255
202 225 255
202 225 255
202 225 255
202 225 255
202 225 255
202 225 255
202 225 255
202 225 255
202 225 255
202 225 255
202 225 255
202 225 255
203 225 255
203 225 255
203 225 255
203 225 255
203 225 255
203 225 255
203 225 255
203 225 255
203 225 255
203 226 255
203 226 255
203 226 255
203 226 255
203 226 255
203 226 255
203 226 255
204 226 255
204 226 255
204 226 255
204 226 255
204 226 255
204 226 255
204 226 255
204 226 255
204 226 255
204 226 255
204 226 255
204 226 255
204 226 255
204 226 255
204 226 255
204 226 255
205 226 255
205 226 255
205 226 255
205 226 255
205 226 255
205 226 255
205 227 255
205 227 255
205 227 255
205 227 255
205 227 255
205 227 255
205 227 255
205 227 255
205 227 255
205 227 255
206 227 255
206 227 255
206 227 255
206 227 255
206 227 255
206 227 255
206 227 255
206 227 255
206 227 255
206 227 255
206 227 255
206 227 255
206 227 255
206 227 255
206 227 255
206 227 255
206 227 255
206 227 255
207 227 255
207 227 255
207 227 255
207 227 255
207 227 255
207 228 255
207 228 255
207 228 255
207 228 255
207 228 255
207 228 255
207 228 255
207 228 255
207 228 255
207 228 255
207 228 255
207 228 255
207 228 255
207 228 255
207 228 255
208 228 255
208 228 255
208 228 255
208 228 255
208 228 255
208 228 255
208 228 255
208 228 255
208 228 255
208 228 255
208 228 255
208 228 255
208 228 255
208 228 255
208 228 255
208 228 255
208 228 255
208 228 255
208 228 255
208 228 255
208 228 255
208 228 255
208 228 255
208 228 255
208 228 255
208 228 255
208 228 255
208 228 255
208 228 255
207 228 255
207 228 255
207 228 255
207 228 255
207 228 255
207 228 255
207 228 255
207 228 255
207 228 255
207 228 255
207 228 255
207 228 255
207 228 255
207 228 255
207 228 255
207 227 255
207 227 255
207 227 255
207 227 255
207 227 255
206 227 255
206 227 255
206 227 255
206 227 255
206 227 255
206 227 255
206 227 255
206 227 255
206 227 255
206 227 255
206 227 255
206 227 255
206 227 255
206 227 255
206 227 255
206 227 255
206 227 255
206 227 255
205 227 255
205 227 255
205 227 255
205 227 255
205 227 255
205 227 255
205 227 255
205 227 255
205 227 255
205 226 255
205 226 255
205 226 255
205 226 255
205 226 255
205 226 255
205 226 255
204 226 255
204 226 255
204 226 255
204 226 255
204 226 255
204 226 255
204 226 255
204 226 255
204 226 255
204 226 255
204 226 255
204 226 255
204 226 255
204 226 255
204 226 255
204 226 255
203 226 255
203 226 255
203 226 255
203 226 255
203 226 255
203 226 255
203 225 255
203 225 255
203 225 255
203 225 255
203 225 255
203 225 255
203 225 255
203 225 255
203 225 255
202 225 255
202 225 255
202 225 255
202 225 255
202 225 255
202 225 255
202 225 255
202 225 255
202 225 255
202 225 255
202 225 255
202 225 255
202 225 255
202 225 255
202 225 255
201 225 255
201 225 255
201 225 255
201 225 255
201 225 255
201 224 255
201 224 255
201 224 255
201 224 255
201 224 255
201 224 255
201 224 255
201 224 255
201 224 255
201 224 255
201 224 255
200 224 255
200 224 255
200 224 255
200 224 255
200 224 255
200 224 255
200 224 255
200 224 255
200 224 255
200 224 255
200 224 255
200 224 255
200 224 255
200 224 255
200 224 255
200 224 255
200 224 255
199 224 255
199 224 255
199 224 255
199 224 255
199 223 255
199 223 255
199 223 255
199 223 255
199 223 255
199 223 255
199 223 255
199 223 255
199 223 255
199 223 255
199 223 255
199 223 255
199 223 255
199 223 255
199 223 255
199 223 255
199 223 255
199 223 255
199 223 255
199 223 255
198 223 255
198 223 255
198 223 255
198 223 255
198 223 255
198 223 255
198 223 255
198 223 255
198 223 255
198 223 255
198 223 255
198 223 255
198 223 255
198 223 255
198 223 255
198 223 255
198 223 255
198 223 255
198 223 255
198 223 255
198 223 255
198 223 255
198 223 255
198 223 255
198 223 255
198 223 255
198 223 255
198 223 255
198 223 255
198 223 255
198 223 255
198 223 255
198 223 255
198 223 255
198 223 255
198 223 255
198 223 255
198 223 255
198 223 255
198 223 255
198 223 255
198 223 255
198 223 255
198 223 255
198 223 255
198 223 255
198 223 255
198 223 255
198 223 255
198 223 255
198 223 255
198 223 255
198 223 255
198 223 255
199 223 255
199 223 255
199 223 255
199 223 255
199 223 255
199 223 255
199 223 255
199 223 255
199 223 255
199 223 255
199 223 255
199 223 255
199 223 255
199 223 255
199 223 255
199 223 255
199 223 255
199 223 255
199 223 255
199 223 255
199 224 255
199 224 255
199 224 255
200 224 255
200 224 255
200 224 255
200 224 255
200 224 255
200 224 255
200 224 255
200 224 255
200 224 255
200 224 255
200 224 255
200 224 255
200 224 255
200 224 255
200 224 255
200 224 255
200 224 255
200 224 255
201 224 255
201 224 255
201 224 255
201 224 255
201 224 255
201 224 255
201 224 255
201 224 255
201 224 255
201 224 255
201 224 255
201 225 255
201 225 255
201 225 255
201 225 255
201 225 255
202 225 255
202 225 255
202 225 255
202 225 255
202 225 255
202 225 255
202 225 255
202 225 255
202 225 255
202 225 255
202 225 255
202 225 255
202 225 255
202 225 255
202 225 255
203 225 255
203 225 255
203 225 255
203 225 255
203 225 255
203 225 255
203 225 255
203 225 255
203 226 255
203 226 255
203 226 255
203 226 255
203 226 255
203 226 255
203 226 255
204 226 255
204 226 255
204 226 255
204 226 255
204 226 255
204 226 255
204 226 255
204 226 255
204 226 255
204 226 255
204 226 255
204 226 255
204 226 255
204 226 255
204 226 255
204 226 255
205 226 255
205 226 255
205 226 255
205 226 255
205 226 255
205 226 255
205 226 255
205 227 255
205 227 255
205 227 255
205 227 255
205 227 255
205 227 255
205 227 255
205 227 255
205 227 255
205 227 255
206 227 255
206 227 255
206 227 255
206 227 255
206 227 255
206 227 255
206 227 255
206 227 255
206 227 255
206 227 255
206 227 255
206 227 255
206 227 255
206 227 255
206 227 255
206 227 255
206 227 255
207 227 255
207 227 255
207 227 255
207 227 255
207 227 255
207 228 255
207 228 255
207 228 255
207 228 255
207 228 255
207 228 255
207 228 255
207 228 255
207 228 255
207 228 255
207 228 255
207 228 255
207 228 255
207 228 255
207 228 255
208 228 255
208 228 255
208 228 255
208 228 255
208 228 255
208 228 255
208 228 255
208 228 255
208 228 255
208 228 255
208 228 255
208 228 255
208 228 255
208 228 255
208 228 255
208 228 255
208 228 255
208 228 255
208 228 255
208 228 255
208 228 255
208 228 255
208 228 255
208 228 255
208 228 255
208 228 255
208 228 255
208 228 255
208 228 255
208 228 255
208 228 255
208 228 255
208 228 255
208 228 255
208 228 255
207 228 255
207 228 255
207 228 255
207 228 255
207 228 255
207 228 255
207 228 255
207 228 255
207 228 255
207 228 255
207 228 255
207 228 255
207 228 255
207 228 255
207 228 255
207 227 255
207 227 255
207 227 255
207 227 255
207 227 255
206 227 255
206 227 255
206 227 255
206 227 255
206 227 255
206 227 255
206 227 255
206 227 255
206 227 255
206 227 255
206 227 255
206 227 255
206 227 255
206 227 255
206 227 255
206 227 255
206 227 255
205 227 255
205 227 255
205 227 255
205 227 255
205 227 255
205 227 255
205 227 255
205 227 255
205 227 255
205 227 255
205 227 255
205 226 255
205 226 255
205 226 255
205 226 255
205 226 255
205 226 255
204 226 255
204 226 255
204 226 255
204 226 255
204 226 255
204 226 255
204 226 255
204 226 255
204 226 255
204 226 255
204 226 255
204 226 255
204 226 255
204 226 255
204 226 255
204 226 255
203 226 255
203 226 255
203 226 255
203 226 255
203 226 255
203 226 255
203 225 255
203 225 255
203 225 255
203 225 255
203 225 255
203 225 255
203 225 255
203 225 255
203 225 255
202 225 255
202 225 255
202 225 255
202 225 255
202 225 255
202 225 255
202 225 255
202 225 255
202 225 255
202 225 255
202 225 255
202 225 255
202 225 255
202 225 255
202 225 255
201 225 255
201 225 255
201 225 255
201 225 255
201 225 255
201 224 255
201 224 255
201 224 255
201 224 255
201 224 255
201 224 255
201 224 255
201 224 255
201 224 255
201 224 255
201 224 255
200 224 255
200 224 255
200 224 255
200 224 255
200 224 255
200 224 255
200 224 255
200 224 255
200 224 255
200 224 255
200 224 255
200 224 255
200 224 255
200 224 255
200 224 255
200 224 255
200 224 255
200 224 255
199 224 255
199 224 255
199 224 255
199 224 255
199 223 255
199 223 255
199 223 255
199 223 255
199 223 255
199 223 255
199 223 255
199 223 255
199 223 255
199 223 255
199 223 255
199 223 255
199 223 255
199 223 255
199 223 255
199 223 255
199 223 255
199 223 255
199 223 255
199 223 255
199 223 255
199 223 255
199 223 255
198 223 255
198 223 255
198 223 255
198 223 255
198 223 255
198 223 255
198 223 255
198 223 255
198 223 255
198 223 255
198 223 255
198 223 255
198 223 255
198 223 255
198 223 255
198 223 255
198 223 255
198 223 255
198 223 255
198 223 255
198 223 255
198 223 255
198 223 255
198 223 255
198 223 255
198 223 255
198 223 255
198 223 255
198 223 255
198 223 255
198 223 255
198 223 255
198 223 255
198 223 255
198 223 255
198 223 255
198 223 255
198 223 255
198 223 255
198 223 255
199 223 255
199 223 255
199 223 255
199 223 255
199 223 255
199 223 255
199 223 255
199 223 255
199 223 255
199 223 255
199 223 255
199 223 255
199 223 255
199 223 255
199 223 255
199 223 255
199 223 255
199 223 255
199 223 255
199 223 255
199 223 255
199 223 255
199 223 255
199 224 255
199 224 255
199 224 255
199 224 255
200 224 255
200 224 255
200 224 255
200 224 255
200 224 255
200 224 255
200 224 255
200 224 255
200 224 255
200 224 255
200 224 255
200 224 255
200 224 255
200 224 255
200 224 255
200 224 255
200 224 255
200 224 255
201 224 255
201 224 255
201 224 255
201 224 255
201 224 255
201 224 255
201 224 255
201 224 255
201 224 255
201 224 255
201 224 255
201 225 255
201 225 255
201 225 255
201 225 255
201 225 255
202 225 255
202 225 255
202 225 255
202 225 255
202 225 255
202 225 255
202 225 255
202 225 255
202 225 255
202 225 255
202 225 255
202 225 255
202 225 255
202 225 255
202 225 255
203 225 255
203 225 255
203 225 255
203 225 255
203 225 255
203 225 255
203 225 255
203 225 255
203 226 255
203 226 255
203 226 255
203 226 255
203 226 255
203 226 255
203 226 255
204 226 255
204 226 255
204 226 255
204 226 255
204 226 255
204 226 255
204 226 255
204 226 255
204 226 255
204 226 255
204 226 255
204 226 255
204 226 255
204 226 255
204 226 255
204 226 255
205 226 255
205 226 255
205 226 255
205 226 255
205 226 255
205 226 255
205 227 255
205 227 255
205 227 255
205 227 255
205 227 255
205 227 255
205 227 255
205 227 255
205 227 255
205 227 255
205 227 255
206 227 255
206 227 255
206 227 255
206 227 255
206 227 255
206 227 255
206 227 255
206 227 255
206 227 255
206 227 255
206 227 255
206 227 255
206 227 255
206 227 255
206 227 255
206 227 255
206 227 255
207 227 255
207 227 255
207 227 255
207 227 255
207 227 255
207 228 255
207 228 255
207 228 255
207 228 255
207 228 255
207 228 255
207 228 255
207 228 255
207 228 255
207 228 255
207 228 255
207 228 255
207 228 255
207 228 255
207 228 255
208 228 255
208 228 255
208 228 255
208 228 255
208 228 255
208 228 255
208 228 255
208 228 255
208 228 255
208 228 255
208 228 255
208 228 255
208 228 255
208 228 255
208 228 255
208 228 255
208 228 255
208 228 255
208 228 255
209 228 255
208 228 255
208 228 255
208 228 255
208 228 255
208 228 255
208 228 255
208 228 255
208 228 255
208 228 255
208 228 255
208 228 255
208 228 255
208 228 255
208 228 255
208 228 255
208 228 255
208 228 255
208 228 255
208 228 255
208 228 255
208 228 255
207 228 255
207 228 255
207 228 255
207 228 255
207 228 255
207 228 255
207 228 255
207 228 255
207 228 255
207 228 255
207 228 255
207 228 255
207 228 255
207 228 255
207 228 255
207 227 255
207 227 255
207 227 255
207 227 255
207 227 255
206 227 255
206 227 255
206 227 255
206 227 255
206 227 255
206 227 255
206 227 255
206 227 255
206 227 255
206 227 255
206 227 255
206 227 255
206 227 255
206 227 255
206 227 255
206 227 255
206 227 255
205 227 255
205 227 255
205 227 255
205 227 255
205 227 255
205 227 255
205 227 255
205 227 255
205 227 255
205 227 255
205 226 255
205 226 255
205 226 255
205 226 255
205 226 255
205 226 255
205 226 255
204 226 255
204 226 255
204 226 255
204 226 255
204 226 255
204 226 255
204 226 255
204 226 255
204 226 255
204 226 255
204 226 255
204 226 255
204 226 255
204 226 255
204 226 255
203 226 255
203 226 255
203 226 255
203 226 255
203 226 255
203 226 255
203 226 255
203 225 255
203 225 255
203 225 255
203 225 255
203 225 255
203 225 255
203 225 255
203 225 255
203 225 255
202 225 255
202 225 255
202 225 255
202 225 255
202 225 255
202 225 255
202 225 255
202 225 255
202 225 255
202 225 255
202 225 255
202 225 255
202 225 255
202 225 255
202 225 255
201 225 255
201 225 255
201 225 255
201 225 255
201 225 255
201 224 255
201 224 255
201 224 255
201 224 255
201 224 255
201 224 255
201 224 255
201 224 255
201 224 255
201 224 255
201 224 255
201 224 255
200 224 255
200 224 255
200 224 255
200 224 255
200 224 255
200 224 255
200 224 255
200 224 255
200 224 255
200 224 255
200 224 255
200 224 255
200 224 255
200 224 255
200 224 255
200 224 255
200 224 255
200 224 255
199 224 255
199 224 255
199 224 255
199 224 255
199 223 255
199 223 255
199 223 255
199 223 255
199 223 255
199 223 255
199 223 255
199 223 255
199 223 255
199 223 255
199 223 255
199 223 255
199 223 255
199 223 255
199 223 255
199 223 255
199 223 255
199 223 255
199 223 255
199 223 255
199 223 255
199 223 255
199 223 255
199 223 255
199 223 255
199 223 255
199 223 255
199 223 255
199 223 255
198 223 255
198 223 255
198 223 255
198 223 255
198 223 255
198 223 255
198 223 255
198 223 255
198 223 255
198 223 255
198 223 255
198 223 255
198 223 255
198 223 255
198 223 255
198 223 255
198 223 255
198 223 255
198 223 255
198 223 255
199 223 255
199 223 255
199 223 255
199 223 255
199 223 255
199 223 255
199 223 255
199 223 255
199 223 255
199 223 255
199 223 255
199 223 255
199 223 255
199 223 255
199 223 255
199 223 255
199 223 255
199 223 255
199 223 255
199 223 255
199 223 255
199 223 255
199 223 255
199 223 255
199 223 255
199 223 255
199 223 255
199 223 255
199 223 255
199 224 255
199 224 255
199 224 255
200 224 255
200 224 255
200 224 255
200 224 255
200 224 255
200 224 255
200 224 255
200 224 255
200 224 255
200 224 255
200 224 255
200 224 255
200 224 255
200 224 255
200 224 255
200 224 255
200 224 255
200 224 255
200 224 255
201 224 255
201 224 255
201 224 255
201 224 255
201 224 255
201 224 255
201 224 255
201 224 255
201 224 255
201 224 255
201 224 255
201 224 255
201 225 255
201 225 255
201 225 255
201 225 255
201 225 255
202 225 255
202 225 255
202 225 255
202 225 255
202 225 255
202 225 255
202 225 255
202 225 255
202 225 255
202 225 255
202 225 255
202 225 255
202 225 255
202 225 255
202 225 255
203 225 255
203 225 255
203 225 255
203 225 255
203 225 255
203 225 255
203 225 255
203 225 255
203 225 255
203 226 255
203 226 255
203 226 255
203 226 255
203 226 255
203 226 255
203 226 255
204 226 255
204 226 255
204 226 255
204 226 255
204 226 255
204 226 255
204 226 255
204 226 255
204 226 255
204 226 255
204 226 255
204 226 255
204 226 255
204 226 255
204 226 255
205 226 255
205 226 255
205 226 255
205 226 255
205 226 255
205 226 255
205 226 255
205 227 255
205 227 255
205 227 255
205 227 255
205 227 255
205 227 255
205 227 255
205 227 255
205 227 255
205 227 255
206 227 255
206 227 255
206 227 255
206 227 255
206 227 255
206 227 255
206 227 255
206 227 255
206 227 255
206 227 255
206 227 255
206 227 255
206 227 255
206 227 255
206 227 255
206 227 255
206 227 255
206 227 255
207 227 255
207 227 255
207 227 255
207 227 255
207 228 255
207 228 255
207 228 255
207 228 255
207 228 255
207 228 255
207 228 255
207 228 255
207 228 255
207 228 255
207 228 255
207 228 255
207 228 255
207 228 255
207 228 255
208 228 255
208 228 255
208 228 255
208 228 255
208 228 255
208 228 255
208 228 255
208 228 255
208 228 255
208 228 255
208 228 255
208 228 255
208 228 255
208 228 255
208 228 255
208 228 255
208 228 255
208 228 255
208 228 255
208 228 255
208 228 255
209 228 255
209 229 255
209 229 255
209 229 255
209 228 255
208 228 255
208 228 255
208 228 255
208 228 255
208 228 255
208 228 255
208 228 255
208 228 255
208 228 255
208 228 255
208 228 255
208 228 255
208 228 255
208 228 255
208 228 255
208 228 255
208 228 255
208 228 255
208 228 255
208 228 255
208 228 255
207 228 255
207 228 255
207 228 255
207 228 255
207 228 255
207 228 255
207 228 255
207 228 255
207 228 255
207 228 255
207 228 255
207 228 255
207 228 255
207 228 255
207 228 255
207 227 255
207 227 255
207 227 255
207 227 255
206 227 255
206 227 255
206 227 255
206 227 255
206 227 255
206 227 255
206 227 255
206 227 255
206 227 255
206 227 255
206 227 255
206 227 255
206 227 255
206 227 255
206 227 255
206 227 255
206 227 255
206 227 255
205 227 255
205 227 255
205 227 255
205 227 255
205 227 255
205 227 255
205 227 255
205 227 255
205 227 255
205 227 255
205 226 255
205 226 255
205 226 255
205 226 255
205 226 255
205 226 255
205 226 255
204 226 255
204 226 255
204 226 255
204 226 255
204 226 255
204 226 255
204 226 255
204 226 255
204 226 255
204 226 255
204 226 255
204 226 255
204 226 255
204 226 255
204 226 255
203 226 255
203 226 255
203 226 255
203 226 255
203 226 255
203 226 255
203 226 255
203 225 255
203 225 255
203 225 255
203 225 255
203 225 255
203 225 255
203 225 255
203 225 255
202 225 255
202 225 255
202 225 255
202 225 255
202 225 255
202 225 255
202 225 255
202 225 255
202 225 255
202 225 255
202 225 255
202 225 255
202 225 255
202 225 255
202 225 255
202 225 255
201 225 255
201 225 255
201 225 255
201 225 255
201 225 255
201 224 255
201 224 255
201 224 255
201 224 255
201 224 255
201 224 255
201 224 255
201 224 255
201 224 255
201 224 255
201 224 255
201 224 255
200 224 255
200 224 255
200 224 255
200 224 255
200 224 255
200 224 255
200 224 255
200 224 255
200 224 255
200 224 255
200 224 255
200 224 255
200 224 255
200 224 255
200 224 255
200 224 255
200 224 255
200 224 255
200 224 255
200 224 255
199 224 255
199 224 255
199 224 255
199 224 255
199 223 255
199 223 255
199 223 255
199 223 255
199 223 255
199 223 255
199 223 255
199 223 255
199 223 255
199 223 255
199 223 255
199 223 255
199 223 255
199 223 255
199 223 255
199 223 255
199 223 255
199 223 255
199 223 255
199 223 255
199 223 255
199 223 255
199 223 255
199 223 255
199 223 255
199 223 255
199 223 255
199 223 255
199 223 255
199 223 255
199 223 255
199 223 255
199 223 255
199 223 255
199 223 255
199 223 255
199 223 255
199 223 255
199 223 255
199 223 255
199 223 255
199 223 255
199 223 255
199 223 255
199 223 255
199 223 255
199 223 255
199 223 255
199 223 255
199 223 255
199 223 255
199 223 255
199 223 255
199 223 255
199 223 255
199 223 255
199 223 255
199 223 255
199 223 255
199 223 255
199 223 255
199 223 255
199 223 255
199 223 255
199 223 255
199 223 255
199 223 255
199 223 255
199 224 255
199 224 255
199 224 255
199 224 255
200 224 255
200 224 255
200 224 255
200 224 255
200 224 255
200 224 255
200 224 255
200 224 255
200 224 255
200 224 255
200 224 255
200 224 255
200 224 255
200 224 255
200 224 255
200 224 255
200 224 255
200 224 255
200 224 255
200 224 255
201 224 255
201 224 255
201 224 255
201 224 255
201 224 255
201 224 255
201 224 255
201 224 255
201 224 255
201 224 255
201 224 255
201 224 255
201 225 255
201 225 255
201 225 255
201 225 255
201 225 255
202 225 255
202 225 255
202 225 255
202 225 255
202 225 255
202 225 255
202 225 255
202 225 255
202 225 255
202 225 255
202 225 255
202 225 255
202 225 255
202 225 255
202 225 255
203 225 255
203 225 255
203 225 255
203 225 255
203 225 255
203 225 255
203 225 255
203 225 255
203 225 255
203 226 255
203 226 255
203 226 255
203 226 255
203 226 255
203 226 255
203 226 255
204 226 255
204 226 255
204 226 255
204 226 255
204 226 255
204 226 255
204 226 255
204 226 255
204 226 255
204 226 255
204 226 255
204 226 255
204 226 255
204 226 255
204 226 255
205 226 255
205 226 255
205 226 255
205 226 255
205 226 255
205 226 255
205 226 255
205 227 255
205 227 255
205 227 255
205 227 255
205 227 255
205 227 255
205 227 255
205 227 255
205 227 255
205 227 255
206 227 255
206 227 255
206 227 255
206 227 255
206 227 255
206 227 255
206 227 255
206 227 255
206 227 255
206 227 255
206 227 255
206 227 255
206 227 255
206 227 255
206 227 255
206 227 255
206 227 255
207 227 255
207 227 255
207 227 255
207 227 255
207 227 255
207 228 255
207 228 255
207 228 255
207 228 255
207 228 255
207 228 255
207 228 255
207 228 255
207 228 255
207 228 255
207 228 255
207 228 255
207 228 255
207 228 255
207 228 255
208 228 255
208 228 255
208 228 255
208 228 255
208 228 255
208 228 255
208 228 255
208 228 255
208 228 255
208 228 255
208 228 255
208 228 255
208 228 255
208 228 255
208 228 255
208 228 255
208 228 255
208 228 255
208 228 255
208 228 255
208 228 255
209 228 255
209 228 255
209 229 255
209 229 255
209 229 255
209 229 255
209 229 255
209 229 255
209 229 255
209 229 255
209 228 255
208 228 255
208 228 255
208 228 255
208 228 255
208 228 255
208 228 255
208 228 255
208 228 255
208 228 255
208 228 255
208 228 255
208 228 255
208 228 255
208 228 255
208 228 255
208 228 255
208 228 255
208 228 255
208 228 255
208 228 255
208 228 255
208 228 255
207 228 255
207 228 255
207 228 255
207 228 255
207 228 255
207 228 255
207 228 255
207 228 255
207 228 255
207 228 255
207 228 255
207 228 255
207 228 255
207 228 255
207 227 255
207 227 255
207 227 255
207 227 255
206 227 255
206 227 255
206 227 255
206 227 255
206 227 255
206 227 255
206 227 255
206 227 255
206 227 255
206 227 255
206 227 255
206 227 255
206 227 255
206 227 255
206 227 255
206 227 255
206 227 255
206 227 255
205 227 255
205 227 255
205 227 255
205 227 255
205 227 255
205 227 255
205 227 255
205 227 255
205 227 255
205 227 255
205 226 255
205 226 255
205 226 255
205 226 255
205 226 255
205 226 255
204 226 255
204 226 255
204 226 255
204 226 255
204 226 255
204 226 255
204 226 255
204 226 255
204 226 255
204 226 255
204 226 255
204 226 255
204 226 255
204 226 255
204 226 255
204 226 255
203 226 255
203 226 255
203 226 255
203 226 255
203 226 255
203 226 255
203 226 255
203 225 255
203 225 255
203 225 255
203 225 255
203 225 255
203 225 255
203 225 255
203 225 255
203 225 255
202 225 255
202 225 255
202 225 255
202 225 255
202 225 255
202 225 255
202 225 255
202 225 255
202 225 255
202 225 255
202 225 255
202 225 255
202 225 255
202 225 255
202 225 255
201 225 255
201 225 255
201 225 255
201 225 255
201 225 255
201 224 255
201 224 255
201 224 255
201 224 255
201 224 255
201 224 255
201 224 255
201 224 255
201 224 255
201 224 255
201 224 255
201 224 255
201 224 255
200 224 255
200 224 255
200 224 255
200 224 255
200 224 255
200 224 255
200 224 255
200 224 255
200 224 255
200 224 255
200 224 255
200 224 255
200 224 255
200 224 255
200 224 255
200 224 255
200 224 255
200 224 255
200 224 255
200 224 255
200 224 255
199 224 255
199 224 255
199 224 255
199 224 255
199 223 255
199 223 255
199 223 255
199 223 255
199 223 255
199 223 255
199 223 255
199 223 255
199 223 255
199 223 255
199 223 255
199 223 255
199 223 255
199 223 255
199 223 255
199 223 255
199 223 255
199 223 255
199 223 255
199 223 255
199 223 255
199 223 255
199 223 255
199 223 255
199 223 255
199 223 255
199 223 255
199 223 255
199 223 255
199 223 255
199 223 255
199 223 255
199 223 255
199 223 255
199 223 255
199 223 255
199 223 255
199 223 255
199 223 255
199 223 255
199 223 255
199 223 255
199 223 255
199 223 255
199 223 255
199 223 255
199 223 255
199 223 255
199 223 255
199 223 255
199 223 255
199 223 255
199 223 255
199 223 255
199 223 255
199 223 255
199 223 255
199 223 255
199 224 255
199 224 255
199 224 255
199 224 255
200 224 255
200 224 255
200 224 255
200 224 255
200 224 255
200 224 255
200 224 255
200 224 255
200 224 255
200 224 255
200 224 255
200 224 255
200 224 255
200 224 255
200 224 255
200 224 255
200 224 255
200 224 255
200 224 255
200 224 255
200 224 255
200 224 255
201 224 255
201 224 255
201 224 255
201 224 255
201 224 255
201 224 255
201 224 255
201 224 255
201 224 255
201 224 255
201 224 255
201 224 255
201 225 255
201 225 255
201 225 255
201 225 255
201 225 255
202 225 255
202 225 255
202 225 255
202 225 255
202 225 255
202 225 255
202 225 255
202 225 255
202 225 255
202 225 255
202 225 255
202 225 255
202 225 255
202 225 255
202 225 255
202 225 255
203 225 255
203 225 255
203 225 255
203 225 255
203 225 255
203 225 255
203 225 255
203 225 255
203 226 255
203 226 255
203 226 255
203 226 255
203 226 255
203 226 255
203 226 255
204 226 255
204 226 255
204 226 255
204 226 255
204 226 255
204 226 255
204 226 255
204 226 255
204 226 255
204 226 255
204 226 255
204 226 255
204 226 255
204 226 255
204 226 255
204 226 255
205 226 255
205 226 255
205 226 255
205 226 255
205 226 255
205 226 255
205 227 255
205 227 255
205 227 255
205 227 255
205 227 255
205 227 255
205 227 255
205 227 255
205 227 255
205 227 255
206 227 255
206 227 255
206 227 255
206 227 255
206 227 255
206 227 255
206 227 255
206 227 255
206 227 255
206 227 255
206 227 255
206 227 255
206 227 255
206 227 255
206 227 255
206 227 255
206 227 255
207 227 255
207 227 255
207 227 255
207 227 255
207 227 255
207 228 255
207 228 255
207 228 255
207 228 255
207 228 255
207 228 255
207 228 255
207 228 255
207 228 255
207 228 255
207 228 255
207 228 255
207 228 255
207 228 255
207 228 255
208 228 255
208 228 255
208 228 255
208 228 255
208 228 255
208 228 255
208 228 255
208 228 255
208 228 255
208 228 255
208 228 255
208 228 255
208 228 255
208 228 255
208 228 255
208 228 255
208 228 255
208 228 255
208 228 255
208 228 255
209 228 255
209 228 255
209 229 255
209 229 255
209 229 255
209 229 255
209 229 255
209 229 255
209 229 255
209 229 255
209 229 255
209 229 255
209 229 255
209 229 255
209 229 255
209 229 255
209 229 255
209 228 255
209 228 255
208 228 255
208 228 255
208 228 255
208 228 255
208 228 255
208 228 255
208 228 255
208 228 255
208 228 255
208 228 255
208 228 255
208 228 255
208 228 255
208 228 255
208 228 255
208 228 255
208 228 255
208 228 255
208 228 255
208 228 255
208 228 255
207 228 255
207 228 255
207 228 255
207 228 255
207 228 255
207 228 255
207 228 255
207 228 255
207 228 255
207 228 255
207 228 255
207 228 255
207 228 255
207 228 255
207 227 255
207 227 255
207 227 255
207 227 255
206 227 255
206 227 255
206 227 255
206 227 255
206 227 255
206 227 255
206 227 255
206 227 255
206 227 255
206 227 255
206 227 255
206 227 255
206 227 255
206 227 255
206 227 255
206 227 255
206 227 255
206 227 255
205 227 255
205 227 255
205 227 255
205 227 255
205 227 255
205 227 255
205 227 255
205 227 255
205 227 255
205 227 255
205 226 255
205 226 255
205 226 255
205 226 255
205 226 255
205 226 255
204 226 255
204 226 255
204 226 255
204 226 255
204 226 255
204 226 255
204 226 255
204 226 255
204 226 255
204 226 255
204 226 255
204 226 255
204 226 255
204 226 255
204 226 255
204 226 255
203 226 255
203 226 255
203 226 255
203 226 255
203 226 255
203 226 255
203 226 255
203 225 255
203 225 255
203 225 255
203 225 255
203 225 255
203 225 255
203 225 255
203 225 255
202 225 255
202 225 255
202 225 255
202 225 255
202 225 255
202 225 255
202 225 255
202 225 255
202 225 255
202 225 255
202 225 255
202 225 255
202 225 255
202 225 255
202 225 255
202 225 255
202 225 255
201 225 255
201 225 255
201 225 255
201 225 255
201 224 255
201 224 255
201 224 255
201 224 255
201 224 255
201 224 255
201 224 255
201 224 255
201 224 255
201 224 255
201 224 255
201 224 255
201 224 255
200 224 255
200 224 255
200 224 255
200 224 255
200 224 255
200 224 255
200 224 255
200 224 255
200 224 255
200 224 255
200 224 255
200 224 255
200 224 255
200 224 255
200 224 255
200 224 255
200 224 255
200 224 255
200 224 255
200 224 255
200 224 255
200 224 255
200 224 255
199 224 255
199 224 255
199 224 255
199 224 255
199 224 255
199 224 255
199 223 255
199 223 255
199 223 255
199 223 255
199 223 255
199 223 255
199 223 255
199 223 255
199 223 255
199 223 255
199 223 255
199 223 255
199 223 255
199 223 255
199 223 255
199 223 255
199 223 255
199 223 255
199 223 255
199 223 255
199 223 255
199 223 255
199 223 255
199 223 255
199 223 255
199 223 255
199 223 255
199 223 255
199 223 255
199 223 255
199 223 255
199 223 255
199 223 255
199 223 255
199 223 255
199 223 255
199 223 255
199 223 255
199 223 255
199 223 255
199 223 255
199 223 255
199 223 255
199 223 255
199 223 255
199 224 255
199 224 255
199 224 255
199 224 255
199 224 255
200 224 255
200 224 255
200 224 255
200 224 255
200 224 255
200 224 255
200 224 255
200 224 255
200 224 255
200 224 255
200 224 255
200 224 255
200 224 255
200 224 255
200 224 255
200 224 255
200 224 255
200 224 255
200 224 255
200 224 255
200 224 255
200 224 255
200 224 255
201 224 255
201 224 255
201 224 255
201 224 255
201 224 255
201 224 255
201 224 255
201 224 255
201 224 255
201 224 255
201 224 255
201 224 255
201 225 255
201 225 255
201 225 255
201 225 255
201 225 255
202 225 255
202 225 255
202 225 255
202 225 255
202 225 255
202 225 255
202 225 255
202 225 255
202 225 255
202 225 255
202 225 255
202 225 255
202 225 255
202 225 255
202 225 255
202 225 255
202 225 255
203 225 255
203 225 255
203 225 255
203 225 255
203 225 255
203 225 255
203 225 255
203 225 255
203 226 255
203 226 255
203 226 255
203 226 255
203 226 255
203 226 255
203 226 255
204 226 255
204 226 255
204 226 255
204 226 255
204 226 255
204 226 255
204 226 255
204 226 255
204 226 255
204 226 255
204 226 255
204 226 255
204 226 255
204 226 255
204 226 255
204 226 255
205 226 255
205 226 255
205 226 255
205 226 255
205 226 255
205 226 255
205 227 255
205 227 255
205 227 255
205 227 255
205 227 255
205 227 255
205 227 255
205 227 255
205 227 255
205 227 255
206 227 255
206 227 255
206 227 255
206 227 255
206 227 255
206 227 255
206 227 255
206 227 255
206 227 255
206 227 255
206 227 255
206 227 255
206 227 255
206 227 255
206 227 255
206 227 255
206 227 255
206 227 255
207 227 255
207 227 255
207 227 255
207 227 255
207 228 255
207 228 255
207 228 255
207 228 255
207 228 255
207 228 255
207 228 255
207 228 255
207 228 255
207 228 255
207 228 255
207 228 255
207 228 255
207 228 255
208 228 255
208 228 255
208 228 255
208 228 255
208 228 255
208 228 255
208 228 255
208 228 255
208 228 255
208 228 255
208 228 255
208 228 255
208 228 255
208 228 255
208 228 255
208 228 255
208 228 255
208 228 255
208 228 255
208 228 255
208 228 255
209 228 255
209 228 255
209 229 255
209 229 255
209 229 255
209 229 255
209 229 255
209 229 255
209 229 255
209 229 255
209 229 255
209 229 255
209 229 255
209 229 255
209 229 255
209 229 255
209 229 255
209 229 255
209 229 255
209 229 255
209 229 255
209 229 255
209 229 255
209 228 255
209 228 255
208 228 255
208 228 255
208 228 255
208 228 255
208 228 255
208 228 255
208 228 255
208 228 255
208 228 255
208 228 255
208 228 255
208 228 255
208 228 255
208 228 255
208 228 255
208 228 255
208 228 255
208 228 255
208 228 255
208 228 255
208 228 255
207 228 255
207 228 255
207 228 255
207 228 255
207 228 255
207 228 255
207 228 255
207 228 255
207 228 255
207 228 255
207 228 255
207 228 255
207 228 255
207 228 255
207 227 255
207 227 255
207 227 255
207 227 255
206 227 255
206 227 255
206 227 255
206 227 255
206 227 255
206 227 255
206 227 255
206 227 255
206 227 255
206 227 255
206 227 255
206 227 255
206 227 255
206 227 255
206 227 255
206 227 255
206 227 255
206 227 255
205 227 255
205 227 255
205 227 255
205 227 255
205 227 255
205 227 255
205 227 255
205 227 255
205 227 255
205 227 255
205 226 255
205 226 255
205 226 255
205 226 255
205 226 255
205 226 255
204 226 255
204 226 255
204 226 255
204 226 255
204 226 255
204 226 255
204 226 255
204 226 255
204 226 255
204 226 255
204 226 255
204 226 255
204 226 255
204 226 255
204 226 255
204 226 255
203 226 255
203 226 255
203 226 255
203 226 255
203 226 255
203 226 255
203 226 255
203 225 255
203 225 255
203 225 255
203 225 255
203 225 255
203 225 255
203 225 255
203 225 255
202 225 255
202 225 255
202 225 255
202 225 255
202 225 255
202 225 255
202 225 255
202 225 255
202 225 255
202 225 255
202 225 255
202 225 255
202 225 255
202 225 255
202 225 255
202 225 255
202 225 255
201 225 255
201 225 255
201 225 255
201 225 255
201 225 255
201 224 255
201 224 255
201 224 255
201 224 255
201 224 255
201 224 255
201 224 255
201 224 255
201 224 255
201 224 255
201 224 255
201 224 255
201 224 255
200 224 255
200 224 255
200 224 255
200 224 255
200 224 255
200 224 255
200 224 255
200 224 255
200 224 255
200 224 255
200 224 255
200 224 255
200 224 255
200 224 255
200 224 255
200 224 255
200 224 255
200 224 255
200 224 255
200 224 255
200 224 255
200 224 255
200 224 255
200 224 255
200 224 255
200 224 255
200 224 255
199 224 255
199 224 255
199 224 255
199 224 255
199 224 255
199 224 255
199 224 255
199 223 255
199 223 255
199 223 255
199 223 255
199 223 255
199 223 255
199 223 255
199 223 255
199 223 255
199 223 255
199 223 255
199 223 255
199 223 255
199 223 255
199 223 255
199 223 255
199 223 255
199 223 255
199 223 255
199 223 255
199 223 255
199 223 255
199 223 255
199 223 255
199 223 255
199 224 255
199 224 255
199 224 255
199 224 255
199 224 255
199 224 255
199 224 255
199 224 255
200 224 255
200 224 255
200 224 255
200 224 255
200 224 255
200 224 255
200 224 255
200 224 255
200 224 255
200 224 255
200 224 255
200 224 255
200 224 255
200 224 255
200 224 255
200 224 255
200 224 255
200 224 255
200 224 255
200 224 255
200 224 255
200 224 255
200 224 255
200 224 255
200 224 255
200 224 255
200 224 255
201 224 255
201 224 255
201 224 255
201 224 255
201 224 255
201 224 255
201 224 255
201 224 255
201 224 255
201 224 255
201 224 255
201 224 255
201 224 255
201 225 255
201 225 255
201 225 255
201 225 255
201 225 255
202 225 255
202 225 255
202 225 255
202 225 255
202 225 255
202 225 255
202 225 255
202 225 255
202 225 255
202 225 255
202 225 255
202 225 255
202 225 255
202 225 255
202 225 255
202 225 255
202 225 255
203 225 255
203 225 255
203 225 255
203 225 255
203 225 255
203 225 255
203 225 255
203 225 255
203 226 255
203 226 255
203 226 255
203 226 255
203 226 255
203 226 255
203 226 255
204 226 255
204 226 255
204 226 255
204 226 255
204 226 255
204 226 255
204 226 255
204 226 255
204 226 255
204 226 255
204 226 255
204 226 255
204 226 255
204 226 255
204 226 255
204 226 255
205 226 255
205 226 255
205 226 255
205 226 255
205 226 255
205 226 255
205 226 255
205 227 255
205 227 255
205 227 255
205 227 255
205 227 255
205 227 255
205 227 255
205 227 255
205 227 255
206 227 255
206 227 255
206 227 255
206 227 255
206 227 255
206 227 255
206 227 255
206 227 255
206 227 255
206 227 255
206 227 255
206 227 255
206 227 255
206 227 255
206 227 255
206 227 255
206 227 255
206 227 255
207 227 255
207 227 255
207 227 255
207 227 255
207 228 255
207 228 255
207 228 255
207 228 255
207 228 255
207 228 255
207 228 255
207 228 255
207 228 255
207 228 255
207 228 255
207 228 255
207 228 255
207 228 255
207 228 255
208 228 255
208 228 255
208 228 255
208 228 255
208 228 255
208 228 255
208 228 255
208 228 255
208 228 255
208 228 255
208 228 255
208 228 255
208 228 255
208 228 255
208 228 255
208 228 255
208 228 255
208 228 255
208 228 255
208 228 255
209 228 255
209 228 255
209 229 255
209 229 255
209 229 255
209 229 255
209 229 255
209 229 255
209 229 255
209 229 255
209 229 255
209 229 255
209 229 255
209 229 255
209 229 255
209 229 255
209 229 255
209 229 255
209 229 255
209 229 255
209 229 255
209 229 255
209 229 255
209 229 255
209 229 255
209 229 255
209 229 255
209 229 255
209 229 255
209 229 255
209 228 255
209 228 255
208 228 255
208 228 255
208 228 255
208 228 255
208 228 255
208 228 255
208 228 255
208 228 255
208 228 255
208 228 255
208 228 255
208 228 255
208 228 255
208 228 255
208 228 255
208 228 255
208 228 255
208 228 255
208 228 255
208 228 255
207 228 255
207 228 255
207 228 255
207 228 255
207 228 255
207 228 255
207 228 255
207 228 255
207 228 255
207 228 255
207 228 255
207 228 255
207 228 255
207 228 255
207 227 255
207 227 255
207 227 255
207 227 255
206 227 255
206 227 255
206 227 255
206 227 255
206 227 255
206 227 255
206 227 255
206 227 255
206 227 255
206 227 255
206 227 255
206 227 255
206 227 255
206 227 255
206 227 255
206 227 255
206 227 255
206 227 255
205 227 255
205 227 255
205 227 255
205 227 255
205 227 255
205 227 255
205 227 255
205 227 255
205 227 255
205 227 255
205 226 255
205 226 255
205 226 255
205 226 255
205 226 255
205 226 255
204 226 255
204 226 255
204 226 255
204 226 255
204 226 255
204 226 255
204 226 255
204 226 255
204 226 255
204 226 255
204 226 255
204 226 255
204 226 255
204 226 255
204 226 255
204 226 255
203 226 255
203 226 255
203 226 255
203 226 255
203 226 255
203 226 255
203 226 255
203 225 255
203 225 255
203 225 255
203 225 255
203 225 255
203 225 255
203 225 255
203 225 255
203 225 255
202 225 255
202 225 255
202 225 255
202 225 255
202 225 255
202 225 255
202 225 255
202 225 255
202 225 255
202 225 255
202 225 255
202 225 255
202 225 255
202 225 255
202 225 255
202 225 255
201 225 255
201 225 255
201 225 255
201 225 255
201 225 255
201 224 255
201 224 255
201 224 255
201 224 255
201 224 255
201 224 255
201 224 255
201 224 255
201 224 255
201 224 255
201 224 255
201 224 255
201 224 255
201 224 255
200 224 255
200 224 255
200 224 255
200 224 255
200 224 255
200 224 255
200 224 255
200 224 255
200 224 255
200 224 255
200 224 255
200 224 255
200 224 255
200 224 255
200 224 255
200 224 255
200 224 255
200 224 255
200 224 255
200 224 255
200 224 255
200 224 255
200 224 255
200 224 255
200 224 255
200 224 255
200 224 255
200 224 255
200 224 255
200 224 255
200 224 255
200 224 255
200 224 255
200 224 255
199 224 255
199 224 255
199 224 255
199 224 255
199 224 255
199 224 255
199 224 255
199 224 255
199 224 255
199 224 255
199 224 255
199 224 255
199 224 255
199 224 255
199 224 255
199 224 255
199 224 255
200 224 255
200 224 255
200 224 255
200 224 255
200 224 255
200 224 255
200 224 255
200 224 255
200 224 255
200 224 255
200 224 255
200 224 255
200 224 255
200 224 255
200 224 255
200 224 255
200 224 255
200 224 255
200 224 255
200 224 255
200 224 255
200 224 255
200 224 255
200 224 255
200 224 255
200 224 255
200 224 255
200 224 255
200 224 255
200 224 255
200 224 255
200 224 255
200 224 255
200 224 255
200 224 255
201 224 255
201 224 255
201 224 255
201 224 255
201 224 255
201 224 255
201 224 255
201 224 255
201 224 255
201 224 255
201 224 255
201 224 255
201 224 255
201 224 255
201 225 255
201 225 255
201 225 255
201 225 255
201 225 255
202 225 255
202 225 255
202 225 255
202 225 255
202 225 255
202 225 255
202 225 255
202 225 255
202 225 255
202 225 255
202 225 255
202 225 255
202 225 255
202 225 255
202 225 255
202 225 255
202 225 255
203 225 255
203 225 255
203 225 255
203 225 255
203 225 255
203 225 255
203 225 255
203 225 255
203 226 255
203 226 255
203 226 255
203 226 255
203 226 255
203 226 255
203 226 255
204 226 255
204 226 255
204 226 255
204 226 255
204 226 255
204 226 255
204 226 255
204 226 255
204 226 255
204 226 255
204 226 255
204 226 255
204 226 255
204 226 255
204 226 255
204 226 255
205 226 255
205 226 255
205 226 255
205 226 255
205 226 255
205 226 255
205 227 255
205 227 255
205 227 255
205 227 255
205 227 255
205 227 255
205 227 255
205 227 255
205 227 255
205 227 255
206 227 255
206 227 255
206 227 255
206 227 255
206 227 255
206 227 255
206 227 255
206 227 255
206 227 255
206 227 255
206 227 255
206 227 255
206 227 255
206 227 255
206 227 255
206 227 255
206 227 255
207 227 255
207 227 255
207 227 255
207 227 255
207 227 255
207 228 255
207 228 255
207 228 255
207 228 255
207 228 255
207 228 255
207 228 255
207 228 255
207 228 255
207 228 255
207 228 255
207 228 255
207 228 255
207 228 255
208 228 255
208 228 255
208 228 255
208 228 255
208 228 255
208 228 255
208 228 255
208 228 255
208 228 255
208 228 255
208 228 255
208 228 255
208 228 255
208 228 255
208 228 255
208 228 255
208 228 255
208 228 255
208 228 255
208 228 255
209 228 255
209 228 255
209 229 255
209 229 255
209 229 255
209 229 255
209 229 255
209 229 255
209 229 255
209 229 255
209 229 255
209 229 255
209 229 255
209 229 255
209 229 255
209 229 255
209 229 255
209 229 255
209 229 255
209 229 255
209 229 255
209 229 255
209 229 255
209 229 255
209 229 255
209 229 255
209 229 255
209 229 255
209 229 255
209 229 255
209 229 255
209 229 255
209 229 255
209 229 255
209 229 255
209 229 255
209 229 255
209 228 255
209 228 255
208 228 255
208 228 255
208 228 255
208 228 255
208 228 255
208 228 255
208 228 255
208 228 255
208 228 255
208 228 255
208 228 255
208 228 255
208 228 255
208 228 255
208 228 255
208 228 255
208 228 255
208 228 255
208 228 255
208 228 255
207 228 255
207 228 255
207 228 255
207 228 255
207 228 255
207 228 255
207 228 255
207 228 255
207 228 255
207 228 255
207 228 255
207 228 255
207 228 255
207 228 255
207 227 255
207 227 255
207 227 255
207 227 255
207 227 255
206 227 255
206 227 255
206 227 255
206 227 255
206 227 255
206 227 255
206 227 255
206 227 255
206 227 255
206 227 255
206 227 255
206 227 255
206 227 255
206 227 255
206 227 255
206 227 255
206 227 255
205 227 255
205 227 255
205 227 255
205 227 255
205 227 255
205 227 255
205 227 255
205 227 255
205 227 255
205 227 255
205 226 255
205 226 255
205 226 255
205 226 255
205 226 255
205 226 255
204 226 255
204 226 255
204 226 255
204 226 255
204 226 255
204 226 255
204 226 255
204 226 255
204 226 255
204 226 255
204 226 255
204 226 255
204 226 255
204 226 255
204 226 255
204 226 255
203 226 255
203 226 255
203 226 255
203 226 255
203 226 255
203 226 255
203 226 255
203 225 255
203 225 255
203 225 255
203 225 255
203 225 255
203 225 255
203 225 255
203 225 255
203 225 255
202 225 255
202 225 255
202 225 255
202 225 255
202 225 255
202 225 255
202 225 255
202 225 255
202 225 255
202 225 255
202 225 255
202 225 255
202 225 255
202 225 255
202 225 255
202 225 255
202 225 255
201 225 255
201 225 255
201 225 255
201 225 255
201 225 255
201 224 255
201 224 255
201 224 255
201 224 255
201 224 255
201 224 255
201 224 255
201 224 255
201 224 255
201 224 255
201 224 255
201 224 255
201 224 255
201 224 255
201 224 255
200 224 255
200 224 255
200 224 255
200 224 255
200 224 255
200 224 255
200 224 255
200 224 255
200 224 255
200 224 255
200 224 255
200 224 255
200 224 255
200 224 255
200 224 255
200 224 255
200 224 255
200 224 255
200 224 255
200 224 255
200 224 255
200 224 255
200 224 255
200 224 255
200 224 255
200 224 255
200 224 255
200 224 255
200 224 255
200 224 255
200 224 255
200 224 255
200 224 255
200 224 255
200 224 255
200 224 255
200 224 255
200 224 255
200 224 255
200 224 255
200 224 255
200 224 255
200 224 255
200 224 255
200 224 255
200 224 255
200 224 255
200 224 255
200 224 255
200 224 255
200 224 255
200 224 255
200 224 255
200 224 255
200 224 255
200 224 255
200 224 255
200 224 255
200 224 255
200 224 255
200 224 255
200 224 255
200 224 255
200 224 255
200 224 255
200 224 255
200 224 255
200 224 255
200 224 255
200 224 255
200 224 255
200 224 255
200 224 255
200 224 255
200 224 255
200 224 255
201 224 255
201 224 255
201 224 255
201 224 255
201 224 255
201 224 255
201 224 255
201 224 255
201 224 255
201 224 255
201 224 255
201 224 255
201 224 255
201 224 255
201 224 255
201 225 255
201 225 255
201 225 255
201 225 255
201 225 255
202 225 255
202 225 255
202 225 255
202 225 255
202 225 255
202 225 255
202 225 255
202 225 255
202 225 255
202 225 255
202 225 255
202 225 255
202 225 255
202 225 255
202 225 255
202 225 255
202 225 255
203 225 255
203 225 255
203 225 255
203 225 255
203 225 255
203 225 255
203 225 255
203 225 255
203 225 255
203 226 255
203 226 255
203 226 255
203 226 255
203 226 255
203 226 255
203 226 255
204 226 255
204 226 255
204 226 255
204 226 255
204 226 255
204 226 255
204 226 255
204 226 255
204 226 255
204 226 255
204 226 255
204 226 255
204 226 255
204 226 255
204 226 255
204 226 255
205 226 255
205 226 255
205 226 255
205 226 255
205 226 255
205 226 255
205 227 255
205 227 255
205 227 255
205 227 255
205 227 255
205 227 255
205 227 255
205 227 255
205 227 255
205 227 255
206 227 255
206 227 255
206 227 255
206 227 255
206 227 255
206 227 255
206 227 255
206 227 255
206 227 255
206 227 255
206 227 255
206 227 255
206 227 255
206 227 255
206 227 255
206 227 255
206 227 255
206 227 255
207 227 255
207 227 255
207 227 255
207 227 255
207 228 255
207 228 255
207 228 255
207 228 255
207 228 255
207 228 255
207 228 255
207 228 255
207 228 255
207 228 255
207 228 255
207 228 255
207 228 255
207 228 255
208 228 255
208 228 255
208 228 255
208 228 255
208 228 255
208 228 255
208 228 255
208 228 255
208 228 255
208 228 255
208 228 255
208 228 255
208 228 255
208 228 255
208 228 255
208 228 255
208 228 255
208 228 255
208 228 255
208 228 255
209 228 255
209 228 255
209 229 255
209 229 255
209 229 255
209 229 255
209 229 255
209 229 255
209 229 255
209 229 255
209 229 255
209 229 255
209 229 255
209 229 255
209 229 255
209 229 255
209 229 255
209 229 255
209 229 255
209 229 255
209 229 255
210 229 255
209 229 255
209 229 255
209 229 255
209 229 255
209 229 255
209 229 255
209 229 255
209 229 255
209 229 255
209 229 255
209 229 255
209 229 255
209 229 255
209 229 255
209 229 255
209 229 255
209 229 255
209 229 255
209 229 255
209 229 255
209 229 255
209 228 255
209 228 255
208 228 255
208 228 255
208 228 255
208 228 255
208 228 255
208 228 255
208 228 255
208 228 255
208 228 255
208 228 255
208 228 255
208 228 255
208 228 255
208 228 255
208 228 255
208 228 255
208 228 255
208 228 255
208 228 255
208 228 255
207 228 255
207 228 255
207 228 255
207 228 255
207 228 255
207 228 255
207 228 255
207 228 255
207 228 255
207 228 255
207 228 255
207 228 255
207 228 255
207 228 255
207 227 255
207 227 255
207 227 255
207 227 255
207 227 255
206 227 255
206 227 255
206 227 255
206 227 255
206 227 255
206 227 255
206 227 255
206 227 255
206 227 255
206 227 255
206 227 255
206 227 255
206 227 255
206 227 255
206 227 255
206 227 255
206 227 255
205 227 255
205 227 255
205 227 255
205 227 255
205 227 255
205 227 255
205 227 255
205 227 255
205 227 255
205 227 255
205 226 255
205 226 255
205 226 255
205 226 255
205 226 255
205 226 255
204 226 255
204 226 255
204 226 255
204 226 255
204 226 255
204 226 255
204 226 255
204 226 255
204 226 255
204 226 255
204 226 255
204 226 255
204 226 255
204 226 255
204 226 255
204 226 255
203 226 255
203 226 255
203 226 255
203 226 255
203 226 255
203 226 255
203 226 255
203 225 255
203 225 255
203 225 255
203 225 255
203 225 255
203 225 255
203 225 255
203 225 255
203 225 255
202 225 255
202 225 255
202 225 255
202 225 255
202 225 255
202 225 255
202 225 255
202 225 255
202 225 255
202 225 255
202 225 255
202 225 255
202 225 255
202 225 255
202 225 255
202 225 255
202 225 255
202 225 255
201 225 255
201 225 255
201 225 255
201 225 255
201 225 255
201 224 255
201 224 255
201 224 255
201 224 255
201 224 255
201 224 255
201 224 255
201 224 255
201 224 255
201 224 255
201 224 255
201 224 255
201 224 255
201 224 255
201 224 255
201 224 255
200 224 255
200 224 255
200 224 255
200 224 255
200 224 255
200 224 255
200 224 255
200 224 255
200 224 255
200 224 255
200 224 255
200 224 255
200 224 255
200 224 255
200 224 255
200 224 255
200 224 255
200 224 255
200 224 255
200 224 255
200 224 255
200 224 255
200 224 255
200 224 255
200 224 255
200 224 255
200 224 255
200 224 255
200 224 255
200 224 255
200 224 255
200 224 255
200 224 255
200 224 255
200 224 255
200 224 255
200 224 255
200 224 255
200 224 255
200 224 255
200 224 255
200 224 255
200 224 255
200 224 255
200 224 255
200 224 255
200 224 255
200 224 255
200 224 255
200 224 255
200 224 255
200 224 255
200 224 255
200 224 255
200 224 255
200 224 255
200 224 255
200 224 255
200 224 255
200 224 255
200 224 255
200 224 255
200 224 255
200 224 255
200 224 255
200 224 255
201 224 255
201 224 255
201 224 255
201 224 255
201 224 255
201 224 255
201 224 255
201 224 255
201 224 255
201 224 255
201 224 255
201 224 255
201 224 255
201 224 255
201 224 255
201 224 255
201 225 255
201 225 255
201 225 255
201 225 255
201 225 255
202 225 255
202 225 255
202 225 255
202 225 255
202 225 255
202 225 255
202 225 255
202 225 255
202 225 255
202 225 255
202 225 255
202 225 255
202 225 255
202 225 255
202 225 255
202 225 255
202 225 255
202 225 255
203 225 255
203 225 255
203 225 255
203 225 255
203 225 255
203 225 255
203 225 255
203 225 255
203 225 255
203 226 255
203 226 255
203 226 255
203 226 255
203 226 255
203 226 255
203 226 255
204 226 255
204 226 255
204 226 255
204 226 255
204 226 255
204 226 255
204 226 255
204 226 255
204 226 255
204 226 255
204 226 255
204 226 255
204 226 255
204 226 255
204 226 255
204 226 255
205 226 255
205 226 255
205 226 255
205 226 255
205 226 255
205 226 255
205 226 255
205 227 255
205 227 255
205 227 255
205 227 255
205 227 255
205 227 255
205 227 255
205 227 255
205 227 255
206 227 255
206 227 255
206 227 255
206 227 255
206 227 255
206 227 255
206 227 255
206 227 255
206 227 255
206 227 255
206 227 255
206 227 255
206 227 255
206 227 255
206 227 255
206 227 255
206 227 255
207 227 255
207 227 255
207 227 255
207 227 255
207 227 255
207 228 255
207 228 255
207 228 255
207 228 255
207 228 255
207 228 255
207 228 255
207 228 255
207 228 255
207 228 255
207 228 255
207 228 255
207 228 255
207 228 255
208 228 255
208 228 255
208 228 255
208 228 255
208 228 255
208 228 255
208 228 255
208 228 255
208 228 255
208 228 255
208 228 255
208 228 255
208 228 255
208 228 255
208 228 255
208 228 255
208 228 255
208 228 255
208 228 255
208 228 255
209 228 255
209 228 255
209 229 255
209 229 255
209 229 255
209 229 255
209 229 255
209 229 255
209 229 255
209 229 255
209 229 255
209 229 255
209 229 255
209 229 255
209 229 255
209 229 255
209 229 255
209 229 255
209 229 255
209 229 255
209 229 255
209 229 255
209 229 255
210 229 255
210 229 255
210 229 255
210 229 255
210 229 255
210 229 255
209 229 255
209 229 255
209 229 255
209 229 255
209 229 255
209 229 255
209 229 255
209 229 255
209 229 255
209 229 255
209 229 255
209 229 255
209 229 255
209 229 255
209 229 255
209 229 255
209 229 255
209 229 255
209 229 255
209 229 255
209 229 255
209 228 255
208 228 255
208 228 255
208 228 255
208 228 255
208 228 255
208 228 255
208 228 255
208 228 255
208 228 255
208 228 255
208 228 255
208 228 255
208 228 255
208 228 255
208 228 255
208 228 255
208 228 255
208 228 255
208 228 255
208 228 255
207 228 255
207 228 255
207 228 255
207 228 255
207 228 255
207 228 255
207 228 255
207 228 255
207 228 255
207 228 255
207 228 255
207 228 255
207 228 255
207 228 255
207 227 255
207 227 255
207 227 255
207 227 255
206 227 255
206 227 255
206 227 255
206 227 255
206 227 255
206 227 255
206 227 255
206 227 255
206 227 255
206 227 255
206 227 255
206 227 255
206 227 255
206 227 255
206 227 255
206 227 255
206 227 255
206 227 255
205 227 255
205 227 255
205 227 255
205 227 255
205 227 255
205 227 255
205 227 255
205 227 255
205 227 255
205 227 255
205 226 255
205 226 255
205 226 255
205 226 255
205 226 255
205 226 255
204 226 255
204 226 255
204 226 255
204 226 255
204 226 255
204 226 255
204 226 255
204 226 255
204 226 255
204 226 255
204 226 255
204 226 255
204 226 255
204 226 255
204 226 255
204 226 255
203 226 255
203 226 255
203 226 255
203 226 255
203 226 255
203 226 255
203 226 255
203 225 255
203 225 255
203 225 255
203 225 255
203 225 255
203 225 255
203 225 255
203 225 255
203 225 255
203 225 255
202 225 255
202 225 255
202 225 255
202 225 255
202 225 255
202 225 255
202 225 255
202 225 255
202 225 255
202 225 255
202 225 255
202 225 255
202 225 255
202 225 255
202 225 255
202 225 255
202 225 255
202 225 255
201 225 255
201 225 255
201 225 255
201 225 255
201 225 255
201 224 255
201 224 255
201 224 255
201 224 255
201 224 255
201 224 255
201 224 255
201 224 255
201 224 255
201 224 255
201 224 255
201 224 255
201 224 255
201 224 255
201 224 255
201 224 255
201 224 255
201 224 255
201 224 255
200 224 255
200 224 255
200 224 255
200 224 255
200 224 255
200 224 255
200 224 255
200 224 255
200 224 255
200 224 255
200 224 255
200 224 255
200 224 255
200 224 255
200 224 255
200 224 255
200 224 255
200 224 255
200 224 255
200 224 255
200 224 255
200 224 255
200 224 255
200 224 255
200 224 255
200 224 255
200 224 255
200 224 255
200 224 255
200 224 255
200 224 255
200 224 255
200 224 255
200 224 255
200 224 255
200 224 255
200 224 255
200 224 255
200 224 255
200 224 255
200 224 255
200 224 255
200 224 255
200 224 255
200 224 255
200 224 255
200 224 255
200 224 255
200 224 255
200 224 255
200 224 255
200 224 255
201 224 255
201 224 255
201 224 255
201 224 255
201 224 255
201 224 255
201 224 255
201 224 255
201 224 255
201 224 255
201 224 255
201 224 255
201 224 255
201 224 255
201 224 255
201 224 255
201 224 255
201 224 255
201 225 255
201 225 255
201 225 255
201 225 255
201 225 255
201 225 255
202 225 255
202 225 255
202 225 255
202 225 255
202 225 255
202 225 255
202 225 255
202 225 255
202 225 255
202 225 255
202 225 255
202 225 255
202 225 255
202 225 255
202 225 255
202 225 255
202 225 255
202 225 255
202 225 255
203 225 255
203 225 255
203 225 255
203 225 255
203 225 255
203 225 255
203 225 255
203 225 255
203 225 255
203 226 255
203 226 255
203 226 255
203 226 255
203 226 255
203 226 255
203 226 255
204 226 255
204 226 255
204 226 255
204 226 255
204 226 255
204 226 255
204 226 255
204 226 255
204 226 255
204 226 255
204 226 255
204 226 255
204 226 255
204 226 255
204 226 255
204 226 255
205 226 255
205 226 255
205 226 255
205 226 255
205 226 255
205 226 255
205 227 255
205 227 255
205 227 255
205 227 255
205 227 255
205 227 255
205 227 255
205 227 255
205 227 255
205 227 255
206 227 255
206 227 255
206 227 255
206 227 255
206 227 255
206 227 255
206 227 255
206 227 255
206 227 255
206 227 255
206 227 255
206 227 255
206 227 255
206 227 255
206 227 255
206 227 255
206 227 255
207 227 255
207 227 255
207 227 255
207 227 255
207 227 255
207 228 255
207 228 255
207 228 255
207 228 255
207 228 255
207 228 255
207 228 255
207 228 255
207 228 255
207 228 255
207 228 255
207 228 255
207 228 255
207 228 255
208 228 255
208 228 255
208 228 255
208 228 255
208 228 255
208 228 255
208 228 255
208 228 255
208 228 255
208 228 255
208 228 255
208 228 255
208 228 255
208 228 255
208 228 255
208 228 255
208 228 255
208 228 255
208 228 255
208 228 255
209 228 255
209 229 255
209 229 255
209 229 255
209 229 255
209 229 255
209 229 255
209 229 255
209 229 255
209 229 255
209 229 255
209 229 255
209 229 255
209 229 255
209 229 255
209 229 255
209 229 255
209 229 255
209 229 255
209 229 255
209 229 255
209 229 255
210 229 255
210 229 255
210 229 255
210 229 255
210 229 255
210 229 255
210 229 255
210 229 255
210 229 255
210 229 255
210 229 255
210 229 255
210 229 255
209 229 255
209 229 255
209 229 255
209 229 255
209 229 255
209 229 255
209 229 255
209 229 255
209 229 255
209 229 255
209 229 255
209 229 255
209 229 255
209 229 255
209 229 255
209 229 255
209 229 255
209 229 255
209 229 255
209 229 255
209 229 255
209 228 255
209 228 255
208 228 255
208 228 255
208 228 255
208 228 255
208 228 255
208 228 255
208 228 255
208 228 255
208 228 255
208 228 255
208 228 255
208 228 255
208 228 255
208 228 255
208 228 255
208 228 255
208 228 255
208 228 255
208 228 255
208 228 255
207 228 255
207 228 255
207 228 255
207 228 255
207 228 255
207 228 255
207 228 255
207 228 255
207 228 255
207 228 255
207 228 255
207 228 255
207 228 255
207 227 255
207 227 255
207 227 255
207 227 255
207 227 255
206 227 255
206 227 255
206 227 255
206 227 255
206 227 255
206 227 255
206 227 255
206 227 255
206 227 255
206 227 255
206 227 255
206 227 255
206 227 255
206 227 255
206 227 255
206 227 255
206 227 255
205 227 255
205 227 255
205 227 255
205 227 255
205 227 255
205 227 255
205 227 255
205 227 255
205 227 255
205 227 255
205 226 255
205 226 255
205 226 255
205 226 255
205 226 255
205 226 255
204 226 255
204 226 255
204 226 255
204 226 255
204 226 255
204 226 255
204 226 255
204 226 255
204 226 255
204 226 255
204 226 255
204 226 255
204 226 255
204 226 255
204 226 255
204 226 255
203 226 255
203 226 255
203 226 255
203 226 255
203 226 255
203 226 255
203 226 255
203 226 255
203 225 255
203 225 255
203 225 255
203 225 255
203 225 255
203 225 255
203 225 255
203 225 255
203 225 255
202 225 255
202 225 255
202 225 255
202 225 255
202 225 255
202 225 255
202 225 255
202 225 255
202 225 255
202 225 255
202 225 255
202 225 255
202 225 255
202 225 255
202 225 255
202 225 255
202 225 255
202 225 255
202 225 255
201 225 255
201 225 255
201 225 255
201 225 255
201 225 255
201 225 255
201 224 255
201 224 255
201 224 255
201 224 255
201 224 255
201 224 255
201 224 255
201 224 255
201 224 255
201 224 255
201 224 255
201 224 255
201 224 255
201 224 255
201 224 255
201 224 255
201 224 255
201 224 255
201 224 255
201 224 255
201 224 255
201 224 255
200 224 255
200 224 255
200 224 255
200 224 255
200 224 255
200 224 255
200 224 255
200 224 255
200 224 255
200 224 255
200 224 255
200 224 255
200 224 255
200 224 255
200 224 255
200 224 255
200 224 255
200 224 255
200 224 255
200 224 255
200 224 255
200 224 255
200 224 255
200 224 255
200 224 255
200 224 255
200 224 255
200 224 255
200 224 255
200 224 255
200 224 255
200 224 255
200 224 255
200 224 255
200 224 255
200 224 255
201 224 255
201 224 255
201 224 255
201 224 255
201 224 255
201 224 255
201 224 255
201 224 255
201 224 255
201 224 255
201 224 255
201 224 255
201 224 255
201 224 255
201 224 255
201 224 255
201 224 255
201 224 255
201 224 255
201 224 255
201 224 255
201 224 255
201 225 255
201 225 255
201 225 255
201 225 255
201 225 255
201 225 255
202 225 255
202 225 255
202 225 255
202 225 255
202 225 255
202 225 255
202 225 255
202 225 255
202 225 255
202 225 255
202 225 255
202 225 255
202 225 255
202 225 255
202 225 255
202 225 255
202 225 255
202 225 255
202 225 255
203 225 255
203 225 255
203 225 255
203 225 255
203 225 255
203 225 255
203 225 255
203 225 255
203 225 255
203 225 255
203 226 255
203 226 255
203 226 255
203 226 255
203 226 255
203 226 255
203 226 255
204 226 255
204 226 255
204 226 255
204 226 255
204 226 255
204 226 255
204 226 255
204 226 255
204 226 255
204 226 255
204 226 255
204 226 255
204 226 255
204 226 255
204 226 255
204 226 255
205 226 255
205 226 255
205 226 255
205 226 255
205 226 255
205 226 255
205 227 255
205 227 255
205 227 255
205 227 255
205 227 255
205 227 255
205 227 255
205 227 255
205 227 255
205 227 255
206 227 255
206 227 255
206 227 255
206 227 255
206 227 255
206 227 255
206 227 255
206 227 255
206 227 255
206 227 255
206 227 255
206 227 255
206 227 255
206 227 255
206 227 255
206 227 255
206 227 255
207 227 255
207 227 255
207 227 255
207 227 255
207 227 255
207 228 255
207 228 255
207 228 255
207 228 255
207 228 255
207 228 255
207 228 255
207 228 255
207 228 255
207 228 255
207 228 255
207 228 255
207 228 255
208 228 255
208 228 255
208 228 255
208 228 255
208 228 255
208 228 255
208 228 255
208 228 255
208 228 255
208 228 255
208 228 255
208 228 255
208 228 255
208 228 255
208 228 255
208 228 255
208 228 255
208 228 255
208 228 255
208 228 255
209 228 255
209 228 255
209 229 255
209 229 255
209 229 255
209 229 255
209 229 255
209 229 255
209 229 255
209 229 255
209 229 255
209 229 255
209 229 255
209 229 255
209 229 255
209 229 255
209 229 255
209 229 255
209 229 255
209 229 255
209 229 255
209 229 255
210 229 255
210 229 255
210 229 255
210 229 255
210 229 255
210 229 255
210 229 255
210 229 255
210 229 255
210 229 255
210 229 255
210 229 255
210 229 255
210 229 255
210 229 255
210 229 255
210 229 255
210 229 255
210 229 255
210 229 255
210 229 255
209 229 255
209 229 255
209 229 255
209 229 255
209 229 255
209 229 255
209 229 255
209 229 255
209 229 255
209 229 255
209 229 255
209 229 255
209 229 255
209 229 255
209 229 255
209 229 255
209 229 255
209 229 255
209 229 255
209 229 255
209 229 255
209 228 255
208 228 255
208 228 255
208 228 255
208 228 255
208 228 255
208 228 255
208 228 255
208 228 255
208 228 255
208 228 255
208 228 255
208 228 255
208 228 255
208 228 255
208 228 255
208 228 255
208 228 255
208 228 255
208 228 255
208 228 255
207 228 255
207 228 255
207 228 255
207 228 255
207 228 255
207 228 255
207 228 255
207 228 255
207 228 255
207 228 255
207 228 255
207 228 255
207 228 255
207 228 255
207 227 255
207 227 255
207 227 255
207 227 255
206 227 255
206 227 255
206 227 255
206 227 255
206 227 255
206 227 255
206 227 255
206 227 255
206 227 255
206 227 255
206 227 255
206 227 255
206 227 255
206 227 255
206 227 255
206 227 255
206 227 255
205 227 255
205 227 255
205 227 255
205 227 255
205 227 255
205 227 255
205 227 255
205 227 255
205 227 255
205 227 255
205 226 255
205 226 255
205 226 255
205 226 255
205 226 255
205 226 255
204 226 255
204 226 255
204 226 255
204 226 255
204 226 255
204 226 255
204 226 255
204 226 255
204 226 255
204 226 255
204 226 255
204 226 255
204 226 255
204 226 255
204 226 255
204 226 255
204 226 255
203 226 255
203 226 255
203 226 255
203 226 255
203 226 255
203 226 255
203 226 255
203 225 255
203 225 255
203 225 255
203 225 255
203 225 255
203 225 255
203 225 255
203 225 255
203 225 255
203 225 255
202 225 255
202 225 255
202 225 255
202 225 255
202 225 255
202 225 255
202 225 255
202 225 255
202 225 255
202 225 255
202 225 255
202 225 255
202 225 255
202 225 255
202 225 255
202 225 255
202 225 255
202 225 255
202 225 255
201 225 255
201 225 255
201 225 255
201 225 255
201 225 255
201 225 255
201 225 255
201 225 255
201 224 255
201 224 255
201 224 255
201 224 255
201 224 255
201 224 255
201 224 255
201 224 255
201 224 255
201 224 255
201 224 255
201 224 255
201 224 255
201 224 255
201 224 255
201 224 255
201 224 255
201 224 255
201 224 255
201 224 255
201 224 255
201 224 255
201 224 255
201 224 255
201 224 255
201 224 255
201 224 255
201 224 255
201 224 255
201 224 255
201 224 255
201 224 255
201 224 255
201 224 255
201 224 255
201 224 255
201 224 255
201 224 255
201 224 255
201 224 255
201 224 255
201 224 255
201 224 255
201 224 255
201 224 255
201 224 255
201 224 255
201 224 255
201 224 255
201 224 255
201 224 255
201 224 255
201 224 255
201 224 255
201 224 255
201 224 255
201 224 255
201 224 255
201 224 255
201 224 255
201 224 255
201 224 255
201 224 255
201 224 255
201 224 255
201 224 255
201 224 255
201 224 255
201 225 255
201 225 255
201 225 255
201 225 255
201 225 255
201 225 255
201 225 255
201 225 255
202 225 255
202 225 255
202 225 255
202 225 255
202 225 255
202 225 255
202 225 255
202 225 255
202 225 255
202 225 255
202 225 255
202 225 255
202 225 255
202 225 255
202 225 255
202 225 255
202 225 255
202 225 255
202 225 255
203 225 255
203 225 255
203 225 255
203 225 255
203 225 255
203 225 255
203 225 255
203 225 255
203 225 255
203 225 255
203 226 255
203 226 255
203 226 255
203 226 255
203 226 255
203 226 255
203 226 255
204 226 255
204 226 255
204 226 255
204 226 255
204 226 255
204 226 255
204 226 255
204 226 255
204 226 255
204 226 255
204 226 255
204 226 255
204 226 255
204 226 255
204 226 255
204 226 255
204 226 255
205 226 255
205 226 255
205 226 255
205 226 255
205 226 255
205 226 255
205 227 255
205 227 255
205 227 255
205 227 255
205 227 255
205 227 255
205 227 255
205 227 255
205 227 255
205 227 255
206 227 255
206 227 255
206 227 255
206 227 255
206 227 255
206 227 255
206 227 255
206 227 255
206 227 255
206 227 255
206 227 255
206 227 255
206 227 255
206 227 255
206 227 255
206 227 255
206 227 255
207 227 255
207 227 255
207 227 255
207 227 255
207 228 255
207 228 255
207 228 255
207 228 255
207 228 255
207 228 255
207 228 255
207 228 255
207 228 255
207 228 255
207 228 255
207 228 255
207 228 255
207 228 255
208 228 255
208 228 255
208 228 255
208 228 255
208 228 255
208 228 255
208 228 255
208 228 255
208 228 255
208 228 255
208 228 255
208 228 255
208 228 255
208 228 255
208 228 255
208 228 255
208 228 255
208 228 255
208 228 255
208 228 255
209 228 255
209 229 255
209 229 255
209 229 255
209 229 255
209 229 255
209 229 255
209 229 255
209 229 255
209 229 255
209 229 255
209 229 255
209 229 255
209 229 255
209 229 255
209 229 255
209 229 255
209 229 255
209 229 255
209 229 255
209 229 255
209 229 255
210 229 255
210 229 255
210 229 255
210 229 255
210 229 255
210 229 255
210 229 255
210 229 255
210 229 255
210 229 255
210 229 255
210 229 255
210 229 255
210 229 255
210 229 255
210 229 255
210 229 255
210 229 255
210 229 255
210 229 255
210 229 255
210 229 255
210 229 255
210 229 255
210 229 255
210 229 255
210 229 255
210 229 255
209 229 255
209 229 255
209 229 255
209 229 255
209 229 255
209 229 255
209 229 255
209 229 255
209 229 255
209 229 255
209 229 255
209 229 255
209 229 255
209 229 255
209 229 255
209 229 255
209 229 255
209 229 255
209 229 255
209 229 255
209 228 255
208 228 255
208 228 255
208 228 255
208 228 255
208 228 255
208 228 255
208 228 255
208 228 255
208 228 255
208 228 255
208 228 255
208 228 255
208 228 255
208 228 255
208 228 255
208 228 255
208 228 255
208 228 255
208 228 255
208 228 255
207 228 255
207 228 255
207 228 255
207 228 255
207 228 255
207 228 255
207 228 255
207 228 255
207 228 255
207 228 255
207 228 255
207 228 255
207 228 255
207 228 255
207 227 255
207 227 255
207 227 255
207 227 255
206 227 255
206 227 255
206 227 255
206 227 255
206 227 255
206 227 255
206 227 255
206 227 255
206 227 255
206 227 255
206 227 255
206 227 255
206 227 255
206 227 255
206 227 255
206 227 255
206 227 255
206 227 255
205 227 255
205 227 255
205 227 255
205 227 255
205 227 255
205 227 255
205 227 255
205 227 255
205 227 255
205 226 255
205 226 255
205 226 255
205 226 255
205 226 255
205 226 255
205 226 255
204 226 255
204 226 255
204 226 255
204 226 255
204 226 255
204 226 255
204 226 255
204 226 255
204 226 255
204 226 255
204 226 255
204 226 255
204 226 255
204 226 255
204 226 255
204 226 255
203 226 255
203 226 255
203 226 255
203 226 255
203 226 255
203 226 255
203 226 255
203 226 255
203 225 255
203 225 255
203 225 255
203 225 255
203 225 255
203 225 255
203 225 255
203 225 255
203 225 255
203 225 255
202 225 255
202 225 255
202 225 255
202 225 255
202 225 255
202 225 255
202 225 255
202 225 255
202 225 255
202 225 255
202 225 255
202 225 255
202 225 255
202 225 255
202 225 255
202 225 255
202 225 255
202 225 255
202 225 255
202 225 255
202 225 255
201 225 255
201 225 255
201 225 255
201 225 255
201 225 255
201 225 255
201 225 255
201 225 255
201 224 255
201 224 255
201 224 255
201 224 255
201 224 255
201 224 255
201 224 255
201 224 255
201 224 255
201 224 255
201 224 255
201 224 255
201 224 255
201 224 255
201 224 255
201 224 255
201 224 255
201 224 255
201 224 255
201 224 255
201 224 255
201 224 255
201 224 255
201 224 255
201 224 255
201 224 255
201 224 255
201 224 255
201 224 255
201 224 255
201 224 255
201 224 255
201 224 255
201 224 255
201 224 255
201 224 255
201 224 255
201 224 255
201 224 255
201 224 255
201 224 255
201 224 255
201 224 255
201 224 255
201 224 255
201 224 255
201 224 255
201 224 255
201 224 255
201 224 255
201 224 255
201 224 255
201 224 255
201 224 255
201 224 255
201 224 255
201 225 255
201 225 255
201 225 255
201 225 255
201 225 255
201 225 255
201 225 255
201 225 255
202 225 255
202 225 255
202 225 255
202 225 255
202 225 255
202 225 255
202 225 255
202 225 255
202 225 255
202 225 255
202 225 255
202 225 255
202 225 255
202 225 255
202 225 255
202 225 255
202 225 255
202 225 255
202 225 255
202 225 255
202 225 255
203 225 255
203 225 255
203 225 255
203 225 255
203 225 255
203 225 255
203 225 255
203 225 255
203 225 255
203 225 255
203 226 255
203 226 255
203 226 255
203 226 255
203 226 255
203 226 255
203 226 255
203 226 255
204 226 255
204 226 255
204 226 255
204 226 255
204 226 255
204 226 255
204 226 255
204 226 255
204 226 255
204 226 255
204 226 255
204 226 255
204 226 255
204 226 255
204 226 255
204 226 255
205 226 255
205 226 255
205 226 255
205 226 255
205 226 255
205 226 255
205 226 255
205 227 255
205 227 255
205 227 255
205 227 255
205 227 255
205 227 255
205 227 255
205 227 255
205 227 255
205 227 255
206 227 255
206 227 255
206 227 255
206 227 255
206 227 255
206 227 255
206 227 255
206 227 255
206 227 255
206 227 255
206 227 255
206 227 255
206 227 255
206 227 255
206 227 255
206 227 255
206 227 255
207 227 255
207 227 255
207 227 255
207 227 255
207 228 255
207 228 255
207 228 255
207 228 255
207 228 255
207 228 255
207 228 255
207 228 255
207 228 255
207 228 255
207 228 255
207 228 255
207 228 255
207 228 255
208 228 255
208 228 255
208 228 255
208 228 255
208 228 255
208 228 255
208 228 255
208 228 255
208 228 255
208 228 255
208 228 255
208 228 255
208 228 255
208 228 255
208 228 255
208 228 255
208 228 255
208 228 255
208 228 255
208 228 255
209 228 255
209 229 255
209 229 255
209 229 255
209 229 255
209 229 255
209 229 255
209 229 255
209 229 255
209 229 255
209 229 255
209 229 255
209 229 255
209 229 255
209 229 255
209 229 255
209 229 255
209 229 255
209 229 255
209 229 255
209 229 255
210 229 255
210 229 255
210 229 255
210 229 255
210 229 255
210 229 255
210 229 255
210 229 255
210 229 255
210 229 255
210 229 255
210 229 255
210 229 255
210 229 255
210 229 255
210 229 255
210 229 255
210 229 255
210 229 255
210 229 255
210 229 255
210 229 255
210 229 255
210 229 255
210 229 255
210 229 255
210 229 255
210 229 255
210 229 255
210 229 255
210 229 255
210 229 255
210 229 255
210 229 255
210 229 255
209 229 255
209 229 255
209 229 255
209 229 255
209 229 255
209 229 255
209 229 255
209 229 255
209 229 255
209 229 255
209 229 255
209 229 255
209 229 255
209 229 255
209 229 255
209 229 255
209 229 255
209 229 255
209 229 255
209 229 255
209 229 255
209 228 255
208 228 255
208 228 255
208 228 255
208 228 255
208 228 255
208 228 255
208 228 255
208 228 255
208 228 255
208 228 255
208 228 255
208 228 255
208 228 255
208 228 255
208 228 255
208 228 255
208 228 255
208 228 255
208 228 255
208 228 255
207 228 255
207 228 255
207 228 255
207 228 255
207 228 255
207 228 255
207 228 255
207 228 255
207 228 255
207 228 255
207 228 255
207 228 255
207 228 255
207 227 255
207 227 255
207 227 255
207 227 255
207 227 255
206 227 255
206 227 255
206 227 255
206 227 255
206 227 255
206 227 255
206 227 255
206 227 255
206 227 255
206 227 255
206 227 255
206 227 255
206 227 255
206 227 255
206 227 255
206 227 255
205 227 255
205 227 255
205 227 255
205 227 255
205 227 255
205 227 255
205 227 255
205 227 255
205 227 255
205 227 255
205 226 255
205 226 255
205 226 255
205 226 255
205 226 255
205 226 255
205 226 255
204 226 255
204 226 255
204 226 255
204 226 255
204 226 255
204 226 255
204 226 255
204 226 255
204 226 255
204 226 255
204 226 255
204 226 255
204 226 255
204 226 255
204 226 255
204 226 255
203 226 255
203 226 255
203 226 255
203 226 255
203 226 255
203 226 255
203 226 255
203 226 255
203 225 255
203 225 255
203 225 255
203 225 255
203 225 255
203 225 255
203 225 255
203 225 255
203 225 255
203 225 255
202 225 255
202 225 255
202 225 255
202 225 255
202 225 255
202 225 255
202 225 255
202 225 255
202 225 255
202 225 255
202 225 255
202 225 255
202 225 255
202 225 255
202 225 255
202 225 255
202 225 255
202 225 255
202 225 255
202 225 255
202 225 255
202 225 255
202 225 255
201 225 255
201 225 255
201 225 255
201 225 255
201 225 255
201 225 255
201 225 255
201 225 255
201 225 255
201 225 255
201 225 255
201 224 255
201 224 255
201 224 255
201 224 255
201 224 255
201 224 255
201 224 255
201 224 255
201 224 255
201 224 255
201 224 255
201 224 255
201 224 255
201 224 255
201 224 255
201 224 255
201 224 255
201 224 255
201 224 255
201 224 255
201 224 255
201 224 255
201 224 255
201 224 255
201 224 255
201 224 255
201 224 255
201 224 255
201 224 255
201 224 255
201 224 255
201 224 255
201 224 255
201 224 255
201 224 255
201 224 255
201 224 255
201 224 255
201 224 255
201 224 255
201 225 255
201 225 255
201 225 255
201 225 255
201 225 255
201 225 255
201 225 255
201 225 255
201 225 255
201 225 255
202 225 255
202 225 255
202 225 255
202 225 255
202 225 255
202 225 255
202 225 255
202 225 255
202 225 255
202 225 255
202 225 255
202 225 255
202 225 255
202 225 255
202 225 255
202 225 255
202 225 255
202 225 255
202 225 255
202 225 255
202 225 255
202 225 255
202 225 255
203 225 255
203 225 255
203 225 255
203 225 255
203 225 255
203 225 255
203 225 255
203 225 255
203 225 255
203 225 255
203 226 255
203 226 255
203 226 255
203 226 255
203 226 255
203 226 255
203 226 255
203 226 255
204 226 255
204 226 255
204 226 255
204 226 255
204 226 255
204 226 255
204 226 255
204 226 255
204 226 255
204 226 255
204 226 255
204 226 255
204 226 255
204 226 255
204 226 255
204 226 255
204 226 255
205 226 255
205 226 255
205 226 255
205 226 255
205 226 255
205 226 255
205 226 255
205 227 255
205 227 255
205 227 255
205 227 255
205 227 255
205 227 255
205 227 255
205 227 255
205 227 255
206 227 255
206 227 255
206 227 255
206 227 255
206 227 255
206 227 255
206 227 255
206 227 255
206 227 255
206 227 255
206 227 255
206 227 255
206 227 255
206 227 255
206 227 255
206 227 255
206 227 255
206 227 255
207 227 255
207 227 255
207 227 255
207 227 255
207 228 255
207 228 255
207 228 255
207 228 255
207 228 255
207 228 255
207 228 255
207 228 255
207 228 255
207 228 255
207 228 255
207 228 255
207 228 255
207 228 255
208 228 255
208 228 255
208 228 255
208 228 255
208 228 255
208 228 255
208 228 255
208 228 255
208 228 255
208 228 255
208 228 255
208 228 255
208 228 255
208 228 255
208 228 255
208 228 255
208 228 255
208 228 255
208 228 255
209 228 255
209 229 255
209 229 255
209 229 255
209 229 255
209 229 255
209 229 255
209 229 255
209 229 255
209 229 255
209 229 255
209 229 255
209 229 255
209 229 255
209 229 255
209 229 255
209 229 255
209 229 255
209 229 255
209 229 255
209 229 255
209 229 255
210 229 255
210 229 255
210 229 255
210 229 255
210 229 255
210 229 255
210 229 255
210 229 255
210 229 255
210 229 255
210 229 255
210 229 255
210 229 255
210 229 255
210 229 255
210 229 255
210 229 255
210 229 255
210 229 255
210 230 255
210 229 255
210 229 255
210 229 255
210 229 255
210 229 255
210 229 255
210 229 255
210 229 255
210 229 255
210 229 255
210 229 255
210 229 255
210 229 255
210 229 255
210 229 255
210 229 255
210 229 255
210 229 255
210 229 255
210 229 255
210 229 255
210 229 255
209 229 255
209 229 255
209 229 255
209 229 255
209 229 255
209 229 255
209 229 255
209 229 255
209 229 255
209 229 255
209 229 255
209 229 255
209 229 255
209 229 255
209 229 255
209 229 255
209 229 255
209 229 255
209 229 255
209 229 255
209 228 255
208 228 255
208 228 255
208 228 255
208 228 255
208 228 255
208 228 255
208 228 255
208 228 255
208 228 255
208 228 255
208 228 255
208 228 255
208 228 255
208 228 255
208 228 255
208 228 255
208 228 255
208 228 255
208 228 255
208 228 255
207 228 255
207 228 255
207 228 255
207 228 255
207 228 255
207 228 255
207 228 255
207 228 255
207 228 255
207 228 255
207 228 255
207 228 255
207 228 255
207 227 255
207 227 255
207 227 255
207 227 255
207 227 255
206 227 255
206 227 255
206 227 255
206 227 255
206 227 255
206 227 255
206 227 255
206 227 255
206 227 255
206 227 255
206 227 255
206 227 255
206 227 255
206 227 255
206 227 255
206 227 255
206 227 255
205 227 255
205 227 255
205 227 255
205 227 255
205 227 255
205 227 255
205 227 255
205 227 255
205 227 255
205 227 255
205 226 255
205 226 255
205 226 255
205 226 255
205 226 255
205 226 255
204 226 255
204 226 255
204 226 255
204 226 255
204 226 255
204 226 255
204 226 255
204 226 255
204 226 255
204 226 255
204 226 255
204 226 255
204 226 255
204 226 255
204 226 255
204 226 255
204 226 255
203 226 255
203 226 255
203 226 255
203 226 255
203 226 255
203 226 255
203 226 255
203 226 255
203 225 255
203 225 255
203 225 255
203 225 255
203 225 255
203 225 255
203 225 255
203 225 255
203 225 255
203 225 255
203 225 255
202 225 255
202 225 255
202 225 255
202 225 255
202 225 255
202 225 255
202 225 255
202 225 255
202 225 255
202 225 255
202 225 255
202 225 255
202 225 255
202 225 255
202 225 255
202 225 255
202 225 255
202 225 255
202 225 255
202 225 255
202 225 255
202 225 255
202 225 255
202 225 255
202 225 255
202 225 255
201 225 255
201 225 255
201 225 255
201 225 255
201 225 255
201 225 255
201 225 255
201 225 255
201 225 255
201 225 255
201 225 255
201 225 255
201 225 255
201 225 255
201 225 255
201 225 255
201 225 255
201 225 255
201 225 255
201 224 255
201 224 255
201 224 255
201 224 255
201 224 255
201 224 255
201 224 255
201 224 255
201 224 255
201 225 255
201 225 255
201 225 255
201 225 255
201 225 255
201 225 255
201 225 255
201 225 255
201 225 255
201 225 255
201 225 255
201 225 255
201 225 255
201 225 255
201 225 255
201 225 255
201 225 255
201 225 255
202 225 255
202 225 255
202 225 255
202 225 255
202 225 255
202 225 255
202 225 255
202 225 255
202 225 255
202 225 255
202 225 255
202 225 255
202 225 255
202 225 255
202 225 255
202 225 255
202 225 255
202 225 255
202 225 255
202 225 255
202 225 255
202 225 255
202 225 255
202 225 255
202 225 255
202 225 255
203 225 255
203 225 255
203 225 255
203 225 255
203 225 255
203 225 255
203 225 255
203 225 255
203 225 255
203 225 255
203 225 255
203 226 255
203 226 255
203 226 255
203 226 255
203 226 255
203 226 255
203 226 255
203 226 255
204 226 255
204 226 255
204 226 255
204 226 255
204 226 255
204 226 255
204 226 255
204 226 255
204 226 255
204 226 255
204 226 255
204 226 255
204 226 255
204 226 255
204 226 255
204 226 255
204 226 255
205 226 255
205 226 255
205 226 255
205 226 255
205 226 255
205 226 255
205 227 255
205 227 255
205 227 255
205 227 255
205 227 255
205 227 255
205 227 255
205 227 255
205 227 255
205 227 255
206 227 255
206 227 255
206 227 255
206 227 255
206 227 255
206 227 255
206 227 255
206 227 255
206 227 255
206 227 255
206 227 255
206 227 255
206 227 255
206 227 255
206 227 255
206 227 255
206 227 255
207 227 255
207 227 255
207 227 255
207 227 255
207 228 255
207 228 255
207 228 255
207 228 255
207 228 255
207 228 255
207 228 255
207 228 255
207 228 255
207 228 255
207 228 255
207 228 255
207 228 255
207 228 255
208 228 255
208 228 255
208 228 255
208 228 255
208 228 255
208 228 255
208 228 255
208 228 255
208 228 255
208 228 255
208 228 255
208 228 255
208 228 255
208 228 255
208 228 255
208 228 255
208 228 255
208 228 255
208 228 255
209 228 255
209 228 255
209 229 255
209 229 255
209 229 255
209 229 255
209 229 255
209 229 255
209 229 255
209 229 255
209 229 255
209 229 255
209 229 255
209 229 255
209 229 255
209 229 255
209 229 255
209 229 255
209 229 255
209 229 255
209 229 255
209 229 255
210 229 255
210 229 255
210 229 255
210 229 255
210 229 255
210 229 255
210 229 255
210 229 255
210 229 255
210 229 255
210 229 255
210 229 255
210 229 255
210 229 255
210 229 255
210 229 255
210 229 255
210 229 255
210 229 255
210 229 255
210 229 255
210 229 255
210 230 255
211 230 255
211 230 255
210 230 255
210 230 255
210 230 255
210 229 255
210 229 255
210 229 255
210 229 255
210 229 255
210 229 255
210 229 255
210 229 255
210 229 255
210 229 255
210 229 255
210 229 255
210 229 255
210 229 255
210 229 255
210 229 255
210 229 255
210 229 255
210 229 255
210 229 255
210 229 255
209 229 255
209 229 255
209 229 255
209 229 255
209 229 255
209 229 255
209 229 255
209 229 255
209 229 255
209 229 255
209 229 255
209 229 255
209 229 255
209 229 255
209 229 255
209 229 255
209 229 255
209 229 255
209 229 255
209 229 255
209 229 255
209 228 255
208 228 255
208 228 255
208 228 255
208 228 255
208 228 255
208 228 255
208 228 255
208 228 255
208 228 255
208 228 255
208 228 255
208 228 255
208 228 255
208 228 255
208 228 255
208 228 255
208 228 255
208 228 255
208 228 255
208 228 255
207 228 255
207 228 255
207 228 255
207 228 255
207 228 255
207 228 255
207 228 255
207 228 255
207 228 255
207 228 255
207 228 255
207 228 255
207 228 255
207 227 255
207 227 255
207 227 255
207 227 255
206 227 255
206 227 255
206 227 255
206 227 255
206 227 255
206 227 255
206 227 255
206 227 255
206 227 255
206 227 255
206 227 255
206 227 255
206 227 255
206 227 255
206 227 255
206 227 255
206 227 255
205 227 255
205 227 255
205 227 255
205 227 255
205 227 255
205 227 255
205 227 255
205 227 255
205 227 255
205 227 255
205 226 255
205 226 255
205 226 255
205 226 255
205 226 255
205 226 255
205 226 255
204 226 255
204 226 255
204 226 255
204 226 255
204 226 255
204 226 255
204 226 255
204 226 255
204 226 255
204 226 255
204 226 255
204 226 255
204 226 255
204 226 255
204 226 255
204 226 255
204 226 255
203 226 255
203 226 255
203 226 255
203 226 255
203 226 255
203 226 255
203 226 255
203 226 255
203 226 255
203 225 255
203 225 255
203 225 255
203 225 255
203 225 255
203 225 255
203 225 255
203 225 255
203 225 255
203 225 255
203 225 255
202 225 255
202 225 255
202 225 255
202 225 255
202 225 255
202 225 255
202 225 255
202 225 255
202 225 255
202 225 255
202 225 255
202 225 255
202 225 255
202 225 255
202 225 255
202 225 255
202 225 255
202 225 255
202 225 255
202 225 255
202 225 255
202 225 255
202 225 255
202 225 255
202 225 255
202 225 255
202 225 255
202 225 255
202 225 255
202 225 255
202 225 255
202 225 255
201 225 255
201 225 255
201 225 255
201 225 255
201 225 255
201 225 255
201 225 255
201 225 255
201 225 255
201 225 255
201 225 255
201 225 255
201 225 255
201 225 255
201 225 255
201 225 255
201 225 255
201 225 255
201 225 255
201 225 255
201 225 255
201 225 255
201 225 255
201 225 255
202 225 255
202 225 255
202 225 255
202 225 255
202 225 255
202 225 255
202 225 255
202 225 255
202 225 255
202 225 255
202 225 255
202 225 255
202 225 255
202 225 255
202 225 255
202 225 255
202 225 255
202 225 255
202 225 255
202 225 255
202 225 255
202 225 255
202 225 255
202 225 255
202 225 255
202 225 255
202 225 255
202 225 255
202 225 255
202 225 255
202 225 255
202 225 255
203 225 255
203 225 255
203 225 255
203 225 255
203 225 255
203 225 255
203 225 255
203 225 255
203 225 255
203 225 255
203 225 255
203 225 255
203 226 255
203 226 255
203 226 255
203 226 255
203 226 255
203 226 255
203 226 255
203 226 255
204 226 255
204 226 255
204 226 255
204 226 255
204 226 255
204 226 255
204 226 255
204 226 255
204 226 255
204 226 255
204 226 255
204 226 255
204 226 255
204 226 255
204 226 255
204 226 255
204 226 255
205 226 255
205 226 255
205 226 255
205 226 255
205 226 255
205 226 255
205 226 255
205 227 255
205 227 255
205 227 255
205 227 255
205 227 255
205 227 255
205 227 255
205 227 255
205 227 255
205 227 255
206 227 255
206 227 255
206 227 255
206 227 255
206 227 255
206 227 255
206 227 255
206 227 255
206 227 255
206 227 255
206 227 255
206 227 255
206 227 255
206 227 255
206 227 255
206 227 255
206 227 255
207 227 255
207 227 255
207 227 255
207 227 255
207 228 255
207 228 255
207 228 255
207 228 255
207 228 255
207 228 255
207 228 255
207 228 255
207 228 255
207 228 255
207 228 255
207 228 255
207 228 255
207 228 255
208 228 255
208 228 255
208 228 255
208 228 255
208 228 255
208 228 255
208 228 255
208 228 255
208 228 255
208 228 255
208 228 255
208 228 255
208 228 255
208 228 255
208 228 255
208 228 255
208 228 255
208 228 255
208 228 255
209 228 255
209 229 255
209 229 255
209 229 255
209 229 255
209 229 255
209 229 255
209 229 255
209 229 255
209 229 255
209 229 255
209 229 255
209 229 255
209 229 255
209 229 255
209 229 255
209 229 255
209 229 255
209 229 255
209 229 255
209 229 255
210 229 255
210 229 255
210 229 255
210 229 255
210 229 255
210 229 255
210 229 255
210 229 255
210 229 255
210 229 255
210 229 255
210 229 255
210 229 255
210 229 255
210 229 255
210 229 255
210 229 255
210 229 255
210 229 255
210 229 255
210 229 255
210 229 255
210 230 255
210 230 255
210 230 255
211 230 255
211 230 255
211 230 255
211 230 255
211 230 255
211 230 255
211 230 255
211 230 255
210 230 255
210 230 255
210 230 255
210 229 255
210 229 255
210 229 255
210 229 255
210 229 255
210 229 255
210 229 255
210 229 255
210 229 255
210 229 255
210 229 255
210 229 255
210 229 255
210 229 255
210 229 255
210 229 255
210 229 255
210 229 255
210 229 255
210 229 255
210 229 255
209 229 255
209 229 255
209 229 255
209 229 255
209 229 255
209 229 255
209 229 255
209 229 255
209 229 255
209 229 255
209 229 255
209 229 255
209 229 255
209 229 255
209 229 255
209 229 255
209 229 255
209 229 255
209 229 255
209 229 255
209 228 255
208 228 255
208 228 255
208 228 255
208 228 255
208 228 255
208 228 255
208 228 255
208 228 255
208 228 255
208 228 255
208 228 255
208 228 255
208 228 255
208 228 255
208 228 255
208 228 255
208 228 255
208 228 255
208 228 255
208 228 255
207 228 255
207 228 255
207 228 255
207 228 255
207 228 255
207 228 255
207 228 255
207 228 255
207 228 255
207 228 255
207 228 255
207 228 255
207 228 255
207 227 255
207 227 255
207 227 255
207 227 255
207 227 255
206 227 255
206 227 255
206 227 255
206 227 255
206 227 255
206 227 255
206 227 255
206 227 255
206 227 255
206 227 255
206 227 255
206 227 255
206 227 255
206 227 255
206 227 255
206 227 255
205 227 255
205 227 255
205 227 255
205 227 255
205 227 255
205 227 255
205 227 255
205 227 255
205 227 255
205 227 255
205 227 255
205 226 255
205 226 255
205 226 255
205 226 255
205 226 255
205 226 255
205 226 255
204 226 255
204 226 255
204 226 255
204 226 255
204 226 255
204 226 255
204 226 255
204 226 255
204 226 255
204 226 255
204 226 255
204 226 255
204 226 255
204 226 255
204 226 255
204 226 255
204 226 255
203 226 255
203 226 255
203 226 255
203 226 255
203 226 255
203 226 255
203 226 255
203 226 255
203 226 255
203 225 255
203 225 255
203 225 255
203 225 255
203 225 255
203 225 255
203 225 255
203 225 255
203 225 255
203 225 255
203 225 255
203 225 255
202 225 255
202 225 255
202 225 255
202 225 255
202 225 255
202 225 255
202 225 255
202 225 255
202 225 255
202 225 255
202 225 255
202 225 255
202 225 255
202 225 255
202 225 255
202 225 255
202 225 255
202 225 255
202 225 255
202 225 255
202 225 255
202 225 255
202 225 255
202 225 255
202 225 255
202 225 255
202 225 255
202 225 255
202 225 255
202 225 255
202 225 255
202 225 255
202 225 255
202 225 255
202 225 255
202 225 255
202 225 255
202 225 255
202 225 255
202 225 255
202 225 255
202 225 255
202 225 255
202 225 255
202 225 255
202 225 255
202 225 255
202 225 255
202 225 255
202 225 255
202 225 255
202 225 255
202 225 255
202 225 255
202 225 255
202 225 255
202 225 255
202 225 255
202 225 255
202 225 255
202 225 255
202 225 255
202 225 255
202 225 255
202 225 255
202 225 255
202 225 255
202 225 255
202 225 255
202 225 255
202 225 255
202 225 255
202 225 255
202 225 255
202 225 255
202 225 255
202 225 255
202 225 255
203 225 255
203 225 255
203 225 255
203 225 255
203 225 255
203 225 255
203 225 255
203 225 255
203 225 255
203 225 255
203 225 255
203 225 255
203 226 255
203 226 255
203 226 255
203 226 255
203 226 255
203 226 255
203 226 255
203 226 255
203 226 255
204 226 255
204 226 255
204 226 255
204 226 255
204 226 255
204 226 255
204 226 255
204 226 255
204 226 255
204 226 255
204 226 255
204 226 255
204 226 255
204 226 255
204 226 255
204 226 255
204 226 255
205 226 255
205 226 255
205 226 255
205 226 255
205 226 255
205 226 255
205 226 255
205 227 255
205 227 255
205 227 255
205 227 255
205 227 255
205 227 255
205 227 255
205 227 255
205 227 255
205 227 255
206 227 255
206 227 255
206 227 255
206 227 255
206 227 255
206 227 255
206 227 255
206 227 255
206 227 255
206 227 255
206 227 255
206 227 255
206 227 255
206 227 255
206 227 255
206 227 255
206 227 255
206 227 255
207 227 255
207 227 255
207 227 255
207 227 255
207 228 255
207 228 255
207 228 255
207 228 255
207 228 255
207 228 255
207 228 255
207 228 255
207 228 255
207 228 255
207 228 255
207 228 255
207 228 255
208 228 255
208 228 255
208 228 255
208 228 255
208 228 255
208 228 255
208 228 255
208 228 255
208 228 255
208 228 255
208 228 255
208 228 255
208 228 255
208 228 255
208 228 255
208 228 255
208 228 255
208 228 255
208 228 255
209 228 255
209 228 255
209 229 255
209 229 255
209 229 255
209 229 255
209 229 255
209 229 255
209 229 255
209 229 255
209 229 255
209 229 255
209 229 255
209 229 255
209 229 255
209 229 255
209 229 255
209 229 255
209 229 255
209 229 255
209 229 255
209 229 255
210 229 255
210 229 255
210 229 255
210 229 255
210 229 255
210 229 255
210 229 255
210 229 255
210 229 255
210 229 255
210 229 255
210 229 255
210 229 255
210 229 255
210 229 255
210 229 255
210 229 255
210 229 255
210 229 255
210 229 255
210 229 255
210 230 255
210 230 255
210 230 255
211 230 255
211 230 255
211 230 255
211 230 255
211 230 255
211 230 255
211 230 255
211 230 255
211 230 255
211 230 255
211 230 255
211 230 255
211 230 255
211 230 255
211 230 255
211 230 255
210 230 255
210 230 255
210 230 255
210 229 255
210 229 255
210 229 255
210 229 255
210 229 255
210 229 255
210 229 255
210 229 255
210 229 255
210 229 255
210 229 255
210 229 255
210 229 255
210 229 255
210 229 255
210 229 255
210 229 255
210 229 255
210 229 255
210 229 255
210 229 255
209 229 255
209 229 255
209 229 255
209 229 255
205 225 251
205 224 250
195 213 238
201 220 246
196 215 240
197 216 242
190 208 232
183 200 223
180 198 221
180 198 221
189 207 231
175 193 215
178 196 219
193 212 237
177 194 216
191 210 235
189 207 232
186 205 229
195 213 239
194 213 238
201 220 246
198 217 242
207 227 254
208 228 255
208 228 255
208 228 255
208 228 255
208 228 255
208 228 255
208 228 255
208 228 255
208 228 255
208 228 255
208 228 255
208 228 255
208 228 255
207 228 255
207 228 255
207 228 255
207 228 255
207 228 255
207 228 255
207 228 255
207 228 255
207 228 255
207 228 255
207 228 255
207 228 255
207 228 255
207 228 255
207 227 255
207 227 255
207 227 255
207 227 255
206 227 255
206 227 255
206 227 255
206 227 255
206 227 255
206 227 255
206 227 255
206 227 255
206 227 255
206 227 255
206 227 255
206 227 255
206 227 255
206 227 255
206 227 255
206 227 255
206 227 255
205 227 255
205 227 255
205 227 255
205 227 255
205 227 255
205 227 255
205 227 255
205 227 255
205 227 255
205 227 255
205 226 255
205 226 255
205 226 255
205 226 255
205 226 255
205 226 255
205 226 255
204 226 255
204 226 255
204 226 255
204 226 255
204 226 255
204 226 255
204 226 255
204 226 255
204 226 255
204 226 255
204 226 255
204 226 255
204 226 255
204 226 255
204 226 255
204 226 255
204 226 255
204 226 255
204 226 255
203 226 255
203 226 255
203 226 255
203 226 255
203 226 255
203 226 255
203 226 255
203 226 255
203 226 255
203 225 255
203 225 255
203 225 255
203 225 255
203 225 255
203 225 255
203 225 255
203 225 255
203 225 255
203 225 255
203 225 255
203 225 255
203 225 255
202 225 255
202 225 255
202 225 255
202 225 255
202 225 255
202 225 255
202 225 255
202 225 255
202 225 255
202 225 255
202 225 255
202 225 255
202 225 255
202 225 255
202 225 255
202 225 255
202 225 255
202 225 255
202 225 255
202 225 255
202 225 255
202 225 255
202 225 255
202 225 255
202 225 255
202 225 255
202 225 255
202 225 255
202 225 255
202 225 255
202 225 255
202 225 255
202 225 255
202 225 255
202 225 255
202 225 255
202 225 255
202 225 255
202 225 255
202 225 255
202 225 255
202 225 255
202 225 255
202 225 255
202 225 255
202 225 255
202 225 255
202 225 255
202 225 255
202 225 255
202 225 255
202 225 255
202 225 255
202 225 255
202 225 255
202 225 255
202 225 255
202 225 255
202 225 255
202 225 255
202 225 255
202 225 255
202 225 255
202 225 255
202 225 255
202 225 255
203 225 255
203 225 255
203 225 255
203 225 255
203 225 255
203 225 255
203 225 255
203 225 255
203 225 255
203 225 255
203 225 255
203 225 255
203 225 255
203 226 255
203 226 255
203 226 255
203 226 255
203 226 255
203 226 255
203 226 255
203 226 255
203 226 255
203 226 255
204 226 255
204 226 255
204 226 255
204 226 255
204 226 255
204 226 255
204 226 255
204 226 255
204 226 255
204 226 255
204 226 255
204 226 255
204 226 255
204 226 255
204 226 255
204 226 255
204 226 255
204 226 255
205 226 255
205 226 255
205 226 255
205 226 255
205 226 255
205 226 255
205 226 255
205 227 255
205 227 255
205 227 255
205 227 255
205 227 255
205 227 255
205 227 255
205 227 255
205 227 255
205 227 255
206 227 255
206 227 255
206 227 255
206 227 255
206 227 255
206 227 255
206 227 255
206 227 255
206 227 255
206 227 255
206 227 255
206 227 255
206 227 255
206 227 255
206 227 255
206 227 255
206 227 255
207 227 255
207 227 255
207 227 255
207 227 255
207 227 255
207 228 255
207 228 255
207 228 255
207 228 255
207 228 255
207 228 255
207 228 255
207 228 255
207 228 255
207 228 255
207 228 255
207 228 255
207 228 255
208 228 255
208 228 255
208 228 255
208 228 255
208 228 255
208 228 255
208 228 255
208 228 255
208 228 255
208 228 255
208 228 255
208 228 255
206 225 251
204 223 248
202 220 246
199 214 230
193 206 221
184 195 204
190 200 207
194 205 213
180 191 205
185 196 209
179 188 195
194 206 217
180 185 187
181 189 202
170 175 178
181 188 197
190 200 209
184 196 211
194 207 221
193 207 223
199 215 234
199 212 229
205 223 248
208 227 251
209 229 255
209 229 255
209 229 255
209 229 255
210 229 255
210 229 255
210 229 255
210 229 255
210 229 255
210 229 255
210 229 255
210 229 255
210 229 255
210 229 255
210 229 255
210 229 255
210 229 255
210 229 255
210 229 255
210 229 255
210 229 255
210 229 255
210 229 255
210 229 255
210 229 255
210 230 255
210 230 255
210 230 255
211 230 255
211 230 255
211 230 255
211 230 255
211 230 255
211 230 255
211 230 255
211 230 255
211 230 255
211 230 255
211 230 255
211 230 255
211 230 255
211 230 255
211 230 255
211 230 255
211 230 255
211 230 255
211 230 255
211 230 255
211 230 255
211 230 255
211 230 255
211 230 255
210 230 255
210 230 255
210 230 255
210 229 255
210 229 255
210 229 255
210 229 255
210 229 255
210 229 255
210 229 255
210 229 255
210 229 255
210 229 255
210 229 255
210 229 255
210 229 255
202 221 246
195 214 238
193 211 236
178 195 218
164 180 200
170 186 208
151 166 186
148 164 182
166 184 207
140 155 171
134 149 165
148 165 183
136 151 166
144 160 179
146 163 181
147 164 185
150 167 188
143 160 178
146 163 183
144 160 177
146 163 184
149 166 187
132 147 163
141 157 174
135 151 166
140 157 173
156 175 196
135 152 167
139 156 174
139 155 172
140 156 175
151 169 187
159 177 199
158 176 197
171 188 210
174 192 216
170 187 209
184 203 227
194 213 239
199 219 245
204 224 251
208 228 255
208 228 255
208 228 255
208 228 255
208 228 255
208 228 255
207 228 255
207 228 255
207 228 255
207 228 255
207 228 255
207 228 255
207 228 255
207 228 255
207 228 255
207 228 255
207 228 255
207 228 255
207 228 255
207 228 255
207 227 255
207 227 255
207 227 255
207 227 255
206 227 255
206 227 255
206 227 255
206 227 255
206 227 255
206 227 255
206 227 255
206 227 255
206 227 255
206 227 255
206 227 255
206 227 255
206 227 255
206 227 255
206 227 255
206 227 255
206 227 255
206 227 255
205 227 255
205 227 255
205 227 255
205 227 255
205 227 255
205 227 255
205 227 255
205 227 255
205 227 255
205 227 255
205 226 255
205 226 255
205 226 255
205 226 255
205 226 255
205 226 255
205 226 255
204 226 255
204 226 255
204 226 255
204 226 255
204 226 255
204 226 255
204 226 255
204 226 255
204 226 255
204 226 255
204 226 255
204 226 255
204 226 255
204 226 255
204 226 255
204 226 255
204 226 255
204 226 255
204 226 255
203 226 255
203 226 255
203 226 255
203 226 255
203 226 255
203 226 255
203 226 255
203 226 255
203 226 255
203 225 255
203 225 255
203 225 255
203 225 255
203 225 255
203 225 255
203 225 255
203 225 255
203 225 255
203 225 255
203 225 255
203 225 255
203 225 255
203 225 255
203 225 255
203 225 255
202 225 255
202 225 255
202 225 255
202 225 255
202 225 255
202 225 255
202 225 255
202 225 255
202 225 255
202 225 255
202 225 255
202 225 255
202 225 255
202 225 255
202 225 255
202 225 255
202 225 255
202 225 255
202 225 255
202 225 255
202 225 255
202 225 255
202 225 255
202 225 255
202 225 255
202 225 255
202 225 255
202 225 255
202 225 255
202 225 255
202 225 255
202 225 255
202 225 255
202 225 255
202 225 255
202 225 255
202 225 255
202 225 255
202 225 255
202 225 255
202 225 255
202 225 255
202 225 255
202 225 255
202 225 255
202 225 255
202 225 255
202 225 255
202 225 255
202 225 255
202 225 255
202 225 255
203 225 255
203 225 255
203 225 255
203 225 255
203 225 255
203 225 255
203 225 255
203 225 255
203 225 255
203 225 255
203 225 255
203 225 255
203 225 255
203 225 255
203 225 255
203 225 255
203 226 255
203 226 255
203 226 255
203 226 255
203 226 255
203 226 255
203 226 255
203 226 255
203 226 255
203 226 255
204 226 255
204 226 255
204 226 255
204 226 255
204 226 255
204 226 255
204 226 255
204 226 255
204 226 255
204 226 255
204 226 255
204 226 255
204 226 255
204 226 255
204 226 255
204 226 255
204 226 255
204 226 255
205 226 255
205 226 255
205 226 255
205 226 255
205 226 255
205 226 255
205 226 255
205 227 255
205 227 255
205 227 255
205 227 255
205 227 255
205 227 255
205 227 255
205 227 255
205 227 255
205 227 255
206 227 255
206 227 255
206 227 255
206 227 255
206 227 255
206 227 255
206 227 255
206 227 255
206 227 255
206 227 255
206 227 255
206 227 255
206 227 255
206 227 255
206 227 255
206 227 255
206 227 255
206 227 255
207 227 255
207 227 255
207 227 255
207 227 255
207 228 255
207 228 255
207 228 255
207 228 255
207 228 255
207 228 255
207 228 255
207 228 255
207 228 255
207 228 255
207 228 255
207 228 255
207 228 255
208 228 255
208 228 255
208 228 255
208 228 255
208 228 255
208 228 255
208 228 255
207 226 251
190 204 223
191 202 216
185 197 212
182 191 201
174 179 180
133 123 94
152 148 136
153 144 106
136 123 77
136 123 79
138 124 79
153 143 93
133 123 79
139 127 81
139 128 82
124 110 70
141 127 81
141 126 79
147 137 88
120 104 66
142 130 84
150 137 87
143 129 82
129 113 70
128 109 67
138 124 79
148 137 88
152 140 90
140 126 81
155 144 93
153 141 91
145 131 82
156 146 114
151 142 108
163 160 144
171 168 158
186 195 202
177 185 192
197 209 224
200 215 232
209 227 251
210 229 255
210 229 255
210 229 255
210 229 255
210 229 255
210 229 255
210 229 255
210 229 255
210 229 255
210 229 255
210 229 255
210 229 255
210 230 255
210 230 255
210 230 255
211 230 255
211 230 255
211 230 255
211 230 255
211 230 255
211 230 255
211 230 255
211 230 255
211 230 255
211 230 255
211 230 255
211 230 255
211 230 255
211 230 255
211 230 255
211 230 255
211 230 255
211 230 255
211 230 255
211 230 255
211 230 255
211 230 255
211 230 255
211 230 255
211 230 255
211 230 255
211 230 255
211 230 255
211 230 255
211 230 255
211 230 255
211 230 255
210 230 255
210 230 255
210 230 255
210 229 255
210 229 255
206 225 251
193 211 235
187 205 228
176 193 214
164 181 202
154 170 190
146 161 178
153 170 190
157 174 196
150 166 184
144 160 179
149 166 187
150 167 188
154 172 195
140 156 175
143 159 178
153 171 191
141 158 177
143 160 179
151 169 191
138 155 172
139 156 174
132 148 167
144 162 184
144 162 182
142 159 179
148 167 190
145 163 184
148 166 188
145 163 184
148 167 190
139 156 178
146 164 185
144 161 181
137 154 171
144 163 183
153 172 196
141 159 181
143 160 180
137 154 176
129 145 162
150 169 192
141 158 178
146 164 184
152 171 192
135 152 168
143 160 181
145 162 182
155 172 194
164 182 204
157 173 193
173 190 212
195 214 240
203 223 250
208 228 255
208 228 255
208 228 255
208 228 255
207 228 255
207 228 255
207 228 255
207 228 255
207 228 255
207 228 255
207 228 255
207 228 255
207 228 255
207 228 255
207 228 255
207 228 255
207 228 255
207 228 255
207 227 255
207 227 255
207 227 255
207 227 255
206 227 255
206 227 255
206 227 255
206 227 255
206 227 255
206 227 255
206 227 255
206 227 255
206 227 255
206 227 255
206 227 255
206 227 255
206 227 255
206 227 255
206 227 255
206 227 255
206 227 255
206 227 255
205 227 255
205 227 255
205 227 255
205 227 255
205 227 255
205 227 255
205 227 255
205 227 255
205 227 255
205 227 255
205 226 255
205 226 255
205 226 255
205 226 255
205 226 255
205 226 255
205 226 255
204 226 255
204 226 255
204 226 255
204 226 255
204 226 255
204 226 255
204 226 255
204 226 255
204 226 255
204 226 255
204 226 255
204 226 255
204 226 255
204 226 255
204 226 255
204 226 255
204 226 255
204 226 255
204 226 255
204 226 255
203 226 255
203 226 255
203 226 255
203 226 255
203 226 255
203 226 255
203 226 255
203 226 255
203 226 255
203 226 255
203 225 255
203 225 255
203 225 255
203 225 255
203 225 255
203 225 255
203 225 255
203 225 255
203 225 255
203 225 255
203 225 255
203 225 255
203 225 255
203 225 255
203 225 255
203 225 255
203 225 255
203 225 255
203 225 255
203 225 255
202 225 255
202 225 255
202 225 255
202 225 255
202 225 255
202 225 255
202 225 255
202 225 255
202 225 255
202 225 255
202 225 255
202 225 255
202 225 255
202 225 255
202 225 255
202 225 255
202 225 255
202 225 255
202 225 255
202 225 255
202 225 255
202 225 255
202 225 255
202 225 255
202 225 255
202 225 255
202 225 255
202 225 255
202 225 255
202 225 255
202 225 255
202 225 255
203 225 255
203 225 255
203 225 255
203 225 255
203 225 255
203 225 255
203 225 255
203 225 255
203 225 255
203 225 255
203 225 255
203 225 255
203 225 255
203 225 255
203 225 255
203 225 255
203 225 255
203 225 255
203 225 255
203 225 255
203 226 255
203 226 255
203 226 255
203 226 255
203 226 255
203 226 255
203 226 255
203 226 255
203 226 255
203 226 255
204 226 255
204 226 255
204 226 255
204 226 255
204 226 255
204 226 255
204 226 255
204 226 255
204 226 255
204 226 255
204 226 255
204 226 255
204 226 255
204 226 255
204 226 255
204 226 255
204 226 255
204 226 255
204 226 255
204 226 255
205 226 255
205 226 255
205 226 255
205 226 255
205 226 255
205 226 255
205 226 255
205 227 255
205 227 255
205 227 255
205 227 255
205 227 255
205 227 255
205 227 255
205 227 255
205 227 255
205 227 255
205 227 255
206 227 255
206 227 255
206 227 255
206 227 255
206 227 255
206 227 255
206 227 255
206 227 255
206 227 255
206 227 255
206 227 255
206 227 255
206 227 255
206 227 255
206 227 255
206 227 255
206 227 255
207 227 255
207 227 255
207 227 255
207 227 255
207 228 255
207 228 255
207 228 255
207 228 255
207 228 255
207 228 255
207 228 255
207 228 255
207 228 255
207 228 255
207 228 255
207 228 255
207 228 255
207 228 255
208 228 255
208 228 255
208 228 255
208 228 255
202 219 240
196 213 234
177 188 200
185 191 188
156 152 135
142 133 94
155 148 97
148 138 90
138 122 76
144 134 87
139 129 84
140 130 84
133 122 79
133 116 72
132 120 77
147 133 85
148 132 84
142 125 79
150 137 87
142 127 81
138 123 79
143 131 84
146 134 85
147 138 90
133 117 72
150 134 84
135 117 72
133 118 74
144 133 85
127 111 70
140 126 79
140 128 82
141 125 79
142 131 84
152 140 88
133 118 74
140 127 81
149 139 90
142 132 85
138 125 79
141 128 82
133 117 74
150 138 88
147 134 85
142 127 81
152 141 90
127 105 63
148 133 84
156 147 118
169 169 165
169 169 165
189 197 207
198 213 233
203 220 241
210 229 255
210 229 255
210 230 255
210 230 255
210 230 255
211 230 255
211 230 255
211 230 255
211 230 255
211 230 255
211 230 255
211 230 255
211 230 255
211 230 255
211 230 255
211 230 255
211 230 255
211 230 255
211 230 255
211 230 255
211 230 255
211 230 255
211 230 255
211 230 255
211 230 255
211 230 255
211 230 255
211 230 255
211 230 255
211 230 255
211 230 255
211 230 255
211 230 255
211 230 255
211 230 255
211 230 255
211 230 255
211 230 255
211 230 255
211 230 255
211 230 255
204 223 248
197 215 239
183 201 223
166 182 202
143 157 175
154 170 188
137 152 166
143 159 176
151 167 188
146 162 181
139 155 171
141 157 174
143 160 179
142 158 176
146 163 185
153 172 194
134 150 164
139 156 175
143 160 180
141 159 178
138 155 173
144 163 184
140 157 177
135 153 171
141 159 179
147 166 187
141 160 182
132 150 168
141 160 180
133 151 170
143 162 183
131 149 167
157 179 204
136 154 171
133 152 170
140 159 182
134 153 171
138 157 177
138 157 180
139 159 180
125 142 160
147 168 192
130 148 167
131 148 166
136 154 172
139 158 179
135 153 172
139 158 179
142 162 186
137 155 174
130 147 163
144 163 185
144 162 183
148 168 190
146 165 187
140 157 176
141 158 177
137 153 173
138 155 171
155 173 193
165 182 204
176 194 218
193 212 237
205 225 252
208 228 255
208 228 255
208 228 255
207 228 255
207 228 255
207 228 255
207 228 255
207 228 255
207 228 255
207 228 255
207 228 255
207 228 255
207 228 255
207 228 255
207 228 255
207 228 255
207 228 255
207 227 255
207 227 255
207 227 255
207 227 255
206 227 255
206 227 255
206 227 255
206 227 255
206 227 255
206 227 255
206 227 255
206 227 255
206 227 255
206 227 255
206 227 255
206 227 255
206 227 255
206 227 255
206 227 255
206 227 255
206 227 255
205 227 255
205 227 255
205 227 255
205 227 255
205 227 255
205 227 255
205 227 255
205 227 255
205 227 255
205 227 255
205 227 255
205 226 255
205 226 255
205 226 255
205 226 255
205 226 255
205 226 255
205 226 255
204 226 255
204 226 255
204 226 255
204 226 255
204 226 255
204 226 255
204 226 255
204 226 255
204 226 255
204 226 255
204 226 255
204 226 255
204 226 255
204 226 255
204 226 255
204 226 255
204 226 255
204 226 255
204 226 255
204 226 255
204 226 255
203 226 255
203 226 255
203 226 255
203 226 255
203 226 255
203 226 255
203 226 255
203 226 255
203 226 255
203 226 255
203 226 255
203 226 255
203 225 255
203 225 255
203 225 255
203 225 255
203 225 255
203 225 255
203 225 255
203 225 255
203 225 255
203 225 255
203 225 255
203 225 255
203 225 255
203 225 255
203 225 255
203 225 255
203 225 255
203 225 255
203 225 255
203 225 255
203 225 255
203 225 255
203 225 255
203 225 255
203 225 255
203 225 255
203 225 255
203 225 255
203 225 255
203 225 255
203 225 255
203 225 255
203 225 255
203 225 255
203 225 255
203 225 255
203 225 255
203 225 255
203 225 255
203 225 255
203 225 255
203 225 255
203 225 255
203 225 255
203 225 255
203 225 255
203 225 255
203 225 255
203 225 255
203 225 255
203 225 255
203 225 255
203 225 255
203 225 255
203 225 255
203 225 255
203 225 255
203 225 255
203 226 255
203 226 255
203 226 255
203 226 255
203 226 255
203 226 255
203 226 255
203 226 255
203 226 255
203 226 255
203 226 255
203 226 255
204 226 255
204 226 255
204 226 255
204 226 255
204 226 255
204 226 255
204 226 255
204 226 255
204 226 255
204 226 255
204 226 255
204 226 255
204 226 255
204 226 255
204 226 255
204 226 255
204 226 255
204 226 255
204 226 255
204 226 255
204 226 255
205 226 255
205 226 255
205 226 255
205 226 255
205 226 255
205 226 255
205 226 255
205 227 255
205 227 255
205 227 255
205 227 255
205 227 255
205 227 255
205 227 255
205 227 255
205 227 255
205 227 255
205 227 255
206 227 255
206 227 255
206 227 255
206 227 255
206 227 255
206 227 255
206 227 255
206 227 255
206 227 255
206 227 255
206 227 255
206 227 255
206 227 255
206 227 255
206 227 255
206 227 255
206 227 255
207 227 255
207 227 255
207 227 255
207 227 255
207 228 255
207 228 255
207 228 255
207 228 255
207 228 255
207 228 255
207 228 255
207 228 255
207 228 255
207 228 255
207 228 255
207 228 255
207 228 255
207 228 255
208 228 255
208 228 255
208 228 255
204 223 247
185 195 206
172 184 198
167 167 151
155 150 124
123 109 68
137 123 77
149 141 93
139 128 82
140 131 85
149 140 91
135 121 77
141 129 82
133 120 77
138 124 79
126 116 75
139 131 85
132 119 74
139 128 82
133 123 79
142 132 85
133 125 82
135 126 81
133 126 84
132 124 81
141 134 88
125 115 74
134 122 77
131 120 76
138 131 87
140 132 85
141 132 85
130 115 72
136 125 81
128 117 75
133 120 76
140 129 82
142 129 82
137 129 84
148 140 91
141 131 84
142 127 81
133 121 77
130 115 72
146 134 87
133 115 70
145 130 82
141 127 81
123 104 63
146 134 85
145 130 81
153 143 93
144 128 79
154 140 88
136 122 77
137 124 77
143 130 82
139 121 76
151 137 87
152 137 99
165 163 149
180 184 184
205 222 246
208 226 249
211 230 255
211 230 255
211 230 255
211 230 255
211 230 255
211 230 255
211 230 255
211 230 255
211 230 255
211 230 255
211 230 255
211 230 255
211 230 255
211 230 255
211 230 255
211 230 255
211 230 255
211 230 255
211 230 255
211 230 255
211 230 255
211 230 255
211 230 255
211 230 255
211 230 255
211 230 255
211 230 255
211 230 255
211 230 255
211 230 255
211 230 255
211 230 255
203 222 247
183 200 222
176 192 212
154 169 189
155 171 191
152 168 187
145 161 180
145 160 175
140 155 172
149 165 184
149 166 186
151 169 189
146 163 183
149 166 188
141 157 176
151 169 191
139 156 173
146 164 185
141 159 180
135 152 168
128 144 158
148 167 186
141 159 180
149 169 192
130 148 164
141 160 181
130 148 164
144 163 184
149 169 194
140 159 178
138 157 176
145 165 187
137 156 175
132 150 167
140 160 181
142 161 182
142 163 183
142 162 185
147 168 193
146 166 189
141 161 183
134 153 174
139 159 181
127 146 163
143 164 188
138 158 177
144 165 188
143 164 187
139 159 182
131 149 168
137 158 178
123 141 161
134 153 172
136 156 175
135 155 175
136 156 176
135 155 178
129 147 165
122 139 158
130 148 168
141 160 181
144 163 186
129 146 165
141 159 182
141 159 177
141 158 179
144 162 184
130 145 161
150 167 188
174 192 216
183 202 226
198 218 244
208 228 255
208 228 255
208 228 255
207 228 255
207 228 255
207 228 255
207 228 255
207 228 255
207 228 255
207 228 255
207 228 255
207 228 255
207 228 255
207 228 255
207 228 255
207 228 255
207 227 255
207 227 255
207 227 255
207 227 255
207 227 255
206 227 255
206 227 255
206 227 255
206 227 255
206 227 255
206 227 255
206 227 255
206 227 255
206 227 255
206 227 255
206 227 255
206 227 255
206 227 255
206 227 255
206 227 255
206 227 255
206 227 255
205 227 255
205 227 255
205 227 255
205 227 255
205 227 255
205 227 255
205 227 255
205 227 255
205 227 255
205 227 255
205 226 255
205 226 255
205 226 255
205 226 255
205 226 255
205 226 255
205 226 255
205 226 255
205 226 255
204 226 255
204 226 255
204 226 255
204 226 255
204 226 255
204 226 255
204 226 255
204 226 255
204 226 255
204 226 255
204 226 255
204 226 255
204 226 255
204 226 255
204 226 255
204 226 255
204 226 255
204 226 255
204 226 255
204 226 255
204 226 255
204 226 255
203 226 255
203 226 255
203 226 255
203 226 255
203 226 255
203 226 255
203 226 255
203 226 255
203 226 255
203 226 255
203 226 255
203 226 255
203 226 255
203 226 255
203 226 255
203 226 255
203 225 255
203 225 255
203 225 255
203 225 255
203 225 255
203 225 255
203 225 255
203 225 255
203 225 255
203 225 255
203 225 255
203 225 255
203 225 255
203 225 255
203 225 255
203 225 255
203 225 255
203 225 255
203 225 255
203 225 255
203 225 255
203 225 255
203 225 255
203 225 255
203 225 255
203 225 255
203 225 255
203 225 255
203 225 255
203 225 255
203 225 255
203 225 255
203 225 255
203 225 255
203 225 255
203 225 255
203 225 255
203 225 255
203 225 255
203 226 255
203 226 255
203 226 255
203 226 255
203 226 255
203 226 255
203 226 255
203 226 255
203 226 255
203 226 255
203 226 255
203 226 255
203 226 255
203 226 255
203 226 255
204 226 255
204 226 255
204 226 255
204 226 255
204 226 255
204 226 255
204 226 255
204 226 255
204 226 255
204 226 255
204 226 255
204 226 255
204 226 255
204 226 255
204 226 255
204 226 255
204 226 255
204 226 255
204 226 255
204 226 255
204 226 255
204 226 255
205 226 255
205 226 255
205 226 255
205 226 255
205 226 255
205 226 255
205 226 255
205 226 255
205 227 255
205 227 255
205 227 255
205 227 255
205 227 255
205 227 255
205 227 255
205 227 255
205 227 255
205 227 255
205 227 255
206 227 255
206 227 255
206 227 255
206 227 255
206 227 255
206 227 255
206 227 255
206 227 255
206 227 255
206 227 255
206 227 255
206 227 255
206 227 255
206 227 255
206 227 255
206 227 255
206 227 255
206 227 255
207 227 255
207 227 255
207 227 255
207 227 255
207 228 255
207 228 255
207 228 255
207 228 255
207 228 255
207 228 255
207 228 255
207 228 255
207 228 255
207 228 255
207 228 255
207 228 255
207 228 255
208 228 255
208 228 255
208 228 255
199 214 232
175 184 194
174 179 175
142 137 107
135 121 76
136 126 82
149 141 91
140 128 82
143 130 82
141 126 81
148 136 87
135 123 79
143 134 86
146 139 91
131 124 81
138 129 82
131 122 78
129 120 77
134 125 81
137 128 82
131 122 79
139 130 84
125 118 77
128 119 77
125 116 76
137 132 87
133 123 81
136 129 85
141 131 85
137 128 82
135 125 81
133 123 79
144 136 88
128 116 74
139 131 85
131 120 77
140 128 81
135 126 82
134 123 79
145 132 84
145 132 84
146 138 90
139 128 82
121 108 68
131 120 77
130 118 75
138 128 82
145 135 87
144 135 87
135 125 81
131 122 79
144 132 84
126 111 70
132 120 77
133 122 77
146 131 81
146 132 82
143 130 82
135 117 72
151 136 84
139 126 79
154 138 85
148 135 87
134 120 76
140 126 81
138 120 74
148 132 84
144 129 82
140 125 93
183 186 182
195 205 216
204 219 239
211 230 255
211 230 255
211 230 255
211 230 255
211 230 255
211 230 255
211 230 255
211 230 255
211 230 255
211 230 255
211 230 255
211 230 255
211 230 255
211 230 255
212 230 255
212 230 255
212 230 255
212 230 255
212 230 255
211 230 255
211 230 255
211 230 255
211 230 255
211 230 255
204 222 246
187 204 227
172 188 209
161 177 198
148 164 182
132 146 157
154 171 191
146 162 179
155 172 194
151 168 188
151 168 188
152 169 189
147 164 182
148 166 186
154 173 195
147 164 186
156 175 199
133 149 164
143 161 184
139 157 176
132 148 164
148 168 190
147 167 190
147 166 186
153 173 198
144 163 183
146 166 188
142 161 182
143 163 186
142 162 183
122 139 153
132 151 168
136 156 175
134 154 174
137 157 180
140 160 179
138 159 181
127 146 163
119 136 149
137 157 180
134 154 177
134 154 175
132 152 171
135 155 178
134 154 173
139 159 181
119 137 155
128 147 169
140 161 185
129 148 167
132 152 173
140 161 185
130 149 169
124 143 160
133 153 176
137 158 182
130 150 170
126 144 163
132 151 172
143 164 189
120 138 155
125 143 159
125 143 162
135 155 178
127 145 163
130 149 169
137 157 179
134 153 172
136 155 175
132 150 169
142 161 183
137 154 175
127 144 160
138 156 176
134 151 169
133 150 165
154 171 192
174 192 215
187 206 231
198 218 244
208 228 255
208 228 255
207 228 255
207 228 255
207 228 255
207 228 255
207 228 255
207 228 255
207 228 255
207 228 255
207 228 255
207 228 255
207 228 255
207 228 255
207 228 255
207 228 255
207 227 255
207 227 255
207 227 255
207 227 255
206 227 255
206 227 255
206 227 255
206 227 255
206 227 255
206 227 255
206 227 255
206 227 255
206 227 255
206 227 255
206 227 255
206 227 255
206 227 255
206 227 255
206 227 255
206 227 255
206 227 255
206 227 255
205 227 255
205 227 255
205 227 255
205 227 255
205 227 255
205 227 255
205 227 255
205 227 255
205 227 255
205 227 255
205 227 255
205 226 255
205 226 255
205 226 255
205 226 255
205 226 255
205 226 255
205 226 255
205 226 255
204 226 255
204 226 255
204 226 255
204 226 255
204 226 255
204 226 255
204 226 255
204 226 255
204 226 255
204 226 255
204 226 255
204 226 255
204 226 255
204 226 255
204 226 255
204 226 255
204 226 255
204 226 255
204 226 255
204 226 255
204 226 255
204 226 255
204 226 255
204 226 255
204 226 255
203 226 255
203 226 255
203 226 255
203 226 255
203 226 255
203 226 255
203 226 255
203 226 255
203 226 255
203 226 255
203 226 255
203 226 255
203 226 255
203 226 255
203 226 255
203 226 255
203 226 255
203 226 255
203 226 255
203 226 255
203 226 255
203 226 255
203 226 255
203 226 255
203 226 255
203 226 255
203 226 255
203 226 255
203 226 255
203 226 255
203 226 255
203 226 255
203 226 255
203 226 255
203 226 255
203 226 255
203 226 255
203 226 255
203 226 255
203 226 255
203 226 255
203 226 255
203 226 255
203 226 255
203 226 255
203 226 255
203 226 255
203 226 255
203 226 255
203 226 255
203 226 255
203 226 255
203 226 255
203 226 255
203 226 255
203 226 255
204 226 255
204 226 255
204 226 255
204 226 255
204 226 255
204 226 255
204 226 255
204 226 255
204 226 255
204 226 255
204 226 255
204 226 255
204 226 255
204 226 255
204 226 255
204 226 255
204 226 255
204 226 255
204 226 255
204 226 255
204 226 255
204 226 255
204 226 255
204 226 255
205 226 255
205 226 255
205 226 255
205 226 255
205 226 255
205 226 255
205 226 255
205 226 255
205 227 255
205 227 255
205 227 255
205 227 255
205 227 255
205 227 255
205 227 255
205 227 255
205 227 255
205 227 255
205 227 255
205 227 255
206 227 255
206 227 255
206 227 255
206 227 255
206 227 255
206 227 255
206 227 255
206 227 255
206 227 255
206 227 255
206 227 255
206 227 255
206 227 255
206 227 255
206 227 255
206 227 255
206 227 255
206 227 255
207 227 255
207 227 255
207 227 255
207 227 255
207 228 255
207 228 255
207 228 255
207 228 255
207 228 255
207 228 255
207 228 255
207 228 255
207 228 255
207 228 255
207 228 255
207 228 255
207 228 255
207 228 255
208 228 255
208 228 255
203 222 248
188 199 209
163 164 158
149 141 108
138 127 82
135 125 81
130 118 76
138 130 85
143 130 84
141 130 84
134 122 77
138 128 84
143 138 91
141 134 88
129 120 79
129 120 77
132 121 79
133 125 81
131 123 81
133 127 84
135 128 84
136 129 85
128 118 77
125 118 79
134 128 85
128 120 79
119 113 75
131 126 84
119 113 75
138 133 88
132 127 84
128 120 79
123 115 76
133 126 82
134 127 84
133 127 84
125 119 79
123 115 76
128 122 81
133 128 85
122 115 76
129 122 81
124 115 74
132 127 84
131 123 79
136 129 84
129 121 79
141 135 90
144 137 90
110 100 64
128 118 74
131 121 79
133 124 79
132 122 79
134 122 77
144 134 87
132 117 74
133 119 74
149 137 88
144 133 85
137 120 72
145 135 87
140 130 84
145 132 84
139 126 79
139 127 81
148 133 82
145 126 76
146 132 82
144 128 81
150 136 85
143 128 81
142 122 76
145 129 81
137 122 77
130 111 68
163 154 121
179 179 167
182 187 196
208 225 247
211 230 255
211 230 255
211 230 255
211 230 255
211 230 255
211 230 255
212 230 255
212 230 255
212 230 255
212 230 255
212 230 255
212 230 255
212 230 255
212 230 255
212 230 255
212 230 255
212 230 255
200 218 242
193 210 234
173 189 210
145 159 176
144 159 176
160 176 197
156 173 192
131 145 158
155 172 193
137 152 170
151 168 189
148 165 185
147 165 186
148 167 185
154 172 195
136 153 167
139 156 175
141 159 176
145 163 184
137 153 172
133 149 167
139 157 176
130 147 162
148 168 190
144 164 186
139 158 178
142 162 184
133 152 169
148 169 192
147 168 191
135 154 175
134 154 173
150 171 195
136 156 178
121 138 151
139 159 182
130 149 170
134 154 175
144 165 191
136 157 179
131 151 167
135 155 179
127 146 165
133 153 176
129 148 168
133 153 174
132 153 174
129 149 169
138 159 182
123 142 160
138 160 183
132 152 174
138 159 185
134 155 178
125 144 160
141 163 190
134 156 181
131 152 176
130 150 174
137 159 181
135 157 182
127 147 169
137 159 182
136 157 181
125 145 165
137 158 181
135 156 180
145 167 193
137 157 179
134 154 178
125 145 166
144 166 191
137 158 182
126 145 167
131 150 169
140 159 179
131 148 169
140 160 180
152 174 199
131 149 166
135 152 170
126 141 154
131 147 164
144 160 179
178 196 220
204 224 251
208 228 255
208 228 255
208 228 255
207 228 255
207 228 255
207 228 255
207 228 255
207 228 255
207 228 255
207 228 255
207 228 255
207 228 255
207 228 255
207 228 255
207 228 255
207 228 255
207 228 255
207 227 255
207 227 255
207 227 255
207 227 255
206 227 255
206 227 255
206 227 255
206 227 255
206 227 255
206 227 255
206 227 255
206 227 255
206 227 255
206 227 255
206 227 255
206 227 255
206 227 255
206 227 255
206 227 255
206 227 255
206 227 255
206 227 255
205 227 255
205 227 255
205 227 255
205 227 255
205 227 255
205 227 255
205 227 255
205 227 255
205 227 255
205 227 255
205 227 255
205 227 255
205 226 255
205 226 255
205 226 255
205 226 255
205 226 255
205 226 255
205 226 255
205 226 255
204 226 255
204 226 255
204 226 255
204 226 255
204 226 255
204 226 255
204 226 255
204 226 255
204 226 255
204 226 255
204 226 255
204 226 255
204 226 255
204 226 255
204 226 255
204 226 255
204 226 255
204 226 255
204 226 255
204 226 255
204 226 255
204 226 255
204 226 255
204 226 255
204 226 255
204 226 255
204 226 255
204 226 255
204 226 255
204 226 255
203 226 255
203 226 255
203 226 255
203 226 255
203 226 255
203 226 255
203 226 255
203 226 255
203 226 255
203 226 255
203 226 255
203 226 255
203 226 255
203 226 255
203 226 255
203 226 255
203 226 255
203 226 255
203 226 255
203 226 255
203 226 255
203 226 255
203 226 255
203 226 255
203 226 255
203 226 255
203 226 255
203 226 255
203 226 255
203 226 255
203 226 255
203 226 255
203 226 255
203 226 255
203 226 255
204 226 255
204 226 255
204 226 255
204 226 255
204 226 255
204 226 255
204 226 255
204 226 255
204 226 255
204 226 255
204 226 255
204 226 255
204 226 255
204 226 255
204 226 255
204 226 255
204 226 255
204 226 255
204 226 255
204 226 255
204 226 255
204 226 255
204 226 255
204 226 255
204 226 255
204 226 255
204 226 255
204 226 255
204 226 255
204 226 255
205 226 255
205 226 255
205 226 255
205 226 255
205 226 255
205 226 255
205 226 255
205 226 255
205 226 255
205 227 255
205 227 255
205 227 255
205 227 255
205 227 255
205 227 255
205 227 255
205 227 255
205 227 255
205 227 255
205 227 255
205 227 255
206 227 255
206 227 255
206 227 255
206 227 255
206 227 255
206 227 255
206 227 255
206 227 255
206 227 255
206 227 255
206 227 255
206 227 255
206 227 255
206 227 255
206 227 255
206 227 255
206 227 255
206 227 255
207 227 255
207 227 255
207 227 255
207 227 255
207 228 255
207 228 255
207 228 255
207 228 255
207 228 255
207 228 255
207 228 255
207 228 255
207 228 255
207 228 255
207 228 255
207 228 255
207 228 255
207 228 255
208 228 255
208 228 255
208 228 255
202 220 243
185 195 200
150 144 131
143 130 82
143 131 84
142 133 87
135 120 76
137 123 79
141 131 85
132 120 77
121 113 74
133 127 84
134 127 84
136 131 87
133 126 82
139 130 85
136 129 85
132 124 82
136 131 87
121 115 77
132 127 85
132 127 85
129 124 82
122 115 76
137 130 85
133 129 85
123 117 77
128 123 82
127 120 79
139 134 90
134 128 85
123 117 77
132 129 87
138 129 84
123 116 76
131 124 82
126 119 79
137 130 87
131 126 84
134 128 84
142 135 88
132 125 82
121 113 74
129 123 82
131 125 82
132 125 82
141 134 88
130 121 79
134 128 84
125 118 77
131 122 79
132 126 84
113 99 62
131 123 79
136 127 82
136 128 82
137 128 82
141 133 87
128 119 77
136 128 82
136 127 81
136 128 82
138 129 84
121 110 70
137 127 82
134 121 76
144 133 85
144 133 85
136 126 81
151 138 87
144 129 81
140 127 81
148 138 88
148 135 85
147 132 82
149 133 82
155 140 87
151 140 90
156 142 90
153 137 87
143 125 77
149 132 82
151 137 87
169 165 152
182 183 176
202 215 232
212 230 255
212 230 255
212 230 255
212 230 255
212 230 255
212 230 255
212 230 255
212 230 255
212 230 255
212 230 255
212 230 255
201 218 242
178 193 214
147 161 176
141 155 169
148 163 181
155 172 191
151 167 185
150 166 182
146 162 180
149 166 186
151 168 188
148 165 185
142 159 176
146 164 180
141 159 178
137 153 170
140 157 176
138 155 173
140 157 178
143 161 180
137 154 172
152 171 193
141 159 180
151 171 193
126 143 155
136 154 170
132 150 167
118 135 148
146 166 190
137 157 176
134 152 170
138 157 172
136 156 176
133 152 170
126 145 163
126 145 163
146 168 190
126 145 162
132 152 169
131 151 172
145 166 190
136 156 177
135 155 178
126 145 161
133 154 168
132 152 171
130 149 165
139 161 185
122 141 162
130 149 166
138 159 181
131 151 169
122 140 160
139 161 185
127 147 167
134 156 176
126 146 165
138 160 184
127 146 164
140 163 186
127 147 168
123 142 157
125 144 165
127 148 171
145 168 195
127 147 170
132 153 175
136 158 183
140 163 186
132 153 174
121 140 159
124 144 161
131 151 171
135 155 178
140 162 186
133 154 175
132 153 176
130 150 170
135 156 178
140 161 186
126 145 163
127 146 164
143 163 187
132 150 168
146 167 190
152 172 197
137 154 174
137 155 173
143 160 180
157 174 195
189 208 233
192 211 237
208 228 255
208 228 255
208 228 255
208 228 255
207 228 255
207 228 255
207 228 255
207 228 255
207 228 255
207 228 255
207 228 255
207 228 255
207 228 255
207 228 255
207 228 255
207 228 255
207 228 255
207 228 255
207 227 255
207 227 255
207 227 255
207 227 255
206 227 255
206 227 255
206 227 255
206 227 255
206 227 255
206 227 255
206 227 255
206 227 255
206 227 255
206 227 255
206 227 255
206 227 255
206 227 255
206 227 255
206 227 255
206 227 255
206 227 255
206 227 255
205 227 255
205 227 255
205 227 255
205 227 255
205 227 255
205 227 255
205 227 255
205 227 255
205 227 255
205 227 255
205 227 255
205 227 255
205 227 255
205 226 255
205 226 255
205 226 255
205 226 255
205 226 255
205 226 255
205 226 255
205 226 255
205 226 255
204 226 255
204 226 255
204 226 255
204 226 255
204 226 255
204 226 255
204 226 255
204 226 255
204 226 255
204 226 255
204 226 255
204 226 255
204 226 255
204 226 255
204 226 255
204 226 255
204 226 255
204 226 255
204 226 255
204 226 255
204 226 255
204 226 255
204 226 255
204 226 255
204 226 255
204 226 255
204 226 255
204 226 255
204 226 255
204 226 255
204 226 255
204 226 255
204 226 255
204 226 255
204 226 255
204 226 255
204 226 255
204 226 255
204 226 255
204 226 255
204 226 255
204 226 255
204 226 255
204 226 255
204 226 255
204 226 255
204 226 255
204 226 255
204 226 255
204 226 255
204 226 255
204 226 255
204 226 255
204 226 255
204 226 255
204 226 255
204 226 255
204 226 255
204 226 255
204 226 255
204 226 255
204 226 255
204 226 255
204 226 255
204 226 255
204 226 255
204 226 255
204 226 255
204 226 255
204 226 255
204 226 255
204 226 255
204 226 255
204 226 255
204 226 255
204 226 255
204 226 255
204 226 255
204 226 255
204 226 255
204 226 255
204 226 255
204 226 255
204 226 255
205 226 255
205 226 255
205 226 255
205 226 255
205 226 255
205 226 255
205 226 255
205 226 255
205 226 255
205 227 255
205 227 255
205 227 255
205 227 255
205 227 255
205 227 255
205 227 255
205 227 255
205 227 255
205 227 255
205 227 255
205 227 255
206 227 255
206 227 255
206 227 255
206 227 255
206 227 255
206 227 255
206 227 255
206 227 255
206 227 255
206 227 255
206 227 255
206 227 255
206 227 255
206 227 255
206 227 255
206 227 255
206 227 255
206 227 255
206 227 255
207 227 255
207 227 255
207 227 255
207 227 255
207 228 255
207 228 255
207 228 255
207 228 255
207 228 255
207 228 255
207 228 255
207 228 255
207 228 255
207 228 255
207 228 255
207 228 255
207 228 255
207 228 255
208 228 255
208 228 255
208 228 255
208 228 255
201 217 237
170 172 169
148 142 116
141 127 81
138 129 84
146 137 90
136 123 79
144 135 87
139 132 85
121 112 72
125 115 74
119 108 69
130 121 79
124 117 77
142 137 91
124 117 77
136 130 85
141 131 85
124 114 74
136 131 87
133 127 84
134 129 87
124 116 76
128 122 82
125 117 77
134 130 87
130 123 81
134 130 87
133 126 84
133 127 85
126 120 79
139 134 90
126 123 82
130 119 76
123 115 76
118 107 69
129 119 76
127 120 79
133 124 81
133 125 81
130 123 82
136 131 87
132 124 81
140 132 87
139 133 88
140 131 85
132 127 85
131 123 79
127 119 79
129 123 82
119 108 70
125 119 79
116 104 66
126 119 79
130 122 81
121 110 72
125 119 79
132 126 84
142 135 88
129 118 77
130 121 79
141 132 87
138 133 88
130 118 74
130 124 81
135 123 77
123 112 70
127 118 76
142 132 84
137 127 81
152 144 94
141 129 81
137 124 77
139 125 79
124 109 67
138 124 77
140 129 82
141 127 79
132 112 67
158 145 91
133 119 74
149 136 87
147 131 81
154 139 87
138 126 81
140 126 79
136 119 74
147 130 81
146 128 79
156 146 113
169 162 150
198 211 230
212 230 255
212 230 255
212 230 255
212 230 255
212 230 255
198 215 238
178 194 215
164 179 199
149 164 181
148 163 182
149 164 182
141 156 171
155 172 192
149 165 185
148 164 183
148 164 183
141 157 172
155 173 196
146 163 181
143 159 177
133 149 166
144 162 180
151 169 190
139 156 175
143 161 181
138 155 171
133 150 166
122 138 152
140 158 176
137 155 175
126 143 154
135 154 171
133 151 166
143 162 182
124 142 150
120 137 149
129 147 162
135 154 173
127 145 156
139 159 176
138 157 176
142 163 184
129 148 165
119 137 153
139 160 181
144 165 186
130 150 166
141 162 184
134 154 171
130 149 167
132 152 169
129 149 164
141 163 186
130 150 166
133 153 171
125 144 162
126 146 164
131 152 170
144 167 192
145 167 193
125 145 162
125 145 162
138 160 182
140 162 184
131 151 175
134 155 175
136 158 183
133 154 177
133 154 176
133 155 178
125 145 162
125 145 165
129 150 171
137 160 184
128 148 170
133 155 181
131 153 175
130 151 173
127 147 167
140 162 189
131 151 171
128 149 168
138 160 183
121 141 163
128 148 170
130 150 169
142 164 190
139 161 184
127 146 164
134 154 178
128 148 165
133 154 177
138 159 184
131 151 173
133 152 174
138 158 179
137 155 176
144 162 183
143 161 182
126 142 156
153 170 189
182 201 226
197 216 242
208 228 255
208 228 255
208 228 255
208 228 255
208 228 255
207 228 255
207 228 255
207 228 255
207 228 255
207 228 255
207 228 255
207 228 255
207 228 255
207 228 255
207 228 255
207 228 255
207 228 255
207 228 255
207 227 255
207 227 255
207 227 255
207 227 255
207 227 255
206 227 255
206 227 255
206 227 255
206 227 255
206 227 255
206 227 255
206 227 255
206 227 255
206 227 255
206 227 255
206 227 255
206 227 255
206 227 255
206 227 255
206 227 255
206 227 255
206 227 255
206 227 255
206 227 255
206 227 255
205 227 255
205 227 255
205 227 255
205 227 255
205 227 255
205 227 255
205 227 255
205 227 255
205 227 255
205 227 255
205 227 255
205 227 255
205 227 255
205 226 255
205 226 255
205 226 255
205 226 255
205 226 255
205 226 255
205 226 255
205 226 255
205 226 255
204 226 255
204 226 255
204 226 255
204 226 255
204 226 255
204 226 255
204 226 255
204 226 255
204 226 255
204 226 255
204 226 255
204 226 255
204 226 255
204 226 255
204 226 255
204 226 255
204 226 255
204 226 255
204 226 255
204 226 255
204 226 255
204 226 255
204 226 255
204 226 255
204 226 255
204 226 255
204 226 255
204 226 255
204 226 255
204 226 255
204 226 255
204 226 255
204 226 255
204 226 255
204 226 255
204 226 255
204 226 255
204 226 255
204 226 255
204 226 255
204 226 255
204 226 255
204 226 255
204 226 255
204 226 255
204 226 255
204 226 255
204 226 255
204 226 255
204 226 255
204 226 255
204 226 255
204 226 255
204 226 255
204 226 255
204 226 255
204 226 255
204 226 255
204 226 255
204 226 255
204 226 255
204 226 255
204 226 255
204 226 255
204 226 255
204 226 255
204 226 255
204 226 255
204 226 255
204 226 255
204 226 255
204 226 255
205 226 255
205 226 255
205 226 255
205 226 255
205 226 255
205 226 255
205 226 255
205 226 255
205 226 255
205 226 255
205 227 255
205 227 255
205 227 255
205 227 255
205 227 255
205 227 255
205 227 255
205 227 255
205 227 255
205 227 255
205 227 255
205 227 255
205 227 255
206 227 255
206 227 255
206 227 255
206 227 255
206 227 255
206 227 255
206 227 255
206 227 255
206 227 255
206 227 255
206 227 255
206 227 255
206 227 255
206 227 255
206 227 255
206 227 255
206 227 255
206 227 255
206 227 255
207 227 255
207 227 255
207 227 255
207 227 255
207 228 255
207 228 255
207 228 255
207 228 255
207 228 255
207 228 255
207 228 255
207 228 255
207 228 255
207 228 255
207 228 255
207 228 255
207 228 255
207 228 255
208 228 255
208 228 255
208 228 255
208 228 255
208 228 255
192 206 225
184 192 197
151 148 121
132 123 81
148 140 91
145 137 90
134 125 81
153 142 91
131 121 78
137 131 85
142 135 88
128 121 79
139 132 87
133 128 85
128 120 79
131 122 79
129 121 79
127 119 79
132 125 82
135 127 84
119 112 74
134 131 88
128 120 79
139 133 87
128 123 82
129 124 82
143 141 95
122 111 72
127 122 81
118 106 67
133 125 82
130 122 81
128 123 82
141 134 88
135 129 85
130 126 85
132 127 84
138 132 88
133 125 82
123 114 74
119 108 68
124 116 76
130 126 85
124 119 79
132 124 82
144 139 93
121 114 75
125 117 77
138 132 88
132 127 85
112 105 70
128 119 79
119 111 74
131 124 82
130 122 80
130 122 80
122 109 70
139 133 88
129 121 80
129 121 80
131 124 82
117 106 68
136 130 87
129 124 82
126 117 77
139 131 87
118 112 74
132 125 82
133 125 82
131 121 79
132 122 79
139 132 87
123 110 70
132 123 81
135 126 81
143 137 90
144 133 85
133 124 81
132 118 74
148 138 88
145 135 87
143 134 87
145 133 85
152 138 87
143 132 84
128 116 74
148 133 84
141 122 74
145 130 82
147 131 82
147 131 82
153 138 87
140 119 72
145 128 79
159 142 88
163 157 129
179 181 182
192 202 217
212 230 255
165 180 199
158 173 192
157 173 192
156 172 191
144 159 174
148 164 181
156 173 193
150 167 185
149 165 183
146 162 179
147 163 178
141 157 173
144 161 181
132 148 160
144 161 179
143 161 178
146 164 182
140 158 177
137 155 173
134 152 167
137 155 167
138 156 171
131 149 165
141 159 178
143 162 179
133 151 170
125 142 153
132 150 165
138 157 177
124 141 154
143 163 181
133 152 167
138 158 174
125 143 159
142 163 183
137 158 175
138 158 177
127 146 163
128 147 163
140 161 182
132 151 171
142 163 184
133 153 171
126 144 157
133 153 174
128 148 168
129 149 166
139 160 181
133 154 173
130 149 167
140 162 181
129 149 165
117 135 148
126 146 165
132 153 173
132 152 170
124 144 158
127 146 163
137 159 179
135 157 178
131 152 173
138 160 183
143 166 190
134 156 179
132 153 172
123 143 161
136 158 182
128 149 167
128 150 174
124 145 165
134 156 181
130 152 174
128 149 168
124 144 159
127 148 169
130 151 173
125 145 170
128 149 174
124 144 165
133 154 177
138 160 184
136 158 182
133 154 177
133 155 178
132 153 174
141 163 189
126 145 162
133 154 172
129 149 165
135 156 180
142 163 188
134 154 177
135 155 179
141 162 183
134 153 172
136 154 175
136 154 171
135 152 169
134 149 163
145 161 179
185 204 229
206 226 253
208 228 255
208 228 255
208 228 255
208 228 255
208 228 255
208 228 255
207 228 255
207 228 255
207 228 255
207 228 255
207 228 255
207 228 255
207 228 255
207 228 255
207 228 255
207 228 255
207 228 255
207 228 255
207 228 255
207 228 255
207 227 255
207 227 255
207 227 255
207 227 255
206 227 255
206 227 255
206 227 255
206 227 255
206 227 255
206 227 255
206 227 255
206 227 255
206 227 255
206 227 255
206 227 255
206 227 255
206 227 255
206 227 255
206 227 255
206 227 255
206 227 255
206 227 255
206 227 255
206 227 255
206 227 255
205 227 255
205 227 255
205 227 255
205 227 255
205 227 255
205 227 255
205 227 255
205 227 255
205 227 255
205 227 255
205 227 255
205 227 255
205 227 255
205 226 255
205 226 255
205 226 255
205 226 255
205 226 255
205 226 255
205 226 255
205 226 255
205 226 255
205 226 255
205 226 255
205 226 255
205 226 255
204 226 255
204 226 255
204 226 255
204 226 255
204 226 255
204 226 255
204 226 255
204 226 255
204 226 255
204 226 255
204 226 255
204 226 255
204 226 255
204 226 255
204 226 255
204 226 255
204 226 255
204 226 255
204 226 255
204 226 255
204 226 255
204 226 255
204 226 255
204 226 255
204 226 255
204 226 255
204 226 255
204 226 255
204 226 255
204 226 255
204 226 255
204 226 255
204 226 255
204 226 255
204 226 255
204 226 255
204 226 255
204 226 255
204 226 255
204 226 255
204 226 255
204 226 255
204 226 255
204 226 255
204 226 255
204 226 255
204 226 255
204 226 255
204 226 255
204 226 255
204 226 255
204 226 255
204 226 255
204 226 255
204 226 255
205 226 255
205 226 255
205 226 255
205 226 255
205 226 255
205 226 255
205 226 255
205 226 255
205 226 255
205 226 255
205 226 255
205 226 255
205 227 255
205 227 255
205 227 255
205 227 255
205 227 255
205 227 255
205 227 255
205 227 255
205 227 255
205 227 255
205 227 255
205 227 255
205 227 255
205 227 255
206 227 255
206 227 255
206 227 255
206 227 255
206 227 255
206 227 255
206 227 255
206 227 255
206 227 255
206 227 255
206 227 255
206 227 255
206 227 255
206 227 255
206 227 255
206 227 255
206 227 255
206 227 255
206 227 255
206 227 255
207 227 255
207 227 255
207 227 255
207 227 255
207 228 255
207 228 255
207 228 255
207 228 255
207 228 255
207 228 255
207 228 255
207 228 255
207 228 255
207 228 255
207 228 255
207 228 255
207 228 255
207 228 255
208 228 255
208 228 255
208 228 255
208 228 255
208 228 255
208 228 255
204 221 242
184 194 202
159 156 134
143 136 90
125 116 75
141 128 82
135 125 81
142 129 82
141 136 90
142 138 91
132 124 81
143 137 91
132 124 81
136 127 84
129 120 78
135 128 85
123 117 77
110 99 64
132 129 87
132 126 84
126 117 76
129 122 81
119 113 75
121 113 74
135 127 84
124 110 70
128 123 82
135 126 82
123 116 77
127 120 80
125 119 79
120 111 74
131 125 84
133 128 85
132 126 84
130 123 81
126 115 74
132 126 84
140 134 88
143 137 91
125 119 79
119 109 72
129 121 80
122 111 72
136 130 87
135 130 87
134 125 82
133 125 82
121 114 75
128 119 79
132 124 82
126 117 77
139 135 90
129 121 80
130 122 80
123 114 76
129 123 82
141 135 90
135 126 82
130 122 81
130 121 79
145 138 91
125 118 77
128 122 80
128 118 77
131 118 76
139 133 88
134 127 84
138 129 85
140 134 88
130 119 77
135 126 82
126 119 79
130 121 79
129 121 79
130 123 80
133 125 82
134 125 82
139 132 87
129 119 77
130 122 80
121 111 72
142 133 87
138 128 82
136 125 81
135 122 77
145 134 87
133 120 77
131 115 70
134 121 77
140 127 81
150 136 87
133 120 76
139 124 77
146 132 84
148 129 79
147 127 77
147 131 82
160 144 91
145 127 79
139 124 79
173 168 150
151 166 184
135 149 162
139 153 167
147 162 180
159 176 197
148 164 182
144 161 177
144 160 177
141 157 175
141 157 175
139 155 173
141 158 174
145 163 182
129 145 159
130 146 161
133 150 165
136 154 171
148 167 186
137 155 169
142 161 178
124 140 150
139 157 173
137 155 173
137 155 171
126 143 156
134 152 171
136 154 172
140 159 178
131 150 166
146 166 186
135 154 172
133 151 167
130 148 168
129 148 167
126 144 160
134 153 169
125 144 159
143 164 185
121 139 149
122 140 156
140 161 183
146 169 191
122 140 154
138 159 175
127 147 160
127 147 164
132 152 168
130 150 165
141 163 182
136 157 178
132 152 174
123 142 156
140 162 187
122 141 157
135 157 181
127 147 164
131 152 171
129 149 166
134 156 177
124 145 162
121 140 150
133 155 177
126 146 168
128 149 168
122 141 158
138 161 186
123 143 161
128 149 171
136 157 177
129 150 169
131 153 174
129 151 174
131 153 176
122 141 161
131 153 175
130 151 172
132 155 179
126 147 170
140 163 190
115 133 154
133 154 179
121 141 161
125 146 170
127 148 171
120 140 163
134 156 181
140 164 189
120 139 159
119 138 156
125 143 158
139 161 187
129 150 173
134 155 179
128 147 164
135 155 177
132 152 174
133 153 174
128 146 163
141 159 181
143 162 183
140 158 178
136 152 170
173 191 213
198 217 243
208 228 255
208 228 255
208 228 255
208 228 255
208 228 255
208 228 255
208 228 255
208 228 255
207 228 255
207 228 255
207 228 255
207 228 255
207 228 255
207 228 255
207 228 255
207 228 255
207 228 255
207 228 255
207 228 255
207 228 255
207 228 255
207 228 255
207 227 255
207 227 255
207 227 255
207 227 255
207 227 255
206 227 255
206 227 255
206 227 255
206 227 255
206 227 255
206 227 255
206 227 255
206 227 255
206 227 255
206 227 255
206 227 255
206 227 255
206 227 255
206 227 255
206 227 255
206 227 255
206 227 255
206 227 255
206 227 255
206 227 255
206 227 255
205 227 255
205 227 255
205 227 255
205 227 255
205 227 255
205 227 255
205 227 255
205 227 255
205 227 255
205 227 255
205 227 255
205 227 255
205 227 255
205 227 255
205 227 255
205 226 255
205 226 255
205 226 255
205 226 255
205 226 255
205 226 255
205 226 255
205 226 255
205 226 255
205 226 255
205 226 255
205 226 255
205 226 255
205 226 255
205 226 255
204 226 255
204 226 255
204 226 255
204 226 255
204 226 255
204 226 255
204 226 255
204 226 255
204 226 255
204 226 255
204 226 255
204 226 255
204 226 255
204 226 255
204 226 255
204 226 255
204 226 255
204 226 255
204 226 255
204 226 255
204 226 255
204 226 255
204 226 255
204 226 255
204 226 255
204 226 255
204 226 255
204 226 255
204 226 255
204 226 255
204 226 255
204 226 255
204 226 255
204 226 255
204 226 255
205 226 255
205 226 255
205 226 255
205 226 255
205 226 255
205 226 255
205 226 255
205 226 255
205 226 255
205 226 255
205 226 255
205 226 255
205 226 255
205 226 255
205 226 255
205 227 255
205 227 255
205 227 255
205 227 255
205 227 255
205 227 255
205 227 255
205 227 255
205 227 255
205 227 255
205 227 255
205 227 255
205 227 255
205 227 255
205 227 255
205 227 255
206 227 255
206 227 255
206 227 255
206 227 255
206 227 255
206 227 255
206 227 255
206 227 255
206 227 255
206 227 255
206 227 255
206 227 255
206 227 255
206 227 255
206 227 255
206 227 255
206 227 255
206 227 255
206 227 255
206 227 255
206 227 255
207 227 255
207 227 255
207 227 255
207 227 255
207 227 255
207 228 255
207 228 255
207 228 255
207 228 255
207 228 255
207 228 255
207 228 255
207 228 255
207 228 255
207 228 255
207 228 255
207 228 255
207 228 255
207 228 255
208 228 255
208 228 255
208 228 255
208 228 255
208 228 255
208 228 255
208 228 255
208 228 255
186 200 219
168 169 163
151 143 109
134 125 81
141 130 84
142 130 84
142 131 84
126 116 74
139 134 90
131 125 82
134 128 84
134 125 82
130 123 81
130 125 84
135 128 84
120 115 76
129 121 79
135 127 82
130 124 82
131 122 79
127 119 79
133 129 87
120 109 70
122 112 74
127 120 79
128 124 84
135 130 87
132 127 84
136 132 88
131 125 82
125 118 79
127 122 82
124 119 80
124 117 77
128 121 80
119 113 75
139 134 90
130 123 82
130 125 84
134 129 85
134 126 84
124 116 77
129 123 82
132 121 79
129 120 79
127 121 80
132 124 82
133 126 84
131 124 82
131 121 79
123 113 74
120 109 70
131 123 81
125 114 74
132 124 82
130 123 82
141 136 90
128 119 77
131 124 82
135 127 84
130 121 79
132 124 82
131 122 80
127 119 79
124 117 77
136 127 84
131 123 81
118 108 70
123 117 77
121 110 72
123 113 74
129 119 77
136 128 84
134 125 82
137 128 84
140 132 87
140 131 85
138 130 85
130 121 79
121 107 68
137 127 82
131 123 80
136 127 82
150 144 95
147 136 88
140 131 85
136 129 85
140 131 85
134 124 80
120 111 72
116 104 66
138 126 79
140 130 84
151 141 91
152 140 90
138 126 81
146 133 84
147 134 84
154 144 93
145 125 76
147 130 81
137 123 77
148 135 85
147 130 81
155 171 190
158 174 194
154 170 190
149 165 185
148 165 183
151 168 187
147 164 183
148 165 187
144 160 181
141 158 175
139 156 174
146 164 183
138 156 172
133 150 165
135 152 170
133 150 167
134 151 168
136 154 172
137 155 171
141 160 177
140 158 177
135 153 170
128 144 155
134 152 168
144 163 183
132 150 163
137 156 174
120 136 150
125 142 151
130 148 165
137 157 175
118 134 141
133 153 171
129 147 162
135 155 175
142 163 182
144 165 188
133 151 170
130 149 166
137 157 178
136 156 174
131 151 165
142 164 187
138 159 181
143 164 188
139 161 185
140 162 181
127 146 164
127 146 162
139 160 183
136 157 179
136 157 179
143 166 189
132 153 175
127 147 165
128 148 167
127 147 165
131 151 173
134 156 179
132 152 170
133 154 175
136 158 182
139 163 188
130 151 170
133 155 181
134 156 178
123 143 160
133 155 176
137 160 185
134 157 178
134 155 179
126 147 164
131 153 176
142 165 191
139 162 189
129 150 173
136 159 188
133 155 176
130 152 175
116 136 152
136 159 182
132 155 179
139 163 189
135 157 179
125 145 166
132 154 175
123 144 166
119 139 159
124 144 167
132 154 178
132 153 178
140 162 186
127 147 164
115 132 148
133 154 178
127 146 166
138 160 185
138 159 182
133 153 170
125 143 158
129 147 163
136 155 174
130 146 164
147 165 187
151 167 187
186 204 229
206 226 253
208 228 255
208 228 255
208 228 255
208 228 255
208 228 255
208 228 255
208 228 255
208 228 255
208 228 255
207 228 255
207 228 255
207 228 255
207 228 255
207 228 255
207 228 255
207 228 255
207 228 255
207 228 255
207 228 255
207 228 255
207 228 255
207 228 255
207 228 255
207 228 255
207 227 255
207 227 255
207 227 255
207 227 255
207 227 255
206 227 255
206 227 255
206 227 255
206 227 255
206 227 255
206 227 255
206 227 255
206 227 255
206 227 255
206 227 255
206 227 255
206 227 255
206 227 255
206 227 255
206 227 255
206 227 255
206 227 255
206 227 255
206 227 255
206 227 255
206 227 255
206 227 255
205 227 255
205 227 255
205 227 255
205 227 255
205 227 255
205 227 255
205 227 255
205 227 255
205 227 255
205 227 255
205 227 255
205 227 255
205 227 255
205 227 255
205 227 255
205 227 255
205 227 255
205 227 255
205 226 255
205 226 255
205 226 255
205 226 255
205 226 255
205 226 255
205 226 255
205 226 255
205 226 255
205 226 255
205 226 255
205 226 255
205 226 255
205 226 255
205 226 255
205 226 255
205 226 255
205 226 255
205 226 255
205 226 255
205 226 255
205 226 255
205 226 255
205 226 255
205 226 255
205 226 255
205 226 255
205 226 255
205 226 255
205 226 255
205 226 255
205 226 255
205 226 255
205 226 255
205 226 255
205 226 255
205 226 255
205 226 255
205 226 255
205 226 255
205 226 255
205 226 255
205 226 255
205 226 255
205 226 255
205 226 255
205 226 255
205 226 255
205 227 255
205 227 255
205 227 255
205 227 255
205 227 255
205 227 255
205 227 255
205 227 255
205 227 255
205 227 255
205 227 255
205 227 255
205 227 255
205 227 255
205 227 255
205 227 255
205 227 255
205 227 255
206 227 255
206 227 255
206 227 255
206 227 255
206 227 255
206 227 255
206 227 255
206 227 255
206 227 255
206 227 255
206 227 255
206 227 255
206 227 255
206 227 255
206 227 255
206 227 255
206 227 255
206 227 255
206 227 255
206 227 255
206 227 255
206 227 255
207 227 255
207 227 255
207 227 255
207 227 255
207 227 255
207 228 255
207 228 255
207 228 255
207 228 255
207 228 255
207 228 255
207 228 255
207 228 255
207 228 255
207 228 255
207 228 255
207 228 255
207 228 255
207 228 255
207 228 255
208 228 255
208 228 255
208 228 255
208 228 255
208 228 255
208 228 255
208 228 255
208 228 255
208 228 255
208 228 255
196 211 227
165 165 151
142 131 85
147 138 90
150 145 95
130 121 77
132 123 79
136 128 82
134 125 81
131 121 79
142 137 91
133 126 82
141 134 88
135 129 85
145 141 94
122 115 76
130 124 82
130 124 82
138 136 91
131 126 84
135 129 87
132 127 84
128 122 82
121 112 72
143 141 95
137 132 88
142 139 94
129 126 85
126 122 82
132 126 85
117 109 72
131 124 82
138 130 85
132 124 82
131 122 81
120 112 74
133 128 85
134 129 87
124 114 75
123 116 77
126 117 77
129 118 77
131 123 81
133 126 82
135 130 87
133 129 87
122 114 75
137 129 85
138 134 90
130 124 82
120 109 70
131 122 80
126 116 76
130 125 84
131 126 84
123 112 72
125 111 70
134 127 84
126 115 74
116 105 68
137 128 84
137 129 85
121 111 72
127 118 77
125 113 72
129 117 76
134 126 84
129 122 81
132 126 84
126 118 79
139 132 87
139 132 87
129 116 74
129 120 79
149 144 95
134 123 80
140 135 90
136 130 87
118 110 72
129 117 76
124 112 72
139 127 82
137 125 81
132 123 80
136 128 84
117 105 68
143 134 87
131 121 79
147 139 91
139 129 84
132 118 74
137 127 82
126 115 74
132 123 80
135 126 82
140 130 84
143 134 87
150 139 90
144 133 85
131 119 76
149 135 84
144 129 79
139 125 79
151 132 81
143 120 71
149 132 81
148 164 182
155 172 193
156 173 193
151 168 186
141 157 175
143 159 176
147 164 182
121 136 145
138 155 172
134 151 162
141 158 175
141 159 174
135 152 169
141 158 173
128 144 154
146 165 186
135 152 168
134 152 169
138 156 173
131 149 162
134 152 169
134 152 169
138 157 172
122 138 151
136 154 170
135 154 170
147 167 189
133 151 167
145 166 186
139 159 177
141 161 177
135 154 170
117 134 141
133 153 175
149 171 196
134 154 173
134 153 172
133 153 170
137 157 178
130 150 169
116 133 146
141 162 182
127 146 165
130 149 169
124 144 162
122 141 158
136 157 180
137 158 181
140 161 186
133 154 175
128 147 170
137 159 184
135 157 183
136 157 181
131 152 175
117 135 153
119 138 155
128 147 165
126 146 167
130 151 168
120 139 156
136 158 180
135 157 179
136 157 179
134 157 179
120 140 156
128 149 167
136 160 183
125 146 165
125 147 164
132 153 170
138 160 182
122 141 158
130 151 172
131 153 175
134 155 177
136 159 183
126 147 168
139 162 188
128 150 173
141 165 193
126 148 170
115 134 151
136 160 186
140 163 187
136 158 183
137 161 189
120 140 160
138 161 189
124 145 167
141 165 195
140 162 189
136 158 185
126 146 165
128 148 172
128 149 173
128 148 167
128 148 169
138 160 185
142 163 187
134 154 178
130 148 168
133 152 174
144 163 186
141 158 179
147 165 185
141 157 173
178 196 220
203 223 250
208 228 255
208 228 255
208 228 255
208 228 255
208 228 255
208 228 255
208 228 255
208 228 255
208 228 255
208 228 255
208 228 255
208 228 255
207 228 255
207 228 255
207 228 255
207 228 255
207 228 255
207 228 255
207 228 255
207 228 255
207 228 255
207 228 255
207 228 255
207 228 255
207 228 255
207 228 255
207 228 255
207 227 255
207 227 255
207 227 255
207 227 255
207 227 255
206 227 255
206 227 255
206 227 255
206 227 255
206 227 255
206 227 255
206 227 255
206 227 255
206 227 255
206 227 255
206 227 255
206 227 255
206 227 255
206 227 255
206 227 255
206 227 255
206 227 255
206 227 255
206 227 255
206 227 255
206 227 255
206 227 255
206 227 255
206 227 255
205 227 255
205 227 255
205 227 255
205 227 255
205 227 255
205 227 255
205 227 255
205 227 255
205 227 255
205 227 255
205 227 255
205 227 255
205 227 255
205 227 255
205 227 255
205 227 255
205 227 255
205 227 255
205 227 255
205 227 255
205 227 255
205 227 255
205 227 255
205 227 255
205 226 255
205 226 255
205 226 255
205 226 255
205 226 255
205 226 255
205 226 255
205 226 255
205 226 255
205 226 255
205 226 255
205 226 255
205 226 255
205 226 255
205 226 255
205 226 255
205 226 255
205 226 255
205 226 255
205 226 255
205 226 255
205 227 255
205 227 255
205 227 255
205 227 255
205 227 255
205 227 255
205 227 255
205 227 255
205 227 255
205 227 255
205 227 255
205 227 255
205 227 255
205 227 255
205 227 255
205 227 255
205 227 255
205 227 255
205 227 255
205 227 255
205 227 255
205 227 255
205 227 255
205 227 255
205 227 255
205 227 255
206 227 255
206 227 255
206 227 255
206 227 255
206 227 255
206 227 255
206 227 255
206 227 255
206 227 255
206 227 255
206 227 255
206 227 255
206 227 255
206 227 255
206 227 255
206 227 255
206 227 255
206 227 255
206 227 255
206 227 255
206 227 255
206 227 255
206 227 255
207 227 255
207 227 255
207 227 255
207 227 255
207 227 255
207 228 255
207 228 255
207 228 255
207 228 255
207 228 255
207 228 255
207 228 255
207 228 255
207 228 255
207 228 255
207 228 255
207 228 255
207 228 255
207 228 255
207 228 255
208 228 255
208 228 255
208 228 255
208 228 255
208 228 255
208 228 255
208 228 255
208 228 255
208 228 255
208 228 255
208 228 255
208 228 255
208 228 255
185 196 203
143 134 95
145 131 84
149 139 90
146 135 87
142 134 87
138 132 87
127 118 77
137 131 87
129 119 77
138 134 90
137 132 88
138 131 87
130 125 84
136 133 90
133 127 82
132 126 84
133 129 87
141 133 87
130 124 82
140 134 88
131 124 82
134 129 87
125 118 79
134 128 85
129 125 84
130 126 84
134 129 87
126 121 81
114 108 72
142 139 94
136 129 85
141 130 84
134 132 90
136 129 85
138 133 88
134 126 84
137 133 90
134 126 84
132 127 85
133 125 82
137 129 85
130 124 82
127 122 82
127 121 80
135 129 85
134 122 79
109 98 64
134 126 84
129 118 77
143 139 94
131 125 84
126 117 77
123 116 77
142 139 94
125 120 80
131 125 84
131 124 82
130 119 76
144 139 93
130 124 82
138 130 85
124 117 77
133 124 82
125 117 77
130 124 82
126 114 74
129 123 82
138 133 88
129 120 79
134 128 84
144 137 91
128 120 79
124 113 74
125 117 77
126 117 77
130 122 80
132 126 84
137 132 88
125 115 75
123 113 74
130 124 82
123 113 74
136 128 84
138 126 81
135 127 84
132 122 79
138 127 82
137 126 81
139 128 82
136 126 82
133 124 81
135 124 79
136 127 82
151 142 91
146 137 88
147 138 90
137 126 81
127 118 77
135 124 80
133 121 77
145 134 85
157 144 90
148 135 85
145 132 84
141 129 82
148 134 84
154 143 91
136 150 164
148 165 185
151 169 188
152 170 190
148 165 184
138 155 172
143 160 177
144 161 181
146 164 185
133 149 164
133 150 166
140 158 174
137 154 168
134 151 163
147 166 186
142 160 177
125 141 157
133 150 162
148 167 185
142 161 178
137 155 174
138 157 174
124 141 153
138 157 172
141 160 179
143 162 182
141 161 180
127 144 157
137 156 171
144 164 182
130 148 163
124 141 153
137 157 176
132 150 170
129 148 166
123 141 154
130 150 164
137 157 179
137 157 176
111 128 146
129 148 167
132 152 176
132 152 174
126 146 166
133 153 175
138 159 182
136 157 180
118 136 154
139 161 186
132 153 174
137 159 184
125 144 164
131 151 173
122 141 160
129 149 169
127 148 164
132 152 171
123 142 162
128 147 169
138 160 184
135 157 179
129 150 169
136 159 184
139 162 187
139 162 189
147 171 198
126 147 166
127 147 169
126 146 163
135 157 183
131 152 174
123 143 160
127 149 172
124 145 166
132 154 178
133 155 175
131 152 173
131 153 177
136 159 179
125 146 167
123 144 164
127 149 170
136 159 186
126 146 167
134 157 183
139 163 189
133 156 180
136 159 183
139 162 188
127 148 171
132 154 176
124 145 164
129 150 176
135 157 183
137 159 184
134 156 180
134 155 178
138 160 187
134 155 178
139 161 186
136 157 181
136 156 179
136 156 178
145 165 187
136 155 175
137 155 175
140 158 176
140 158 176
142 158 175
180 198 223
205 225 252
208 228 255
208 228 255
208 228 255
208 228 255
208 228 255
208 228 255
208 228 255
208 228 255
208 228 255
208 228 255
208 228 255
208 228 255
208 228 255
208 228 255
207 228 255
207 228 255
207 228 255
207 228 255
207 228 255
207 228 255
207 228 255
207 228 255
207 228 255
207 228 255
207 228 255
207 228 255
207 228 255
207 228 255
207 228 255
207 228 255
207 227 255
207 227 255
207 227 255
207 227 255
207 227 255
206 227 255
206 227 255
206 227 255
206 227 255
206 227 255
206 227 255
206 227 255
206 227 255
206 227 255
206 227 255
206 227 255
206 227 255
206 227 255
206 227 255
206 227 255
206 227 255
206 227 255
206 227 255
206 227 255
206 227 255
206 227 255
206 227 255
206 227 255
206 227 255
206 227 255
206 227 255
206 227 255
205 227 255
205 227 255
205 227 255
205 227 255
205 227 255
205 227 255
205 227 255
205 227 255
205 227 255
205 227 255
205 227 255
205 227 255
205 227 255
205 227 255
205 227 255
205 227 255
205 227 255
205 227 255
205 227 255
205 227 255
205 227 255
205 227 255
205 227 255
205 227 255
201 223 253
199 220 249
193 213 242
199 220 249
205 227 255
205 227 255
205 227 255
205 227 255
205 227 255
205 227 255
205 227 255
205 227 255
205 227 255
205 227 255
205 227 255
205 227 255
205 227 255
205 227 255
205 227 255
205 227 255
205 227 255
205 227 255
205 227 255
205 227 255
205 227 255
205 227 255
205 227 255
205 227 255
205 227 255
205 227 255
206 227 255
206 227 255
206 227 255
206 227 255
206 227 255
206 227 255
206 227 255
206 227 255
206 227 255
206 227 255
206 227 255
206 227 255
206 227 255
206 227 255
206 227 255
206 227 255
206 227 255
206 227 255
206 227 255
206 227 255
206 227 255
206 227 255
206 227 255
206 227 255
206 227 255
206 227 255
206 227 255
207 227 255
207 227 255
207 227 255
207 227 255
207 227 255
207 228 255
207 228 255
207 228 255
207 228 255
207 228 255
207 228 255
207 228 255
207 228 255
207 228 255
207 228 255
207 228 255
207 228 255
207 228 255
207 228 255
207 228 255
207 228 255
208 228 255
208 228 255
208 228 255
208 228 255
208 228 255
208 228 255
208 228 255
208 228 255
208 228 255
208 228 255
208 228 255
208 228 255
208 228 255
208 228 255
204 223 248
174 183 189
152 145 111
145 137 90
149 142 93
131 122 79
147 138 90
137 131 87
139 129 82
137 128 82
137 134 90
138 133 90
127 121 81
133 128 85
129 122 81
132 126 84
125 120 80
133 129 87
133 126 82
135 128 85
128 122 81
125 118 79
131 125 84
130 123 82
134 128 84
132 126 84
121 109 70
134 130 87
136 130 87
125 114 74
135 132 90
140 133 88
137 132 88
132 125 84
130 123 82
132 127 85
137 132 88
137 134 90
125 113 74
130 123 82
127 119 79
131 124 82
123 115 76
130 120 79
146 143 97
132 126 84
133 128 85
113 101 66
130 122 79
126 113 74
123 113 74
130 125 84
108 100 66
130 124 84
140 134 90
139 134 90
115 103 66
140 133 88
128 122 82
110 98 64
133 127 85
120 109 70
137 128 82
139 132 87
128 119 77
122 109 70
131 118 74
137 133 88
131 123 81
137 129 84
137 128 84
142 138 93
133 126 84
131 124 82
132 123 81
134 127 84
128 120 79
130 119 77
131 122 80
120 112 74
131 122 79
134 124 81
130 120 79
132 123 80
137 129 85
135 125 82
124 109 68
135 127 84
137 130 85
121 109 70
136 128 84
122 108 68
133 126 82
125 114 74
142 130 84
136 125 81
135 125 81
140 127 81
139 128 82
139 130 84
122 110 70
136 124 79
141 130 84
147 137 88
148 140 91
148 140 91
141 129 82
148 136 87
148 134 83
148 134 84
137 123 76
154 172 193
146 163 182
151 169 188
132 147 159
136 153 168
138 155 168
133 149 161
144 162 179
137 154 168
144 162 182
137 154 173
137 154 172
142 160 178
138 155 171
137 154 171
143 162 181
146 165 186
128 145 161
141 159 182
139 158 176
131 149 162
139 158 175
135 154 172
144 163 184
135 154 173
148 168 192
140 160 181
127 144 156
142 163 182
132 151 172
135 154 173
138 158 182
133 152 172
128 147 167
145 167 191
129 148 165
117 134 149
129 148 169
138 158 182
131 150 170
127 147 166
136 157 178
136 157 179
136 157 176
130 149 170
135 156 179
136 157 181
140 161 185
140 162 188
133 153 175
142 165 191
123 141 162
129 148 168
128 148 169
135 156 177
124 144 160
137 159 183
127 147 167
142 166 194
130 152 176
129 149 170
138 161 186
132 154 178
143 167 194
141 165 191
129 152 176
128 148 168
134 155 177
124 144 164
142 165 190
136 158 183
137 161 185
125 146 168
143 167 196
135 157 182
132 155 181
136 159 186
129 150 168
134 156 180
124 145 163
147 172 199
124 145 160
136 160 186
135 158 183
125 147 169
131 152 176
140 165 192
137 161 186
140 163 189
128 149 171
141 165 190
123 143 157
129 151 176
127 148 170
126 146 168
130 152 176
133 155 176
140 164 191
129 150 173
133 155 180
129 149 173
137 159 183
125 145 168
126 145 163
137 157 180
133 152 172
140 159 181
134 151 170
149 168 190
137 155 173
152 170 190
189 208 233
206 226 253
208 228 255
208 228 255
208 228 255
208 228 255
208 228 255
208 228 255
208 228 255
208 228 255
208 228 255
208 228 255
208 228 255
208 228 255
208 228 255
208 228 255
208 228 255
208 228 255
208 228 255
207 228 255
207 228 255
207 228 255
207 228 255
207 228 255
207 228 255
207 228 255
207 228 255
207 228 255
207 228 255
207 228 255
207 228 255
207 228 255
207 228 255
207 228 255
207 228 255
207 227 255
207 227 255
207 227 255
207 227 255
207 227 255
207 227 255
206 227 255
206 227 255
206 227 255
206 227 255
206 227 255
206 227 255
206 227 255
206 227 255
206 227 255
206 227 255
206 227 255
206 227 255
206 227 255
206 227 255
206 227 255
206 227 255
206 227 255
206 227 255
206 227 255
206 227 255
206 227 255
206 227 255
206 227 255
206 227 255
206 227 255
206 227 255
206 227 255
206 227 255
206 227 255
206 227 255
206 227 255
206 227 255
206 227 255
205 227 255
205 227 255
205 227 255
205 227 255
205 227 255
187 209 241
157 177 214
139 157 191
141 162 202
107 125 163
88 109 159
45 73 132
41 66 124
46 73 133
45 72 133
51 81 143
44 70 126
47 75 138
90 109 152
91 111 157
102 120 159
120 140 183
164 184 217
172 193 228
187 207 237
204 225 254
205 227 255
205 227 255
205 227 255
205 227 255
206 227 255
206 227 255
206 227 255
206 227 255
206 227 255
206 227 255
206 227 255
206 227 255
206 227 255
206 227 255
206 227 255
206 227 255
206 227 255
206 227 255
206 227 255
206 227 255
206 227 255
206 227 255
206 227 255
206 227 255
206 227 255
206 227 255
206 227 255
206 227 255
206 227 255
206 227 255
206 227 255
206 227 255
206 227 255
206 227 255
206 227 255
206 227 255
206 227 255
207 227 255
207 227 255
207 227 255
207 227 255
207 227 255
207 227 255
207 228 255
207 228 255
207 228 255
207 228 255
207 228 255
207 228 255
207 228 255
207 228 255
207 228 255
207 228 255
207 228 255
207 228 255
207 228 255
207 228 255
207 228 255
207 228 255
208 228 255
208 228 255
208 228 255
208 228 255
208 228 255
208 228 255
208 228 255
208 228 255
208 228 255
208 228 255
208 228 255
208 228 255
208 228 255
208 228 255
208 228 255
208 228 255
208 228 255
204 222 246
181 188 195
147 136 101
147 137 88
143 128 81
139 131 85
124 113 72
140 134 88
137 132 87
140 134 88
123 115 76
135 131 87
134 130 87
135 130 87
112 106 70
120 110 72
124 115 76
126 119 79
141 134 88
128 124 84
130 126 85
141 136 90
138 132 87
145 142 95
131 120 77
132 126 84
123 115 76
133 125 82
126 118 77
125 116 76
140 137 93
128 120 79
137 135 91
137 133 90
120 106 68
135 128 85
137 133 90
131 127 85
139 137 93
145 141 95
132 129 87
118 104 66
129 121 79
126 117 77
128 121 81
132 124 82
139 131 87
136 130 87
118 106 68
128 124 84
130 122 81
125 117 77
138 134 90
128 123 82
124 113 74
117 107 70
126 112 72
140 134 90
134 122 79
129 120 79
130 122 81
133 125 84
131 120 79
139 132 88
129 118 76
132 117 74
139 130 84
132 122 79
130 124 82
137 128 84
130 121 79
119 106 67
135 127 81
125 114 72
134 128 85
137 132 88
132 122 79
106 98 64
134 126 82
127 119 77
140 131 85
136 129 85
133 125 82
145 138 91
128 116 74
132 122 80
134 127 84
145 138 91
128 118 77
143 136 90
124 115 75
140 132 87
132 123 80
130 121 79
122 114 75
112 100 64
140 132 87
143 134 88
144 135 88
140 128 82
118 103 64
148 138 90
136 123 77
135 120 76
125 110 68
147 134 85
135 122 79
142 131 84
137 128 82
131 122 79
146 134 85
141 129 82
153 139 87
145 162 179
128 143 156
142 158 173
133 149 161
150 169 188
145 162 178
149 167 184
141 159 175
148 166 185
148 167 188
134 151 167
128 144 155
135 152 170
120 136 149
138 156 173
122 138 154
141 160 178
136 154 172
139 157 177
133 150 166
142 160 179
151 172 194
144 163 183
130 148 166
138 157 177
129 147 162
135 154 174
137 156 178
130 148 162
137 157 177
141 161 185
136 156 176
117 134 147
128 147 166
135 155 176
124 142 161
136 155 174
135 156 177
141 162 186
126 145 166
142 163 188
141 163 188
134 154 174
136 157 179
145 167 192
142 164 190
131 151 170
132 153 175
133 154 174
140 162 188
122 140 159
135 156 178
134 154 177
132 152 174
133 154 176
130 150 171
127 147 165
132 152 174
140 162 189
142 165 192
140 162 188
126 146 167
130 151 176
128 148 166
139 162 191
134 156 180
136 157 181
122 141 161
129 150 169
134 156 179
135 158 186
137 160 186
135 157 182
133 155 176
124 146 170
125 146 166
118 138 158
120 140 159
116 136 150
122 143 162
125 147 170
129 152 176
111 130 144
122 143 164
124 146 167
127 148 167
135 159 184
128 150 173
132 155 177
147 172 201
134 157 181
131 154 178
129 151 174
132 154 175
135 158 183
133 155 179
130 151 170
135 157 181
130 150 172
138 160 188
129 150 171
137 159 184
121 140 161
136 157 182
131 151 171
137 158 179
126 144 161
137 157 178
139 159 181
140 159 181
140 159 180
136 153 169
139 154 170
184 202 226
208 228 255
208 228 255
208 228 255
208 228 255
208 228 255
208 228 255
208 228 255
208 228 255
208 228 255
208 228 255
208 228 255
208 228 255
208 228 255
208 228 255
208 228 255
208 228 255
208 228 255
208 228 255
208 228 255
208 228 255
208 228 255
207 228 255
207 228 255
207 228 255
207 228 255
207 228 255
207 228 255
207 228 255
207 228 255
207 228 255
207 228 255
207 228 255
207 228 255
207 228 255
207 228 255
207 228 255
207 228 255
207 228 255
207 227 255
207 227 255
207 227 255
207 227 255
207 227 255
207 227 255
206 227 255
206 227 255
206 227 255
206 227 255
206 227 255
206 227 255
206 227 255
206 227 255
206 227 255
206 227 255
206 227 255
206 227 255
206 227 255
206 227 255
206 227 255
206 227 255
206 227 255
206 227 255
206 227 255
206 227 255
206 227 255
206 227 255
206 227 255
206 227 255
206 227 255
206 227 255
206 227 255
204 225 254
174 196 230
161 180 212
110 128 167
65 93 156
44 71 130
45 73 132
45 72 131
48 75 135
49 78 140
45 72 131
48 77 141
44 70 127
48 76 139
45 72 131
44 71 133
49 78 139
46 72 132
51 82 149
44 71 127
49 77 140
47 76 140
42 68 122
42 68 126
43 68 126
50 80 145
114 132 171
144 165 203
176 197 228
202 223 253
206 227 255
206 227 255
206 227 255
206 227 255
206 227 255
206 227 255
206 227 255
206 227 255
206 227 255
206 227 255
206 227 255
206 227 255
206 227 255
206 227 255
206 227 255
206 227 255
206 227 255
206 227 255
206 227 255
206 227 255
206 227 255
206 227 255
206 227 255
206 227 255
206 227 255
206 227 255
207 227 255
207 227 255
207 227 255
207 227 255
207 227 255
207 227 255
207 227 255
207 228 255
207 228 255
207 228 255
207 228 255
207 228 255
207 228 255
207 228 255
207 228 255
207 228 255
207 228 255
207 228 255
207 228 255
207 228 255
207 228 255
207 228 255
207 228 255
207 228 255
208 228 255
208 228 255
208 228 255
208 228 255
208 228 255
208 228 255
208 228 255
208 228 255
208 228 255
208 228 255
208 228 255
208 228 255
208 228 255
208 228 255
208 228 255
208 228 255
208 228 255
208 228 255
208 228 255
208 228 255
207 226 253
191 204 219
162 156 121
150 136 87
145 135 88
140 132 87
150 145 95
129 121 79
141 134 88
127 120 79
125 119 79
131 128 87
125 119 79
134 125 82
132 125 82
126 121 81
140 134 88
134 130 87
140 136 91
131 127 85
132 125 82
130 125 84
142 137 91
132 125 82
131 123 81
132 127 84
140 137 93
135 130 87
121 110 70
126 117 76
114 107 72
132 128 87
113 107 72
123 119 80
127 122 82
127 123 84
120 116 79
129 122 82
134 130 88
129 126 85
133 132 90
127 119 79
124 118 79
136 130 87
126 118 79
129 119 77
137 129 85
133 122 79
129 117 76
135 125 81
122 115 77
123 112 74
140 134 90
129 117 76
122 109 70
130 125 84
125 116 77
132 123 81
129 118 77
135 126 84
127 119 79
132 124 82
126 119 79
110 99 64
130 122 81
128 121 80
135 122 76
143 136 90
128 118 77
133 119 74
128 117 74
143 137 91
129 119 77
144 135 87
138 127 82
139 130 84
125 117 77
126 116 76
122 112 74
137 131 87
122 113 74
131 124 82
123 115 75
136 127 84
131 120 77
128 121 79
132 123 81
135 128 85
131 122 80
131 122 80
131 121 79
122 110 72
130 119 77
136 125 81
132 123 80
146 140 93
142 134 87
138 130 85
132 123 80
135 126 82
138 127 82
134 121 77
139 129 84
133 121 77
138 128 82
138 126 81
139 128 82
137 126 80
139 126 81
152 140 90
140 129 84
141 128 82
138 124 77
143 134 87
142 133 87
134 150 162
137 152 164
140 157 168
132 147 155
146 163 177
145 163 177
142 159 175
143 160 178
142 160 179
135 152 168
130 146 157
144 163 181
134 151 167
132 149 166
142 160 176
134 152 169
129 146 161
130 147 161
134 151 168
138 157 179
138 157 176
132 150 168
133 151 164
141 160 179
136 154 170
122 138 155
131 149 167
124 141 157
134 153 174
136 156 178
130 148 167
135 155 176
124 142 160
147 169 194
141 162 183
143 164 186
128 147 165
141 161 184
139 160 182
136 156 179
143 164 189
143 165 191
129 148 171
135 155 180
137 157 181
144 166 195
126 145 163
140 161 185
143 165 193
118 136 156
129 150 171
124 142 164
125 144 163
122 140 161
144 166 192
133 153 174
134 155 175
141 163 189
135 156 179
134 156 181
135 158 181
141 163 187
130 151 173
136 159 184
121 140 161
138 161 187
127 147 167
140 164 188
127 148 171
141 165 194
130 153 175
129 151 171
126 146 166
132 155 179
142 166 195
138 162 187
112 131 149
138 162 190
122 144 167
131 154 179
127 149 169
126 149 172
121 143 164
124 146 170
137 162 189
141 166 195
122 143 164
142 167 194
132 155 181
137 161 189
127 149 173
134 157 180
123 144 164
133 156 179
133 155 179
130 152 171
127 148 166
126 146 166
128 148 166
139 163 189
145 169 198
132 154 177
135 156 177
127 147 170
138 159 186
128 148 172
128 148 168
132 153 176
124 143 162
140 160 185
135 153 174
135 153 174
137 154 172
150 169 188
144 159 175
188 206 231
209 229 255
209 229 255
209 228 255
208 228 255
208 228 255
208 228 255
208 228 255
208 228 255
208 228 255
208 228 255
208 228 255
208 228 255
208 228 255
208 228 255
208 228 255
208 228 255
208 228 255
208 228 255
208 228 255
208 228 255
208 228 255
208 228 255
208 228 255
208 228 255
207 228 255
207 228 255
207 228 255
207 228 255
207 228 255
207 228 255
207 228 255
207 228 255
207 228 255
207 228 255
207 228 255
207 228 255
207 228 255
207 228 255
207 228 255
207 228 255
207 228 255
207 228 255
207 228 255
207 227 255
207 227 255
207 227 255
207 227 255
207 227 255
207 227 255
207 227 255
206 227 255
206 227 255
206 227 255
206 227 255
206 227 255
206 227 255
206 227 255
206 227 255
206 227 255
206 227 255
206 227 255
206 227 255
206 227 255
206 227 255
206 227 255
206 227 255
198 219 249
165 185 219
132 150 187
69 93 150
50 80 146
45 72 132
50 80 145
47 76 139
52 83 150
48 76 139
42 68 128
50 80 142
47 75 134
48 75 137
47 74 134
47 75 130
46 73 134
49 78 142
48 76 137
51 80 145
46 74 134
47 75 137
50 79 145
50 80 148
46 74 132
47 75 135
49 79 146
47 75 137
51 82 149
42 68 124
46 74 134
48 77 143
61 86 140
115 135 176
169 188 217
198 219 249
206 227 255
206 227 255
206 227 255
206 227 255
206 227 255
206 227 255
206 227 255
206 227 255
206 227 255
206 227 255
206 227 255
206 227 255
206 227 255
206 227 255
206 227 255
206 227 255
207 227 255
207 227 255
207 227 255
207 227 255
207 227 255
207 227 255
207 227 255
207 228 255
207 228 255
207 228 255
207 228 255
207 228 255
207 228 255
207 228 255
207 228 255
207 228 255
207 228 255
207 228 255
207 228 255
207 228 255
207 228 255
207 228 255
207 228 255
207 228 255
207 228 255
208 228 255
208 228 255
208 228 255
208 228 255
208 228 255
208 228 255
208 228 255
208 228 255
208 228 255
208 228 255
208 228 255
208 228 255
208 228 255
208 228 255
208 228 255
208 228 255
208 228 255
208 228 255
208 228 255
208 228 255
208 228 255
209 228 255
209 228 255
209 229 255
209 229 255
194 207 223
158 154 130
132 120 77
150 136 85
139 130 85
134 123 79
144 139 91
141 134 88
127 120 79
139 133 88
133 124 81
136 132 88
128 123 82
130 125 84
133 125 81
136 129 87
125 119 79
132 127 85
136 130 87
140 137 93
136 129 85
126 121 81
136 129 85
131 125 82
146 143 97
135 130 87
140 136 90
118 110 72
134 127 84
133 128 85
131 126 84
143 142 95
128 125 85
135 133 91
123 121 82
127 125 85
121 116 79
126 123 84
140 140 95
115 111 75
140 139 94
113 106 70
122 117 79
133 131 90
124 119 80
119 109 72
128 122 82
118 110 72
118 109 70
134 128 85
141 138 93
131 126 84
131 125 84
129 121 81
118 105 67
137 129 85
131 123 81
135 128 85
132 123 81
142 136 91
126 116 76
122 112 74
141 135 90
130 122 81
130 123 82
133 123 81
134 124 81
128 115 72
132 122 81
136 123 79
143 134 88
145 136 89
134 126 82
145 138 90
134 125 81
132 119 76
146 137 90
128 116 74
133 125 82
127 116 76
135 123 79
137 128 84
131 122 79
129 122 80
129 120 79
129 120 79
132 126 84
136 127 82
131 123 80
136 128 84
131 126 84
116 105 68
144 138 91
145 138 91
126 115 75
128 116 75
127 116 75
136 129 85
141 132 87
139 130 85
132 121 79
119 109 70
127 115 74
131 119 77
132 124 81
135 124 81
144 134 87
143 135 88
125 112 72
141 130 84
142 130 84
146 133 85
140 128 82
140 129 84
116 103 66
134 121 77
135 150 162
137 153 167
146 162 179
141 158 174
139 156 168
133 148 161
129 145 156
123 138 148
152 171 191
128 144 155
143 161 179
138 156 173
140 158 176
141 159 179
127 144 158
131 148 169
150 169 191
137 156 170
132 149 164
143 162 184
152 173 197
137 155 172
123 140 156
145 165 187
128 146 164
139 158 179
139 159 180
147 167 191
128 146 164
127 145 163
149 170 193
140 160 182
139 159 181
136 155 177
147 168 192
137 157 179
141 161 183
144 165 191
139 159 180
142 164 189
139 158 182
134 154 176
138 158 182
139 160 183
135 156 179
136 157 180
136 156 178
142 164 189
127 146 167
138 158 183
136 158 181
128 148 166
138 159 183
132 152 173
134 154 176
133 154 178
143 167 196
131 152 175
131 152 172
120 139 156
140 163 188
143 165 189
136 158 184
135 157 181
141 164 192
135 156 180
126 148 171
126 148 173
130 151 174
134 157 183
122 142 164
132 155 182
129 152 175
134 157 185
134 157 183
131 154 175
131 154 177
131 153 178
126 147 169
121 142 164
124 145 167
133 156 179
120 141 162
132 155 182
120 140 162
131 153 178
135 158 184
133 156 180
132 155 181
129 152 175
128 150 173
132 155 176
125 146 163
122 143 164
141 166 192
124 145 162
139 163 190
126 146 161
136 158 182
129 149 171
137 159 184
131 152 172
128 149 169
131 152 176
128 149 168
136 158 180
127 147 166
127 147 168
135 156 181
135 155 178
126 145 163
131 149 168
139 159 179
142 162 184
152 171 195
148 166 187
160 177 197
195 214 239
209 229 255
209 229 255
209 229 255
209 229 255
209 229 255
209 228 255
209 228 255
208 228 255
208 228 255
208 228 255
208 228 255
208 228 255
208 228 255
208 228 255
208 228 255
208 228 255
208 228 255
208 228 255
208 228 255
208 228 255
208 228 255
208 228 255
208 228 255
208 228 255
208 228 255
208 228 255
208 228 255
208 228 255
208 228 255
207 228 255
207 228 255
207 228 255
207 228 255
207 228 255
207 228 255
207 228 255
207 228 255
207 228 255
207 228 255
207 228 255
207 228 255
207 228 255
207 228 255
207 228 255
207 228 255
207 228 255
207 228 255
207 228 255
207 228 255
207 227 255
207 227 255
207 227 255
207 227 255
207 227 255
207 227 255
207 227 255
207 227 255
206 227 255
206 227 255
206 227 255
206 227 255
205 225 254
180 201 236
141 161 200
67 91 146
44 70 131
36 58 105
44 70 129
48 77 140
49 77 137
44 71 128
51 81 148
50 79 141
44 70 128
43 68 126
45 72 133
44 70 128
43 68 125
44 71 128
47 75 136
47 75 137
46 75 135
46 74 130
42 67 122
46 73 133
48 77 139
46 73 132
45 73 132
49 79 144
44 70 130
46 73 134
52 83 147
52 81 144
50 80 147
49 78 141
40 65 121
50 79 139
47 75 134
45 73 137
49 71 118
113 134 180
188 209 241
206 227 255
206 227 255
206 227 255
206 227 255
207 227 255
207 227 255
207 227 255
207 227 255
207 227 255
207 227 255
207 227 255
207 227 255
207 227 255
207 227 255
207 228 255
207 228 255
207 228 255
207 228 255
207 228 255
207 228 255
207 228 255
207 228 255
207 228 255
207 228 255
207 228 255
207 228 255
207 228 255
207 228 255
207 228 255
207 228 255
207 228 255
207 228 255
207 228 255
208 228 255
208 228 255
208 228 255
208 228 255
208 228 255
208 228 255
208 228 255
208 228 255
208 228 255
208 228 255
208 228 255
208 228 255
208 228 255
208 228 255
208 228 255
208 228 255
208 228 255
208 228 255
208 228 255
208 228 255
208 228 255
208 228 255
208 228 255
209 228 255
209 229 255
209 229 255
209 229 255
209 229 255
209 229 255
200 218 241
175 175 163
135 121 77
140 130 84
143 133 87
141 129 81
137 129 84
137 130 85
145 141 94
120 111 72
128 120 79
127 121 81
131 124 82
125 117 77
133 126 84
133 124 82
129 120 79
144 139 93
119 109 72
126 120 80
127 120 79
129 123 82
135 132 90
134 132 90
135 131 88
142 139 93
132 128 87
134 129 87
135 130 88
121 117 79
130 124 82
129 123 81
133 129 85
135 125 81
128 125 85
123 120 82
120 114 77
120 114 77
134 131 88
128 124 84
122 117 77
122 117 79
120 112 74
129 122 81
132 127 85
133 126 84
126 120 79
125 118 79
127 121 81
126 118 77
133 125 82
120 109 70
125 111 70
136 131 87
144 139 93
139 129 82
127 119 79
132 127 85
140 131 85
139 135 90
142 133 87
134 126 82
135 125 82
144 138 91
139 132 88
132 123 81
128 122 82
115 97 60
132 126 84
132 121 79
133 123 81
137 126 82
133 119 74
136 126 81
130 122 81
137 127 82
141 132 87
132 121 79
135 123 78
140 129 82
141 132 85
131 119 76
137 130 85
131 124 82
136 124 81
139 131 85
137 128 84
125 116 77
125 113 72
134 125 82
136 126 82
131 121 79
124 112 72
129 122 80
135 127 84
130 119 77
139 130 85
135 126 82
138 130 85
135 126 82
134 127 84
131 120 77
133 124 81
147 139 91
132 120 77
134 125 82
140 132 87
135 124 80
126 116 75
138 128 84
121 109 70
136 123 79
137 125 80
143 134 87
141 131 85
150 138 88
139 126 80
137 127 82
135 151 165
139 155 171
139 155 169
126 140 154
124 139 144
143 160 176
145 163 182
139 156 171
126 142 155
129 145 162
125 140 153
140 157 173
141 159 179
141 159 177
134 152 170
135 153 170
138 156 172
129 146 160
129 147 164
142 161 180
136 154 171
139 158 180
129 147 166
136 155 174
130 149 168
147 167 191
142 162 182
134 152 170
131 149 167
142 162 187
139 158 180
141 161 185
146 166 190
128 146 166
143 164 188
126 143 164
140 159 181
131 149 171
139 159 182
143 163 186
138 158 182
141 162 188
144 166 189
146 168 195
134 155 177
138 159 184
116 133 152
125 145 164
143 165 190
138 159 179
136 157 180
140 162 186
133 155 174
138 160 186
132 153 173
141 164 190
137 159 183
129 150 174
137 158 182
135 156 181
142 164 191
143 167 194
137 159 186
137 159 184
133 155 180
136 159 185
134 157 181
132 154 180
145 169 197
134 157 184
143 167 196
139 163 191
145 170 199
138 162 190
136 160 187
122 142 162
119 139 156
130 153 177
133 156 184
136 160 188
123 145 167
125 146 167
108 127 145
129 150 173
135 159 186
131 154 181
138 161 188
134 158 184
128 151 176
124 146 165
128 150 174
130 151 176
137 161 187
137 161 187
127 148 164
134 157 182
136 159 182
137 160 185
123 144 164
133 156 179
122 142 162
133 155 178
129 151 170
133 154 175
135 158 182
134 156 177
135 156 177
128 148 167
137 158 182
132 152 173
123 141 159
144 166 193
139 160 181
140 160 180
141 161 183
134 151 169
139 156 175
153 170 192
170 187 209
205 224 250
209 229 255
209 229 255
209 229 255
209 229 255
209 229 255
209 229 255
209 229 255
209 229 255
209 228 255
209 228 255
208 228 255
208 228 255
208 228 255
208 228 255
208 228 255
208 228 255
208 228 255
208 228 255
208 228 255
208 228 255
208 228 255
208 228 255
208 228 255
208 228 255
208 228 255
208 228 255
208 228 255
208 228 255
208 228 255
208 228 255
208 228 255
208 228 255
208 228 255
207 228 255
207 228 255
207 228 255
207 228 255
207 228 255
207 228 255
207 228 255
207 228 255
207 228 255
207 228 255
207 228 255
207 228 255
207 228 255
207 228 255
207 228 255
207 228 255
207 228 255
207 228 255
207 228 255
207 228 255
207 228 255
207 228 255
207 228 255
207 228 255
205 226 254
157 176 208
112 136 190
50 78 138
46 75 135
50 78 137
48 77 136
44 70 128
50 78 139
46 73 129
49 77 140
46 73 131
51 81 146
46 72 132
49 79 144
36 58 110
52 82 145
41 64 117
47 75 132
46 74 128
42 68 120
45 72 133
42 67 121
46 74 136
47 74 133
49 78 142
49 79 141
48 76 140
43 69 126
45 72 130
52 83 148
46 74 129
44 70 130
49 78 134
45 71 128
42 67 122
49 77 139
47 75 137
43 68 125
49 77 138
51 81 147
46 74 137
44 70 125
85 107 160
161 181 218
205 225 253
207 227 255
207 228 255
207 228 255
207 228 255
207 228 255
207 228 255
207 228 255
207 228 255
207 228 255
207 228 255
207 228 255
207 228 255
207 228 255
207 228 255
207 228 255
207 228 255
207 228 255
207 228 255
207 228 255
207 228 255
207 228 255
207 228 255
207 228 255
207 228 255
208 228 255
208 228 255
208 228 255
208 228 255
208 228 255
208 228 255
208 228 255
208 228 255
208 228 255
208 228 255
208 228 255
208 228 255
208 228 255
208 228 255
208 228 255
208 228 255
208 228 255
208 228 255
208 228 255
208 228 255
208 228 255
208 228 255
208 228 255
208 228 255
209 228 255
209 229 255
209 229 255
209 229 255
209 229 255
209 229 255
209 229 255
209 229 255
209 229 255
209 229 255
180 183 176
148 137 88
148 135 85
149 137 87
144 136 88
133 123 79
138 130 85
136 130 85
124 116 76
115 105 68
130 123 82
129 124 82
120 113 75
138 133 90
124 116 77
127 120 80
139 132 88
134 127 84
130 123 82
135 129 87
135 132 90
138 132 88
136 134 91
128 119 77
136 130 87
123 118 80
133 128 87
135 130 87
138 135 91
124 115 76
132 128 87
132 128 87
131 128 87
137 132 88
137 133 90
128 123 84
129 125 84
129 124 84
126 122 82
140 138 93
119 114 77
115 111 75
125 115 74
122 114 74
139 138 94
129 120 78
129 120 79
131 128 85
127 114 72
138 132 87
130 119 76
129 121 79
132 127 84
138 134 88
144 138 93
130 118 76
136 133 90
133 124 79
132 123 81
131 123 81
137 128 84
126 113 72
132 114 69
135 128 84
128 118 77
133 125 82
129 121 79
144 139 93
133 122 79
136 131 87
133 123 81
136 130 87
133 123 79
139 130 85
132 122 79
142 131 84
136 126 82
133 128 85
140 130 84
141 132 87
131 118 76
123 108 67
128 115 74
137 123 79
144 132 84
130 113 70
132 119 76
141 132 87
131 117 74
142 134 88
137 128 84
135 125 81
136 126 82
131 121 79
135 125 81
128 119 77
124 116 76
128 120 79
130 121 77
128 120 79
131 121 79
120 106 68
131 117 75
135 124 80
147 138 91
145 137 90
131 122 80
134 126 82
141 130 84
139 129 84
147 139 91
136 126 82
132 117 74
140 131 85
145 132 84
140 127 81
142 130 84
128 113 72
143 131 84
128 142 157
150 167 187
152 170 188
144 161 176
150 168 188
139 156 171
126 141 157
131 148 161
137 153 170
132 149 167
136 154 171
144 162 181
151 171 193
131 148 161
132 149 164
143 162 181
142 160 177
140 158 177
140 159 181
131 148 164
128 146 165
130 148 164
143 162 183
142 162 185
133 151 168
130 148 162
145 165 186
139 159 180
132 150 167
134 152 173
133 151 171
148 169 192
151 173 199
144 164 188
132 150 170
141 161 184
148 169 194
135 154 176
125 142 160
140 159 181
145 167 192
134 154 177
139 158 183
134 154 173
135 156 177
132 152 173
137 158 183
136 158 182
146 169 197
123 141 157
145 168 193
138 160 183
144 167 190
142 164 188
133 154 178
137 159 183
141 164 188
143 165 190
133 152 172
128 148 170
141 164 191
130 151 171
138 160 186
142 164 189
144 169 198
144 167 195
132 155 180
141 165 193
141 164 193
144 169 198
141 164 192
139 163 191
146 171 201
135 159 184
134 156 182
135 158 183
132 154 180
140 164 193
117 137 158
135 159 185
131 154 179
122 143 167
130 152 176
125 146 169
139 163 192
132 155 180
132 153 177
140 164 190
125 146 168
138 161 190
134 158 184
137 160 185
128 150 174
133 156 182
136 159 185
128 150 172
129 151 172
136 160 186
125 146 165
132 154 177
133 156 178
140 164 190
132 154 178
121 142 158
138 161 185
136 158 183
129 150 167
136 158 182
126 145 164
146 170 196
144 166 190
130 150 169
130 149 169
126 144 164
136 156 178
135 153 170
141 160 181
149 168 191
158 177 201
159 176 196
195 213 238
209 229 255
209 229 255
209 229 255
209 229 255
209 229 255
209 229 255
209 229 255
209 229 255
209 229 255
209 229 255
209 229 255
209 229 255
209 229 255
209 228 255
208 228 255
208 228 255
208 228 255
208 228 255
208 228 255
208 228 255
208 228 255
208 228 255
208 228 255
208 228 255
208 228 255
208 228 255
208 228 255
208 228 255
208 228 255
208 228 255
208 228 255
208 228 255
208 228 255
208 228 255
208 228 255
208 228 255
208 228 255
208 228 255
208 228 255
207 228 255
207 228 255
207 228 255
207 228 255
207 228 255
207 228 255
207 228 255
207 228 255
207 228 255
207 228 255
207 228 255
207 228 255
207 228 255
207 228 255
207 228 255
205 226 254
170 188 217
93 114 163
48 77 140
49 79 140
46 72 131
50 80 146
45 72 130
47 75 132
45 71 124
51 80 144
51 80 143
45 71 120
48 77 139
47 75 140
49 79 139
45 71 126
43 69 124
46 73 133
43 68 125
47 74 128
46 73 128
44 70 129
49 77 136
52 83 148
46 74 131
49 78 140
47 74 133
41 66 118
50 79 139
49 77 134
42 68 118
47 74 134
46 73 132
47 74 134
48 76 139
50 79 143
47 75 137
44 70 125
44 71 123
44 70 122
45 71 128
45 71 130
47 75 137
50 78 140
48 76 141
50 80 140
61 84 138
177 197 229
203 223 252
207 228 255
207 228 255
207 228 255
207 228 255
207 228 255
207 228 255
207 228 255
207 228 255
207 228 255
207 228 255
207 228 255
207 228 255
207 228 255
207 228 255
207 228 255
208 228 255
208 228 255
208 228 255
208 228 255
208 228 255
208 228 255
208 228 255
208 228 255
208 228 255
208 228 255
208 228 255
208 228 255
208 228 255
208 228 255
208 228 255
208 228 255
208 228 255
208 228 255
208 228 255
208 228 255
208 228 255
208 228 255
208 228 255
208 228 255
208 228 255
209 228 255
209 229 255
209 229 255
209 229 255
209 229 255
209 229 255
209 229 255
209 229 255
209 229 255
209 229 255
209 229 255
209 229 255
209 229 255
209 229 255
188 200 213
160 155 133
150 139 90
139 125 79
136 123 77
140 129 82
133 121 77
130 125 84
136 131 88
125 116 76
137 133 90
124 116 77
127 122 82
133 128 87
125 115 76
140 136 91
135 129 87
131 123 82
135 131 88
134 129 87
132 127 85
137 134 91
135 132 90
127 121 81
121 113 75
142 141 95
132 123 81
130 125 84
131 128 87
135 127 84
133 127 85
140 135 91
142 140 95
120 116 79
127 122 82
138 132 88
133 130 88
132 123 81
139 138 94
137 132 88
111 105 70
134 130 87
128 122 81
128 123 82
132 125 82
139 136 91
140 135 90
142 137 90
140 134 87
139 133 87
136 125 81
134 128 84
137 129 84
131 122 78
135 123 78
138 126 81
134 125 82
141 131 85
140 134 88
130 116 72
137 128 84
139 131 87
135 122 77
143 135 88
131 120 76
145 138 90
121 112 74
143 137 91
134 125 82
135 126 82
140 132 87
133 121 77
135 123 78
128 114 72
142 131 85
146 139 91
139 129 82
128 113 70
137 128 84
141 132 85
133 120 77
146 137 90
148 139 90
140 130 84
141 133 87
139 127 81
129 112 69
129 116 74
147 140 91
148 138 89
149 140 91
143 132 85
135 125 79
134 123 80
134 123 80
132 123 80
138 129 84
128 114 72
142 131 85
124 114 74
133 122 79
134 127 84
146 138 91
138 128 84
134 124 80
133 125 82
140 130 85
145 135 88
130 119 77
149 140 91
150 143 94
131 118 75
142 130 84
134 123 80
140 129 84
141 132 85
140 131 85
145 134 87
130 118 75
144 132 85
138 126 81
141 157 174
149 166 186
140 157 173
140 157 170
119 134 140
137 154 172
132 148 165
137 154 170
157 177 202
137 154 169
146 165 183
131 147 160
153 172 195
134 151 167
143 161 181
129 145 161
139 158 175
128 145 158
153 173 197
133 150 167
125 141 156
136 154 174
126 143 158
135 153 174
137 155 175
143 162 183
126 143 161
136 155 175
146 165 189
140 159 182
142 161 182
135 155 175
142 162 186
132 150 168
145 165 187
135 154 175
141 161 184
135 154 173
139 159 179
146 167 192
142 163 184
128 146 165
138 159 181
142 163 188
135 155 179
139 160 185
138 159 180
142 163 188
147 169 194
140 161 181
150 174 204
138 160 184
129 149 168
139 160 182
138 159 184
145 168 195
136 157 182
143 166 194
141 163 190
146 169 198
134 156 180
136 157 180
138 160 183
138 159 184
135 156 180
141 164 191
144 169 197
142 165 193
133 155 180
137 160 188
144 168 197
143 167 195
134 155 178
129 150 173
136 159 186
143 167 196
141 164 191
135 158 184
135 159 185
145 171 201
131 153 177
139 164 191
136 160 185
133 156 182
131 153 177
124 145 170
135 158 185
134 157 181
140 165 192
142 167 196
131 152 174
133 156 181
134 156 181
135 158 183
122 143 164
141 166 193
121 142 161
128 150 170
124 144 162
129 151 171
128 150 173
133 156 176
129 151 172
140 164 189
135 157 178
130 152 175
128 148 168
123 143 163
129 149 168
135 156 179
139 161 183
130 150 167
133 154 173
137 158 181
141 162 187
144 166 190
136 156 177
136 155 174
138 157 178
145 163 184
148 165 184
170 187 209
209 228 255
209 229 255
209 229 255
209 229 255
209 229 255
209 229 255
209 229 255
209 229 255
209 229 255
209 229 255
209 229 255
209 229 255
209 229 255
209 229 255
209 229 255
209 229 255
209 229 255
209 228 255
209 228 255
208 228 255
208 228 255
208 228 255
208 228 255
208 228 255
208 228 255
208 228 255
208 228 255
208 228 255
208 228 255
208 228 255
208 228 255
208 228 255
208 228 255
208 228 255
208 228 255
208 228 255
208 228 255
208 228 255
208 228 255
208 228 255
208 228 255
208 228 255
208 228 255
208 228 255
208 228 255
208 228 255
207 228 255
207 228 255
207 228 255
207 228 255
207 228 255
207 228 255
169 188 216
93 113 159
42 67 116
51 81 147
48 76 137
45 72 130
49 78 144
40 64 119
47 75 136
47 75 137
42 68 118
46 74 133
45 72 129
51 80 143
42 67 119
46 73 133
52 84 149
51 81 140
44 70 122
48 77 140
51 80 143
44 71 128
50 79 142
51 81 145
50 79 141
50 80 139
49 78 143
52 83 148
47 74 136
47 75 137
53 84 152
47 75 132
45 71 129
47 74 127
51 80 144
48 75 132
41 66 120
43 68 124
47 74 130
48 77 133
46 73 135
46 74 135
47 74 135
49 77 136
46 74 131
46 72 130
43 69 124
46 72 129
45 72 131
51 80 143
92 111 154
182 203 234
207 228 255
207 228 255
207 228 255
207 228 255
207 228 255
207 228 255
208 228 255
208 228 255
208 228 255
208 228 255
208 228 255
208 228 255
208 228 255
208 228 255
208 228 255
208 228 255
208 228 255
208 228 255
208 228 255
208 228 255
208 228 255
208 228 255
208 228 255
208 228 255
208 228 255
208 228 255
208 228 255
208 228 255
208 228 255
208 228 255
208 228 255
208 228 255
208 228 255
209 228 255
209 228 255
209 229 255
209 229 255
209 229 255
209 229 255
209 229 255
209 229 255
209 229 255
209 229 255
209 229 255
209 229 255
209 229 255
209 229 255
209 229 255
209 229 255
209 229 255
209 229 255
203 222 248
181 187 188
138 126 90
151 140 90
146 138 90
139 131 85
137 129 84
134 126 82
140 133 87
134 124 81
131 124 82
137 129 85
132 126 84
129 125 84
124 115 75
134 131 88
134 126 84
135 126 82
137 132 88
134 129 87
123 117 79
134 130 88
125 117 77
136 131 88
127 117 77
138 137 94
123 117 77
124 117 79
126 119 79
127 120 80
133 126 84
130 124 84
128 121 81
135 124 81
137 131 88
144 139 93
128 122 82
120 111 74
144 142 97
138 132 87
135 129 85
129 127 87
136 133 90
123 114 74
143 136 89
134 126 82
123 118 77
132 127 85
139 134 90
135 126 81
142 131 84
129 118 74
132 120 76
143 132 85
130 118 74
140 135 90
136 134 91
139 132 87
142 131 85
128 114 72
139 129 84
133 122 78
138 132 87
138 130 85
141 133 87
135 125 81
133 123 81
138 123 77
136 128 84
135 123 78
142 133 87
136 127 82
137 130 85
140 130 84
145 135 87
137 125 81
134 121 76
141 134 88
141 133 86
145 138 91
136 121 76
139 131 87
140 129 82
135 123 79
141 135 90
138 123 77
132 119 76
139 125 79
131 120 77
152 143 94
134 124 81
129 115 72
142 131 84
140 128 82
140 126 78
144 134 88
142 134 88
145 134 87
131 121 79
135 126 84
132 120 77
131 118 76
132 119 76
135 126 82
124 109 68
141 134 88
124 114 74
143 136 90
124 112 72
140 131 85
121 107 68
133 125 82
138 127 82
143 131 84
133 121 76
134 121 77
140 129 84
138 124 77
131 117 74
118 107 68
123 110 70
142 130 84
125 110 70
140 156 170
142 158 175
142 159 178
147 165 184
135 152 170
147 165 180
141 158 177
128 144 158
140 158 180
143 161 179
139 157 174
131 147 163
138 156 176
139 156 172
124 140 157
133 150 167
130 146 163
142 161 181
144 163 182
131 148 162
143 161 181
148 168 189
139 158 179
138 156 176
141 160 183
132 149 166
140 159 181
141 160 181
149 169 194
141 160 180
141 161 184
133 152 171
144 164 187
129 147 165
146 166 189
138 158 182
138 157 176
146 167 192
131 149 168
124 142 158
142 162 185
145 166 190
134 154 175
137 156 177
129 147 166
143 165 191
141 162 185
145 167 189
144 165 190
147 169 198
149 173 201
139 161 184
141 163 187
142 164 191
140 159 181
139 160 182
145 168 195
137 159 184
145 169 195
145 168 196
139 160 184
134 155 178
136 157 179
141 162 187
136 157 181
146 169 196
129 148 167
138 160 186
132 153 177
140 163 188
138 159 184
135 157 181
137 160 186
131 152 176
142 165 191
145 169 200
132 153 177
137 160 185
141 164 190
134 156 182
131 153 179
130 151 174
133 155 180
142 167 198
131 152 173
126 148 170
133 155 181
138 162 190
139 163 192
124 145 168
129 152 177
128 149 173
133 155 181
128 150 172
136 160 185
142 167 198
125 147 170
124 145 163
138 162 190
129 151 173
138 162 187
134 157 178
136 160 185
130 152 175
132 154 178
124 145 166
113 132 148
127 148 167
128 148 169
131 151 173
137 158 177
143 167 189
139 161 184
130 151 171
134 155 173
130 149 167
133 153 174
133 153 170
143 163 183
133 150 168
153 172 197
150 169 188
162 178 200
199 218 243
209 229 255
209 229 255
209 229 255
209 229 255
209 229 255
209 229 255
209 229 255
209 229 255
209 229 255
209 229 255
209 229 255
209 229 255
209 229 255
209 229 255
209 229 255
209 229 255
209 229 255
209 229 255
209 229 255
209 229 255
209 229 255
209 229 255
209 228 255
209 228 255
208 228 255
208 228 255
208 228 255
208 228 255
208 228 255
208 228 255
208 228 255
208 228 255
208 228 255
208 228 255
208 228 255
208 228 255
208 228 255
208 228 255
208 228 255
208 228 255
208 228 255
208 228 255
208 228 255
208 228 255
208 228 255
208 228 255
208 228 255
208 228 255
198 218 247
97 116 160
43 69 127
46 74 132
48 77 139
51 80 143
46 73 131
49 79 138
45 71 128
47 74 132
45 72 120
50 79 143
50 78 140
51 81 144
45 72 126
48 76 137
48 76 137
44 69 126
47 75 135
47 75 138
52 82 146
50 79 141
45 72 127
49 78 137
43 69 119
47 75 134
46 73 125
49 78 133
52 82 150
46 72 129
48 75 129
42 67 121
53 85 147
48 78 137
51 81 148
46 72 130
46 73 132
51 80 138
49 78 136
49 77 135
40 63 110
50 78 135
45 72 133
48 76 137
50 79 141
38 61 113
48 77 137
42 67 116
49 77 137
45 72 127
50 79 139
43 69 125
45 70 127
43 69 129
110 131 173
197 217 245
208 228 255
208 228 255
208 228 255
208 228 255
208 228 255
208 228 255
208 228 255
208 228 255
208 228 255
208 228 255
208 228 255
208 228 255
208 228 255
208 228 255
208 228 255
208 228 255
208 228 255
208 228 255
208 228 255
208 228 255
208 228 255
208 228 255
208 228 255
208 228 255
209 228 255
209 228 255
209 228 255
209 229 255
209 229 255
209 229 255
209 229 255
209 229 255
209 229 255
209 229 255
209 229 255
209 229 255
209 229 255
209 229 255
209 229 255
209 229 255
209 229 255
209 229 255
209 229 255
209 229 255
209 229 255
209 229 255
209 229 255
209 229 255
203 219 237
165 163 143
151 141 91
146 138 90
135 123 79
132 122 79
145 142 94
139 130 85
132 123 81
133 126 84
141 135 90
127 119 79
131 123 82
126 120 80
139 131 87
138 133 90
135 130 87
131 129 88
132 129 87
131 127 85
141 137 93
136 132 88
143 142 97
131 124 82
134 131 88
131 125 84
135 132 90
140 137 93
138 136 93
130 123 82
138 132 88
139 135 91
132 121 79
130 126 85
140 135 90
133 127 85
129 124 82
125 117 76
131 125 82
140 133 88
134 129 87
136 130 87
124 119 79
135 131 88
128 118 77
136 130 87
149 147 98
125 118 79
143 139 93
142 134 87
138 132 87
137 124 78
134 121 76
138 127 81
139 123 76
134 125 82
135 131 87
135 125 81
137 127 82
135 126 82
137 129 84
140 131 85
133 121 77
146 138 91
137 125 81
145 137 90
142 129 82
142 132 84
135 122 77
141 135 88
150 146 98
133 119 76
131 117 74
131 115 72
147 133 83
141 128 81
141 133 87
135 127 84
142 133 87
140 126 79
137 127 82
134 120 74
146 135 87
146 137 89
144 137 90
135 122 76
137 121 74
131 119 76
138 127 81
130 114 70
136 121 76
145 134 87
146 135 87
143 136 90
145 134 87
142 132 85
135 124 81
130 114 72
135 121 77
136 128 84
128 115 74
138 130 85
141 128 82
146 136 88
134 122 79
127 116 75
137 128 84
144 136 88
127 120 79
132 123 80
139 130 85
126 114 74
138 129 84
135 125 81
143 131 82
135 123 77
136 122 76
132 116 71
138 127 81
129 116 74
139 128 82
148 140 91
120 109 70
150 142 93
143 160 177
137 153 167
149 167 186
135 151 168
132 147 163
134 150 166
148 166 185
138 155 171
139 157 173
142 160 181
138 156 175
142 160 178
143 161 182
142 159 179
137 154 173
138 155 172
131 148 167
138 155 172
139 156 176
150 170 193
142 161 181
153 173 198
139 157 178
131 147 163
146 165 186
135 153 170
140 159 181
133 151 167
136 153 171
147 166 187
143 161 184
146 165 187
148 169 193
148 169 194
141 161 184
140 160 183
140 160 183
149 170 195
146 167 189
140 160 183
138 158 181
141 161 182
144 164 188
153 176 203
143 163 188
143 163 186
145 166 191
142 163 186
130 150 168
143 165 190
141 162 184
148 171 200
138 159 183
135 156 173
139 160 184
148 170 197
140 162 186
132 153 174
137 157 181
136 158 180
142 164 187
145 168 195
144 166 193
144 166 195
137 158 180
135 155 177
143 167 194
138 160 184
138 159 184
141 163 189
136 158 182
140 163 188
138 160 186
133 154 174
147 171 199
135 156 178
132 154 177
137 159 185
138 161 186
130 151 175
133 155 181
123 143 161
129 151 174
135 158 185
144 169 197
140 164 189
132 154 176
140 165 194
127 148 172
138 162 188
128 149 169
126 147 168
127 149 168
138 161 186
139 163 189
139 163 188
129 151 175
135 158 185
135 159 187
123 143 163
133 155 181
123 143 163
127 148 171
124 144 164
127 148 168
130 151 176
139 162 186
130 152 174
129 150 172
140 163 188
127 148 165
131 152 169
126 145 162
126 145 160
138 160 181
144 166 190
133 153 170
132 152 172
131 150 172
145 165 186
134 151 171
153 173 197
146 163 182
153 170 191
187 204 228
210 229 255
210 229 255
210 229 255
210 229 255
210 229 255
209 229 255
209 229 255
209 229 255
209 229 255
209 229 255
209 229 255
209 229 255
209 229 255
209 229 255
209 229 255
209 229 255
209 229 255
209 229 255
209 229 255
209 229 255
209 229 255
209 229 255
209 229 255
209 229 255
209 229 255
209 229 255
209 229 255
209 229 255
209 228 255
209 228 255
208 228 255
208 228 255
208 228 255
208 228 255
208 228 255
208 228 255
208 228 255
208 228 255
208 228 255
208 228 255
208 228 255
208 228 255
208 228 255
208 228 255
208 228 255
204 224 252
146 162 189
62 87 142
46 73 132
45 72 129
47 75 137
45 70 125
48 77 139
45 71 130
46 73 129
42 67 122
43 69 121
38 61 104
43 68 124
43 69 123
46 73 129
44 70 124
44 69 123
42 66 116
49 78 140
49 78 137
53 83 148
50 79 141
49 79 138
49 77 137
47 74 131
48 76 136
45 70 125
52 82 147
49 77 134
51 80 141
43 69 121
47 75 126
50 78 132
48 76 130
49 79 141
49 78 135
49 77 138
49 78 136
48 76 135
42 67 115
47 75 131
51 80 139
44 69 119
46 73 127
42 67 120
46 72 127
50 79 141
49 78 141
45 71 128
42 66 118
51 81 142
48 75 135
51 80 144
45 72 128
45 72 127
46 73 130
48 69 119
146 166 204
208 228 255
208 228 255
208 228 255
208 228 255
208 228 255
208 228 255
208 228 255
208 228 255
208 228 255
208 228 255
208 228 255
208 228 255
208 228 255
208 228 255
208 228 255
208 228 255
208 228 255
209 228 255
209 228 255
209 229 255
209 229 255
209 229 255
209 229 255
209 229 255
209 229 255
209 229 255
209 229 255
209 229 255
209 229 255
209 229 255
209 229 255
209 229 255
209 229 255
209 229 255
209 229 255
209 229 255
209 229 255
209 229 255
209 229 255
209 229 255
209 229 255
210 229 255
210 229 255
210 229 255
210 229 255
210 229 255
187 196 207
135 120 81
141 129 82
144 131 84
137 123 77
142 135 88
139 134 88
121 112 72
128 120 79
136 129 85
129 123 82
127 115 74
123 114 75
130 121 80
128 123 82
126 118 79
131 125 84
133 128 87
121 111 74
133 128 87
136 134 91
128 121 81
133 127 84
127 123 82
124 117 77
140 138 94
138 134 90
139 138 94
137 131 87
139 131 85
141 136 91
136 130 87
128 122 82
135 131 88
140 134 90
145 143 97
129 123 82
133 124 81
142 137 91
135 125 81
139 130 85
129 116 74
125 117 77
132 123 79
144 139 93
129 122 81
143 142 97
134 123 79
133 121 77
126 115 76
142 132 85
128 115 74
133 120 76
142 136 90
147 138 89
131 115 71
132 119 74
138 124 78
138 125 79
137 129 84
139 128 82
138 131 85
134 118 71
129 113 70
131 115 71
129 116 72
137 126 81
138 125 81
131 122 79
139 130 84
136 126 82
144 136 88
141 129 82
137 124 79
136 127 82
138 130 85
135 124 78
146 134 87
141 134 88
145 134 86
129 117 74
131 120 77
146 131 81
146 134 84
150 140 90
137 126 81
141 131 85
133 122 77
140 128 82
146 136 88
141 128 81
145 133 84
143 129 82
140 125 79
139 126 81
139 126 79
138 122 76
134 120 76
141 134 88
139 128 84
142 130 84
135 122 79
141 132 87
134 123 80
134 122 79
128 112 70
139 127 82
140 129 84
144 135 88
140 134 88
135 121 77
128 117 75
133 125 82
132 120 77
138 129 84
145 133 84
142 128 81
145 132 84
139 124 78
149 136 86
135 123 77
140 128 81
135 122 77
136 125 80
137 125 80
153 171 190
134 149 165
142 159 174
137 153 166
147 164 185
132 148 164
141 158 173
139 156 175
147 165 185
137 153 167
141 158 176
142 160 177
130 146 163
135 151 170
140 157 174
138 155 174
122 137 149
148 166 188
144 163 184
136 154 173
148 167 188
149 168 189
129 145 164
131 148 164
139 157 178
136 155 175
124 140 155
133 151 166
144 163 184
146 165 186
139 157 180
147 166 189
137 156 176
142 161 182
141 161 184
147 167 189
140 160 182
144 164 185
132 151 170
125 141 158
153 175 201
148 169 194
137 156 177
144 164 186
133 152 171
143 163 187
141 162 184
141 161 187
140 160 180
145 165 189
143 164 190
147 169 196
143 164 189
145 168 192
140 161 184
135 155 180
138 159 180
135 155 178
148 171 196
148 171 197
137 157 179
147 170 197
147 170 198
142 164 190
143 165 191
137 159 183
136 157 182
143 165 190
133 153 176
137 159 181
129 149 169
144 168 197
133 153 171
139 161 186
141 163 188
142 165 192
136 158 183
129 150 174
136 158 181
140 163 191
130 150 172
141 165 190
146 170 197
131 153 173
136 159 186
137 161 188
142 167 196
130 151 173
140 164 192
138 162 190
131 154 176
132 154 176
137 160 187
130 152 175
121 142 162
129 151 174
138 162 189
140 164 189
133 155 174
133 155 179
138 161 188
133 156 177
128 150 174
133 155 176
144 169 199
137 160 184
133 155 176
124 143 159
131 153 177
127 147 168
133 155 179
133 154 176
136 157 178
131 151 171
139 161 185
127 146 160
141 163 185
122 141 152
127 146 165
125 143 158
126 145 161
142 161 183
143 162 180
140 157 176
143 159 177
172 189 211
208 227 253
210 229 255
210 229 255
210 229 255
210 229 255
210 229 255
210 229 255
210 229 255
210 229 255
210 229 255
209 229 255
209 229 255
209 229 255
209 229 255
209 229 255
209 229 255
209 229 255
209 229 255
209 229 255
209 229 255
209 229 255
209 229 255
209 229 255
209 229 255
209 229 255
209 229 255
209 229 255
209 229 255
209 229 255
209 229 255
209 229 255
209 229 255
209 229 255
209 229 255
209 228 255
209 228 255
209 228 255
208 228 255
208 228 255
208 228 255
208 228 255
208 228 255
208 228 255
192 212 243
107 128 173
45 71 130
45 72 131
50 80 141
45 71 127
47 75 132
49 77 134
48 77 136
46 74 132
51 80 141
45 72 121
47 74 126
42 67 120
48 76 133
46 74 130
53 83 146
47 74 127
47 76 134
46 73 132
46 73 133
51 81 145
48 76 139
46 74 134
48 76 133
52 81 141
51 80 141
46 72 127
42 68 125
48 76 134
45 71 117
51 80 136
48 76 133
43 67 119
45 72 129
52 82 146
47 75 133
47 76 136
50 79 139
44 70 127
45 72 129
45 71 124
46 74 131
49 78 139
45 72 129
43 68 121
44 70 124
49 78 137
46 73 135
48 76 137
49 77 132
50 78 139
43 69 122
39 62 107
44 71 129
46 73 130
47 75 129
48 77 136
45 72 131
47 75 140
113 131 167
200 221 250
208 228 255
208 228 255
208 228 255
208 228 255
208 228 255
208 228 255
209 228 255
209 228 255
209 228 255
209 229 255
209 229 255
209 229 255
209 229 255
209 229 255
209 229 255
209 229 255
209 229 255
209 229 255
209 229 255
209 229 255
209 229 255
209 229 255
209 229 255
209 229 255
209 229 255
209 229 255
209 229 255
209 229 255
209 229 255
209 229 255
209 229 255
209 229 255
209 229 255
210 229 255
210 229 255
210 229 255
210 229 255
210 229 255
210 229 255
210 229 255
210 229 255
210 229 255
204 221 242
175 175 170
140 123 77
153 140 90
145 133 85
136 124 79
122 114 74
145 141 94
130 122 80
128 121 80
127 119 79
129 123 82
139 134 90
126 120 80
131 127 85
137 133 90
132 126 84
137 134 91
133 127 85
138 135 91
129 120 79
136 129 85
135 127 84
132 127 85
132 128 85
131 124 82
133 127 84
140 134 90
139 136 91
134 127 84
141 139 94
129 125 84
136 129 85
138 128 82
140 137 93
131 124 82
147 145 98
129 122 81
138 135 91
138 135 91
128 120 79
137 127 82
136 129 84
126 119 79
138 132 87
129 116 74
136 127 82
144 137 90
137 131 87
131 122 79
136 128 84
127 115 74
132 122 79
144 138 91
137 124 79
143 139 93
131 122 81
144 133 86
129 117 76
140 130 83
142 132 85
136 119 72
141 127 79
142 130 83
150 144 95
139 128 82
133 122 79
141 133 87
144 134 86
135 119 72
139 128 82
135 122 78
138 127 81
137 123 77
145 137 89
136 124 79
142 133 87
129 114 70
128 117 74
143 134 86
144 135 87
131 120 77
137 124 77
135 122 79
133 119 74
138 124 77
145 135 87
146 133 84
141 130 82
126 107 66
146 131 81
134 116 69
139 124 76
133 117 72
144 131 84
146 133 84
136 118 72
142 128 81
144 130 82
137 123 79
124 111 70
130 118 76
143 135 88
145 133 85
129 117 75
139 132 87
144 132 85
143 131 85
134 122 79
129 117 75
125 114 74
137 125 81
142 132 85
130 121 79
142 134 88
144 136 88
136 128 84
139 129 84
143 132 84
138 123 76
136 124 79
146 134 85
147 135 85
147 134 84
135 122 77
151 143 93
139 129 84
142 158 176
122 136 149
140 156 170
143 160 178
147 165 182
140 157 172
139 156 175
152 170 190
147 165 186
131 147 162
145 162 181
136 153 170
125 141 152
146 164 183
142 160 181
135 151 168
135 152 169
143 162 180
148 167 188
147 166 186
141 159 181
140 158 180
138 156 175
149 168 193
143 161 184
142 161 179
142 161 183
140 158 175
159 180 206
147 166 189
139 157 177
140 159 180
150 171 196
139 157 176
149 170 195
154 175 201
147 168 193
150 170 193
146 167 188
153 174 200
143 163 186
138 158 177
134 152 172
143 164 184
142 162 185
140 161 183
151 174 201
145 167 189
144 165 189
144 165 187
147 168 194
148 170 197
145 166 192
150 173 200
141 162 185
144 166 190
148 170 198
145 167 193
145 167 194
136 156 179
141 163 186
142 165 191
134 154 171
147 169 196
143 165 188
145 167 192
141 162 186
143 165 191
126 147 165
143 165 189
137 158 181
141 163 186
138 159 182
141 164 190
142 164 191
142 164 191
141 164 189
132 152 175
140 163 189
137 160 184
137 159 184
141 165 192
135 156 179
141 165 192
135 158 178
137 160 187
133 155 178
137 160 185
138 162 188
138 161 187
141 165 191
144 168 198
139 162 190
134 157 183
141 164 191
133 155 180
142 166 192
142 168 195
135 159 182
130 152 174
125 146 168
142 166 195
118 137 158
132 154 176
134 156 177
138 160 186
133 156 181
129 151 175
148 173 202
134 157 183
131 153 177
128 149 168
135 157 183
133 155 174
129 150 169
132 152 173
144 166 190
134 154 173
135 155 172
138 159 180
138 158 175
119 136 148
138 157 179
141 159 180
147 166 187
147 165 185
160 175 195
201 219 244
210 229 255
210 229 255
210 229 255
210 229 255
210 229 255
210 229 255
210 229 255
210 229 255
210 229 255
210 229 255
210 229 255
210 229 255
210 229 255
210 229 255
209 229 255
209 229 255
209 229 255
209 229 255
209 229 255
209 229 255
209 229 255
209 229 255
209 229 255
209 229 255
209 229 255
209 229 255
209 229 255
209 229 255
209 229 255
209 229 255
209 229 255
209 229 255
209 229 255
209 229 255
209 229 255
209 229 255
209 229 255
209 229 255
209 229 255
209 229 255
171 189 217
71 91 139
48 77 138
48 76 140
48 77 141
49 77 137
50 78 142
44 69 128
49 79 140
48 77 141
46 73 129
49 77 137
48 76 130
48 76 131
47 75 126
42 66 117
48 75 134
45 71 129
52 82 143
42 67 124
48 76 139
48 75 127
46 73 125
52 82 141
48 75 130
50 79 131
47 75 133
47 75 126
50 77 132
50 79 133
46 73 127
47 76 139
51 81 139
49 78 139
44 70 125
50 79 143
48 77 134
43 68 121
46 74 130
49 78 131
43 69 123
47 74 130
44 70 128
48 76 127
49 77 136
47 75 126
47 74 129
49 78 129
40 64 111
42 67 116
48 76 136
44 69 118
44 69 125
47 74 134
44 70 118
49 76 137
43 70 127
44 70 124
42 68 124
48 76 134
47 74 131
45 72 127
70 94 149
172 190 222
209 229 255
209 229 255
209 229 255
209 229 255
209 229 255
209 229 255
209 229 255
209 229 255
209 229 255
209 229 255
209 229 255
209 229 255
209 229 255
209 229 255
209 229 255
209 229 255
209 229 255
209 229 255
209 229 255
209 229 255
209 229 255
209 229 255
209 229 255
209 229 255
209 229 255
209 229 255
210 229 255
210 229 255
210 229 255
210 229 255
210 229 255
210 229 255
210 229 255
210 229 255
210 229 255
210 229 255
210 229 255
210 229 255
210 229 255
210 229 255
204 222 248
165 161 136
139 121 74
140 127 81
137 127 81
136 129 85
130 124 82
135 129 85
142 138 93
136 129 85
128 120 79
137 129 85
132 123 81
123 115 76
135 127 84
135 129 85
134 126 84
126 121 82
135 128 85
128 122 81
138 130 85
128 122 82
137 133 90
127 121 81
131 123 81
134 129 85
134 126 82
134 126 82
142 137 91
131 127 85
135 128 85
146 142 95
136 131 87
137 133 90
126 117 77
134 128 85
133 123 81
133 127 85
129 118 76
135 125 82
140 136 91
136 129 85
139 133 88
125 116 76
137 125 79
121 111 72
138 130 85
135 128 84
137 125 79
141 135 90
140 137 91
132 124 82
126 113 72
132 118 76
136 124 81
129 110 67
142 134 88
145 137 90
140 125 79
132 116 72
143 135 87
145 138 91
147 136 88
148 136 87
135 125 79
146 134 86
140 129 82
138 117 69
150 141 93
141 128 81
142 128 81
144 131 83
127 116 74
136 123 79
138 125 79
139 123 76
141 130 82
145 134 86
137 122 76
140 123 76
140 132 85
134 119 74
148 135 86
146 137 88
131 121 79
141 129 82
140 128 82
143 130 82
144 127 78
143 127 79
139 124 77
144 129 81
136 121 76
146 131 81
146 136 87
141 126 79
146 135 87
148 135 84
142 129 81
142 128 81
132 115 72
128 116 74
130 116 74
136 126 82
133 122 79
140 131 85
137 128 84
131 119 77
142 130 84
137 125 81
134 119 76
139 127 82
145 137 90
122 109 70
121 106 68
122 108 68
147 139 91
145 137 90
134 122 77
132 117 72
138 124 77
147 134 84
150 136 84
143 130 82
147 136 87
140 127 81
141 128 81
131 119 77
138 153 171
143 159 175
147 164 181
141 158 173
148 165 183
138 155 170
148 165 183
132 148 165
136 153 171
139 156 173
129 145 161
143 161 181
132 148 165
134 151 166
144 161 182
127 143 161
132 149 165
131 147 165
138 155 171
142 159 178
143 161 184
150 169 192
138 155 175
135 152 173
134 152 169
152 172 196
149 169 191
148 168 190
147 166 190
141 159 180
147 166 188
150 170 194
151 170 192
136 154 173
147 168 192
145 163 186
137 156 173
146 166 189
148 167 188
143 163 186
150 171 197
141 160 184
145 165 189
139 158 179
148 169 195
139 159 180
146 166 191
139 160 178
145 166 189
144 164 188
147 167 191
148 169 194
139 159 181
144 165 189
145 167 192
144 165 189
143 164 189
149 171 199
141 163 188
141 162 184
148 170 196
146 168 191
140 161 185
138 159 178
152 176 204
143 165 188
144 166 190
137 158 181
135 155 177
148 172 200
134 155 175
141 163 190
140 162 186
133 154 177
137 158 180
129 149 171
138 161 187
142 164 191
139 161 187
141 164 189
136 157 178
138 159 184
136 159 183
140 162 187
144 168 198
137 159 185
132 154 178
136 159 181
134 157 186
139 163 190
135 157 181
138 160 186
138 161 188
134 156 177
135 158 182
143 167 197
137 159 184
136 160 186
127 147 168
138 162 188
130 152 176
130 151 171
130 151 174
137 161 188
144 168 195
130 152 176
129 150 172
138 161 185
138 161 185
141 165 192
134 156 177
124 143 164
132 154 179
130 150 169
137 159 185
124 143 160
131 151 167
136 157 176
136 157 173
113 129 135
149 171 196
125 143 157
131 149 163
131 150 168
139 157 178
145 164 185
148 165 185
154 169 188
190 208 232
210 229 255
210 229 255
210 229 255
210 229 255
210 229 255
210 229 255
210 229 255
210 229 255
210 229 255
210 229 255
210 229 255
210 229 255
210 229 255
210 229 255
210 229 255
210 229 255
210 229 255
210 229 255
210 229 255
210 229 255
209 229 255
209 229 255
209 229 255
209 229 255
209 229 255
209 229 255
209 229 255
209 229 255
209 229 255
209 229 255
209 229 255
209 229 255
209 229 255
209 229 255
209 229 255
209 229 255
209 229 255
207 227 254
141 160 199
46 73 134
47 76 137
44 71 130
45 72 124
47 75 131
48 77 138
47 74 128
46 73 126
46 73 127
47 74 131
46 73 132
41 66 121
48 76 134
49 76 135
49 78 137
44 70 118
45 72 121
47 75 129
52 82 138
47 74 127
47 75 129
47 75 129
50 79 144
48 76 129
51 81 139
46 72 124
47 74 126
51 80 136
45 72 129
51 81 138
40 64 109
49 77 136
44 70 115
45 70 122
48 76 137
44 70 119
46 73 125
47 74 130
45 70 124
47 75 125
50 79 134
48 75 129
50 80 140
46 72 128
47 75 131
50 78 126
49 77 129
44 71 126
40 64 109
43 67 120
44 69 122
43 67 117
49 77 136
47 75 137
49 76 133
42 67 119
48 75 131
50 79 137
46 73 133
45 71 124
45 72 129
47 74 131
42 67 113
48 76 137
155 175 213
207 227 254
209 229 255
209 229 255
209 229 255
209 229 255
209 229 255
209 229 255
209 229 255
209 229 255
209 229 255
209 229 255
209 229 255
209 229 255
209 229 255
209 229 255
209 229 255
209 229 255
209 229 255
210 229 255
210 229 255
210 229 255
210 229 255
210 229 255
210 229 255
210 229 255
210 229 255
210 229 255
210 229 255
210 229 255
210 229 255
210 229 255
210 229 255
210 229 255
210 229 255
210 229 255
210 229 255
210 229 255
210 229 255
201 215 230
149 138 106
143 132 85
151 141 90
131 119 76
126 117 76
126 118 77
135 128 85
123 112 74
132 124 82
138 132 88
133 122 79
123 113 74
130 123 82
135 127 84
129 121 79
135 128 85
129 122 81
133 127 84
135 129 85
138 135 91
142 134 88
138 131 86
126 119 79
135 131 87
124 115 76
133 125 81
137 133 90
134 127 83
125 119 79
142 138 93
135 127 82
134 128 85
137 132 88
139 134 90
141 136 91
134 128 85
144 140 94
131 124 82
142 135 90
144 139 94
137 130 85
143 133 84
146 141 94
129 115 74
141 135 90
134 122 79
145 137 90
138 128 84
142 134 88
133 122 81
146 141 94
131 114 70
136 121 76
147 139 91
135 124 81
145 136 88
138 128 84
145 132 84
149 141 93
147 141 93
143 131 84
139 124 76
148 135 85
140 122 76
143 129 81
143 129 81
141 124 75
141 129 82
148 141 93
143 130 82
147 138 90
143 134 87
143 127 79
138 124 79
141 124 78
145 134 86
144 135 88
143 131 83
143 131 83
147 138 90
140 129 84
143 127 79
143 126 78
134 123 78
136 122 76
145 129 81
144 133 85
143 129 81
146 134 85
148 136 87
144 130 82
140 129 82
145 130 82
145 133 85
152 141 90
148 139 90
148 135 84
150 138 87
145 133 84
144 132 84
144 129 82
144 128 81
140 124 77
139 127 82
145 135 87
139 127 82
124 110 70
134 125 82
136 126 82
137 127 82
128 118 77
132 121 79
133 122 79
127 114 74
141 128 82
141 131 85
128 117 75
126 113 72
137 127 82
150 141 91
139 124 76
132 119 74
144 131 82
143 132 84
146 131 81
147 134 84
148 132 81
142 131 85
143 160 178
150 168 187
142 159 174
153 171 193
135 151 162
146 164 182
134 150 167
142 160 178
140 156 174
135 151 168
140 157 176
147 164 182
141 159 177
138 155 171
142 159 179
143 161 181
148 166 189
149 168 191
130 146 164
130 145 164
136 154 175
149 168 190
141 159 179
121 136 151
146 165 184
139 156 175
130 146 163
139 157 179
139 157 175
137 155 170
147 167 188
157 179 204
153 174 196
150 170 192
143 161 183
152 172 195
147 167 192
144 163 185
144 164 188
135 152 171
144 164 186
138 155 175
145 165 187
147 168 193
148 169 194
150 171 196
144 165 184
150 171 197
131 150 170
142 162 185
154 176 204
144 164 188
153 176 204
150 172 196
148 169 193
139 160 181
147 168 192
151 173 202
145 166 192
147 169 196
143 164 189
147 170 197
147 168 195
144 165 188
145 167 191
140 161 184
140 160 182
148 171 198
145 167 194
141 163 186
137 158 182
145 167 193
141 163 188
147 169 197
132 153 176
146 169 195
136 157 182
141 162 186
144 168 196
148 171 201
148 171 197
144 167 194
137 157 181
135 157 184
141 163 189
135 157 179
141 165 189
144 169 197
144 168 197
140 163 187
140 164 188
141 164 189
135 157 182
131 152 178
133 155 183
134 156 181
132 155 182
138 161 186
138 161 186
136 158 182
126 147 169
133 155 180
129 150 175
133 156 178
139 162 186
134 156 182
131 153 178
138 161 187
131 153 178
129 151 174
143 167 196
142 165 193
143 166 195
140 162 187
136 157 182
135 156 176
129 149 169
133 154 174
127 147 164
140 161 179
130 149 169
129 148 164
133 152 172
130 148 165
144 164 184
130 147 164
143 162 182
145 162 180
146 162 180
195 212 236
211 230 255
210 230 255
210 230 255
210 229 255
210 229 255
210 229 255
210 229 255
210 229 255
210 229 255
210 229 255
210 229 255
210 229 255
210 229 255
210 229 255
210 229 255
210 229 255
210 229 255
210 229 255
210 229 255
210 229 255
210 229 255
210 229 255
210 229 255
210 229 255
210 229 255
210 229 255
210 229 255
209 229 255
209 229 255
209 229 255
209 229 255
209 229 255
209 229 255
209 229 255
209 229 255
201 221 249
128 147 187
46 74 133
50 79 143
49 77 141
48 76 138
52 82 141
40 65 119
45 72 129
45 71 130
47 75 137
47 74 132
49 79 139
40 63 109
46 74 128
44 70 127
46 74 130
46 73 126
42 67 118
51 81 138
45 72 120
44 69 127
44 69 122
49 78 135
43 66 114
48 76 128
48 76 131
44 69 120
49 77 131
45 72 131
53 83 151
43 69 122
47 75 123
45 71 122
51 81 137
49 77 137
47 74 125
44 70 126
49 77 124
49 77 136
45 72 129
50 80 138
43 67 116
48 76 127
41 67 114
47 75 135
48 77 131
49 78 133
43 69 125
50 80 144
46 73 127
47 74 125
43 68 116
43 68 120
49 76 126
46 73 127
51 80 142
44 70 123
39 62 103
47 73 125
44 69 119
45 72 128
49 76 137
44 69 121
47 75 134
44 69 121
47 74 131
48 76 134
130 147 179
209 229 255
209 229 255
209 229 255
209 229 255
209 229 255
209 229 255
209 229 255
209 229 255
209 229 255
210 229 255
210 229 255
210 229 255
210 229 255
210 229 255
210 229 255
210 229 255
210 229 255
210 229 255
210 229 255
210 229 255
210 229 255
210 229 255
210 229 255
210 229 255
210 229 255
210 229 255
210 229 255
210 229 255
210 229 255
210 229 255
210 229 255
210 229 255
210 229 255
210 230 255
210 230 255
211 230 255
190 198 206
139 128 87
141 129 82
140 127 81
135 127 82
137 129 84
135 128 85
134 128 85
139 130 85
137 127 84
140 133 88
136 128 84
132 124 82
142 137 91
137 133 90
125 115 74
140 132 86
135 125 81
138 127 82
140 132 87
138 134 90
134 126 84
140 136 91
137 131 87
137 128 82
136 128 84
147 141 93
146 142 94
148 145 98
131 122 81
134 127 85
131 122 81
130 118 76
141 133 88
135 129 85
141 133 88
135 130 87
135 122 78
140 132 87
134 127 84
139 130 84
130 120 79
139 132 87
131 118 76
145 138 91
140 127 81
135 123 79
125 112 72
140 129 82
132 118 74
140 130 84
147 139 91
131 119 76
147 139 91
138 124 78
141 133 87
138 126 81
145 134 87
141 131 85
140 128 82
142 132 87
135 123 79
149 138 88
143 132 84
141 131 85
144 134 87
147 135 86
151 144 94
144 130 81
135 116 71
147 136 87
149 138 90
143 132 84
143 129 81
134 121 77
146 135 86
129 112 70
138 126 81
144 131 82
137 123 77
141 129 82
143 131 84
144 131 84
144 136 90
144 132 85
147 137 88
147 134 86
138 124 79
145 135 87
151 139 88
147 138 90
146 134 85
151 142 93
132 113 67
141 126 78
139 121 74
150 138 87
141 126 79
141 122 73
151 139 87
144 126 78
136 124 78
137 122 76
146 134 85
132 123 80
136 126 82
139 127 82
143 131 84
139 127 82
140 131 85
126 109 66
138 128 82
144 136 88
131 119 77
139 129 84
148 138 90
131 118 76
135 123 79
137 126 82
141 130 84
134 124 80
144 133 85
140 126 78
136 123 76
143 131 82
146 136 87
141 127 79
145 128 78
144 130 82
148 138 90
145 162 175
136 151 167
141 158 174
152 170 189
142 158 175
151 169 191
141 158 174
143 159 180
140 156 175
132 148 163
143 160 178
136 153 169
139 156 175
137 154 174
135 151 170
141 158 177
141 158 179
141 158 177
140 157 175
139 156 176
144 162 181
144 162 183
144 162 183
136 154 172
141 159 178
136 153 172
146 164 185
140 158 177
141 159 179
145 164 186
149 169 191
144 163 184
142 160 180
157 178 205
148 167 188
135 152 168
156 177 201
140 158 179
146 164 188
135 154 172
148 167 189
149 170 194
136 155 174
146 166 189
140 158 177
143 162 183
149 169 193
152 173 196
147 168 194
148 168 191
148 169 194
145 166 190
144 163 187
145 166 188
154 176 204
146 167 191
152 174 200
139 159 180
140 159 182
148 170 195
150 172 196
145 166 190
138 158 179
147 169 195
144 165 190
145 167 193
142 163 188
145 166 192
138 158 182
145 167 193
144 167 192
134 154 176
143 165 191
146 168 195
143 165 191
142 163 189
140 162 187
133 153 173
142 163 188
145 168 195
142 164 192
138 160 185
140 161 187
151 175 204
137 158 181
144 167 193
143 167 194
143 167 194
137 159 187
142 164 188
139 161 188
140 164 191
140 162 185
137 159 185
138 159 183
131 152 175
132 153 172
133 155 177
129 150 171
121 139 159
123 143 162
133 155 177
133 156 179
136 158 182
138 161 184
124 144 161
131 153 178
132 154 178
140 162 189
130 150 170
141 164 188
133 153 175
138 160 186
141 163 190
138 160 184
143 165 192
128 148 169
136 157 182
153 177 206
134 155 174
123 141 155
133 153 168
147 169 191
135 153 169
138 157 176
142 162 181
126 143 157
149 168 188
134 150 165
148 164 182
183 200 222
211 230 255
211 230 255
211 230 255
211 230 255
211 230 255
211 230 255
210 230 255
210 230 255
210 230 255
210 229 255
210 229 255
210 229 255
210 229 255
210 229 255
210 229 255
210 229 255
210 229 255
210 229 255
210 229 255
210 229 255
210 229 255
210 229 255
210 229 255
210 229 255
210 229 255
210 229 255
210 229 255
210 229 255
210 229 255
210 229 255
210 229 255
210 229 255
210 229 255
193 212 241
96 114 154
50 80 141
47 74 133
48 77 131
47 75 134
51 81 141
46 72 129
42 67 121
48 76 130
43 68 120
50 80 140
44 71 127
44 71 129
47 75 131
52 82 146
47 75 131
43 70 125
50 80 141
48 76 133
45 73 126
46 73 125
49 77 133
51 82 142
48 76 127
46 74 128
51 80 138
48 76 134
50 79 134
47 74 130
45 72 124
49 79 133
46 73 115
45 71 130
47 76 129
48 75 122
38 60 96
43 68 117
49 78 131
42 67 113
46 74 129
44 70 113
45 72 123
48 77 136
50 79 133
49 78 141
45 72 127
45 71 121
49 77 132
46 73 129
46 72 125
42 67 117
47 75 128
49 78 131
45 72 122
44 71 130
45 71 119
44 69 116
48 75 130
42 67 107
42 67 117
48 77 135
44 70 119
40 65 108
45 70 124
45 71 121
48 76 134
45 72 126
51 79 141
42 66 116
90 111 159
199 218 245
210 229 255
210 229 255
210 229 255
210 229 255
210 229 255
210 229 255
210 229 255
210 229 255
210 229 255
210 229 255
210 229 255
210 229 255
210 229 255
210 229 255
210 229 255
210 229 255
210 229 255
210 229 255
210 229 255
210 229 255
210 229 255
210 229 255
210 229 255
210 229 255
210 230 255
210 230 255
210 230 255
211 230 255
211 230 255
211 230 255
211 230 255
211 230 255
211 230 255
180 183 187
149 137 91
141 128 82
137 124 79
143 135 88
126 118 77
131 123 80
138 130 85
133 126 84
135 129 85
132 123 81
133 128 85
144 141 95
118 110 72
137 131 87
131 120 77
133 123 81
141 128 81
130 122 81
134 125 82
138 131 87
131 119 76
150 143 94
125 111 69
139 127 78
133 127 84
129 123 81
132 123 79
133 127 84
137 131 87
135 128 85
139 127 82
133 123 81
134 126 84
137 130 87
141 137 93
139 133 88
138 131 87
148 142 94
133 118 74
146 141 94
147 143 96
147 141 94
132 117 73
138 127 80
142 133 87
130 120 77
140 128 81
144 135 87
132 119 74
137 125 79
134 122 79
138 126 79
138 127 81
142 134 87
138 127 81
144 133 86
144 133 84
143 133 85
148 139 91
135 123 79
138 123 77
136 122 77
139 130 84
137 124 79
142 132 85
141 126 79
136 121 76
148 137 88
141 131 85
142 126 79
147 135 86
148 134 84
133 117 72
143 127 79
144 126 79
139 126 82
147 136 87
146 136 87
148 135 87
143 133 87
139 126 79
136 120 76
142 127 79
146 134 87
137 121 76
145 134 87
147 138 90
144 132 84
143 132 84
141 124 76
140 122 76
144 131 84
141 126 79
138 127 81
139 123 76
148 137 88
147 135 86
146 131 81
148 134 84
155 142 90
150 138 88
143 132 84
147 133 83
150 137 87
134 121 77
136 125 80
136 121 76
148 138 90
145 132 85
125 113 72
137 124 79
128 112 70
134 121 77
140 129 84
135 122 77
148 136 88
131 123 80
138 129 84
137 125 80
137 122 77
139 127 82
150 138 88
146 133 83
139 126 78
143 134 87
144 129 81
135 121 76
138 123 74
142 130 82
129 118 76
146 162 180
144 161 177
154 172 190
145 161 182
147 164 182
142 159 179
145 162 182
144 160 181
149 166 187
129 144 161
129 144 159
138 155 174
142 158 174
138 154 173
138 154 173
126 141 152
136 152 169
126 140 156
136 153 168
145 163 184
128 144 158
133 149 168
140 157 176
133 149 166
127 142 159
151 170 190
133 150 167
141 159 179
152 171 193
136 153 172
152 172 194
149 168 190
144 162 181
151 170 194
151 171 193
152 172 194
148 167 189
143 162 182
136 154 174
139 156 176
139 156 176
145 165 185
144 163 184
149 169 194
143 162 184
149 170 193
153 175 201
138 156 174
144 164 185
145 164 188
143 162 183
149 170 196
150 170 195
154 175 202
145 165 191
148 169 194
136 154 176
150 171 199
155 177 205
150 172 196
146 167 190
142 163 187
138 157 175
139 160 183
147 169 196
140 160 184
142 163 189
145 166 189
143 164 188
144 165 190
138 158 181
145 167 194
143 164 189
142 163 186
138 159 182
147 170 199
141 162 186
149 172 199
143 164 191
145 168 195
143 165 190
138 158 183
146 169 196
140 161 184
143 166 194
146 169 197
145 168 196
140 162 189
149 173 203
146 169 199
141 163 189
143 165 190
141 164 193
132 153 176
136 156 179
137 159 183
143 165 193
138 161 185
144 167 193
143 167 195
134 156 180
145 169 197
128 147 168
134 156 182
138 161 186
137 160 185
137 159 180
146 170 198
140 163 190
134 155 175
140 162 188
127 147 167
132 153 173
135 156 181
143 165 191
143 166 193
135 156 181
130 150 171
137 157 178
138 159 181
135 156 178
140 161 186
139 159 177
140 161 182
140 160 179
130 149 166
131 149 165
122 138 151
141 158 177
152 170 193
150 166 187
188 205 228
211 230 255
211 230 255
211 230 255
211 230 255
211 230 255
211 230 255
211 230 255
211 230 255
211 230 255
211 230 255
211 230 255
211 230 255
211 230 255
210 230 255
210 230 255
210 229 255
210 229 255
210 229 255
210 229 255
210 229 255
210 229 255
210 229 255
210 229 255
210 229 255
210 229 255
210 229 255
210 229 255
210 229 255
210 229 255
210 229 255
210 229 255
198 217 244
83 103 149
43 69 122
38 61 115
43 68 119
48 75 130
43 68 121
50 79 134
48 76 132
48 76 134
42 68 124
44 69 122
51 80 146
50 80 139
40 65 114
47 75 130
45 72 129
46 73 126
46 74 121
45 73 125
46 73 128
51 80 135
45 71 116
43 69 115
42 67 114
49 78 137
48 76 134
49 78 140
46 74 131
49 77 126
43 68 116
50 78 136
47 75 129
48 76 135
47 74 128
40 64 105
43 68 113
47 75 132
43 68 112
46 73 124
46 72 122
47 75 121
49 78 133
41 66 119
49 77 126
48 76 135
52 82 141
46 72 119
47 75 130
51 81 141
51 80 140
49 77 129
47 74 127
45 73 126
48 76 132
47 75 131
44 69 111
45 71 118
50 79 132
44 69 116
43 67 105
47 73 125
51 81 147
43 68 114
44 69 116
46 70 117
49 77 136
50 78 137
50 78 137
44 69 119
45 71 127
40 65 117
77 101 153
199 218 244
210 229 255
210 229 255
210 229 255
210 229 255
210 229 255
210 229 255
210 229 255
210 229 255
210 229 255
210 229 255
210 229 255
210 229 255
210 229 255
210 229 255
210 229 255
210 229 255
210 230 255
210 230 255
210 230 255
211 230 255
211 230 255
211 230 255
211 230 255
211 230 255
211 230 255
211 230 255
211 230 255
211 230 255
211 230 255
211 230 255
211 230 255
172 169 161
143 126 77
151 137 87
141 128 81
133 123 80
125 114 74
142 132 87
136 127 84
134 124 81
143 136 90
126 115 74
135 127 84
149 144 95
137 132 88
133 123 79
140 137 91
137 123 78
143 138 93
142 130 83
128 117 76
130 118 76
147 139 90
133 123 79
135 124 78
134 125 81
138 132 87
134 122 76
140 132 86
142 136 90
145 135 87
143 136 88
147 142 94
146 141 94
136 133 90
150 144 95
136 126 84
128 119 79
143 135 90
143 137 91
137 126 82
144 130 84
147 137 88
149 142 93
147 138 90
143 133 86
139 131 84
141 128 82
138 126 81
142 135 88
134 123 78
142 132 85
141 131 85
143 132 84
137 123 78
143 132 84
140 132 87
143 127 79
137 122 77
142 131 84
149 141 91
129 113 70
143 132 85
142 134 87
141 129 84
148 136 88
136 124 81
148 135 87
138 130 85
142 128 82
146 133 85
144 130 82
147 139 91
135 115 69
147 135 87
139 121 74
148 135 86
147 133 85
140 125 78
143 129 82
150 136 86
137 118 72
140 123 77
150 138 88
144 130 82
142 133 87
148 134 85
148 132 82
145 131 82
144 132 84
144 129 81
152 142 91
139 126 81
149 137 87
141 123 76
142 126 78
143 128 81
132 118 74
142 129 82
145 128 78
137 122 77
146 135 87
143 128 79
143 127 78
144 127 79
151 133 80
141 123 74
137 127 82
142 130 84
140 126 81
131 115 72
147 136 88
140 126 81
139 123 77
136 121 76
136 121 76
132 119 76
144 135 88
145 132 84
129 116 74
138 125 80
144 129 82
137 127 82
137 125 81
141 132 85
135 121 76
139 125 78
150 133 80
138 123 76
136 123 77
149 137 87
152 140 90
146 135 85
141 157 172
150 167 185
151 168 187
149 166 183
150 168 186
150 166 187
143 159 178
151 169 188
138 154 171
152 169 189
136 152 171
143 160 180
148 166 186
150 168 190
140 157 173
143 160 178
137 154 173
144 161 180
145 162 182
154 173 195
138 154 171
137 154 172
146 164 183
137 154 170
142 160 181
145 163 184
146 164 187
146 165 187
147 165 183
147 166 189
146 165 185
137 155 174
148 167 187
147 166 187
146 165 185
139 158 175
148 167 189
143 161 180
143 161 181
145 165 183
157 178 202
150 170 192
150 169 191
148 167 189
151 170 194
138 155 177
149 168 191
152 172 196
146 166 192
145 164 186
148 168 192
146 167 191
146 166 189
147 167 191
147 166 190
151 172 199
150 172 198
153 175 201
141 162 186
146 166 190
144 164 189
140 160 181
145 165 188
149 172 198
138 157 177
149 170 196
134 153 174
144 165 190
145 166 192
143 164 188
143 163 188
146 168 195
148 169 193
148 169 194
146 169 196
146 168 197
148 170 197
148 171 199
138 158 182
141 162 187
141 163 189
138 159 183
142 163 190
142 164 191
134 155 176
141 164 191
145 168 197
141 163 186
135 155 178
140 162 186
143 165 190
134 155 181
133 153 174
136 157 179
138 159 183
139 161 187
145 168 196
148 172 201
128 148 171
143 165 193
143 166 192
149 172 201
134 154 175
128 148 168
133 155 177
139 162 187
145 169 197
140 163 190
144 167 192
133 154 178
144 167 196
139 161 187
143 166 192
135 156 180
140 162 185
137 158 180
136 157 180
142 164 189
135 156 178
144 166 193
149 172 201
143 165 190
139 160 185
127 145 160
141 162 184
142 162 179
122 138 150
144 163 182
136 154 172
136 153 172
158 176 199
156 173 194
181 197 220
211 230 255
211 230 255
211 230 255
211 230 255
211 230 255
211 230 255
211 230 255
211 230 255
211 230 255
211 230 255
211 230 255
211 230 255
211 230 255
211 230 255
211 230 255
211 230 255
211 230 255
211 230 255
211 230 255
210 230 255
210 230 255
210 230 255
210 230 255
210 229 255
210 229 255
210 229 255
210 229 255
210 229 255
210 229 255
200 218 244
93 112 151
43 68 124
49 78 141
44 70 118
42 67 120
45 71 128
44 70 121
45 71 128
46 73 125
49 78 134
49 78 139
45 70 114
44 69 118
42 67 120
46 74 134
51 81 133
46 74 129
43 68 123
46 73 129
51 80 136
48 76 132
51 80 146
46 73 125
47 75 126
46 72 125
53 83 151
46 74 133
51 82 141
52 82 145
50 79 139
45 71 118
45 72 126
47 74 130
47 74 121
43 68 115
46 73 123
46 72 119
44 70 109
46 72 124
45 72 128
46 73 125
50 79 139
45 71 121
44 69 120
43 68 123
46 73 122
41 65 112
47 74 127
49 77 129
40 63 110
50 78 132
51 81 140
45 71 120
51 82 141
46 74 124
51 80 143
45 71 119
45 72 123
49 77 136
45 71 124
46 73 122
43 68 113
53 83 143
46 72 123
45 71 124
46 73 124
47 74 130
48 75 133
43 67 108
45 72 129
41 64 108
47 75 134
44 68 120
99 119 163
202 221 247
210 229 255
210 229 255
210 229 255
210 229 255
210 229 255
210 229 255
210 230 255
210 230 255
210 230 255
210 230 255
211 230 255
211 230 255
211 230 255
211 230 255
211 230 255
211 230 255
211 230 255
211 230 255
211 230 255
211 230 255
211 230 255
211 230 255
211 230 255
211 230 255
211 230 255
211 230 255
211 230 255
211 230 255
211 230 255
181 184 181
153 136 85
145 133 85
137 122 77
132 123 80
137 126 82
134 125 82
138 128 84
141 135 90
144 138 91
129 121 79
130 121 77
136 127 81
136 127 81
139 132 86
142 136 90
121 108 68
142 136 90
144 137 89
138 129 84
140 131 85
137 125 79
137 125 79
147 140 91
144 138 91
143 138 91
137 129 85
138 128 82
134 126 84
140 133 88
145 139 91
144 133 85
137 128 84
148 139 90
150 146 97
148 140 91
135 128 84
151 146 97
136 128 84
143 134 88
144 136 90
145 137 90
140 131 85
142 133 86
142 132 87
136 125 81
134 120 76
138 125 79
133 117 74
143 134 88
144 135 88
142 129 81
143 133 85
139 123 76
134 120 76
139 127 81
137 120 74
144 134 87
141 129 82
140 126 79
138 121 76
141 129 82
142 129 82
141 130 84
136 121 76
145 132 85
143 130 84
141 131 85
151 138 88
145 133 85
143 129 82
144 135 88
144 130 81
145 131 82
151 141 90
147 138 90
145 132 83
140 128 81
151 136 86
148 132 82
145 130 82
132 117 72
146 135 87
149 135 85
149 136 86
139 123 77
140 122 76
145 129 81
136 120 74
153 142 91
139 119 71
146 128 79
139 122 76
148 132 82
134 113 67
147 133 84
145 128 79
147 132 82
140 127 81
138 121 74
139 129 84
141 127 81
140 127 81
151 139 87
142 126 79
144 124 74
140 125 79
139 124 79
136 124 79
137 122 77
130 116 74
155 145 94
148 135 87
136 123 79
150 142 93
138 126 81
147 135 87
145 134 87
147 137 88
126 114 74
141 129 82
136 123 79
143 131 84
133 121 77
149 136 86
156 144 91
128 111 68
143 129 81
149 137 86
137 124 77
135 119 72
134 117 71
146 131 80
156 173 193
158 175 197
147 163 181
150 167 184
152 169 191
153 170 190
145 161 181
155 173 192
142 158 173
152 169 190
137 152 172
141 158 176
133 148 164
134 150 166
131 146 161
154 172 193
141 158 177
139 155 173
151 169 192
146 163 181
146 164 185
152 170 192
147 164 186
139 156 174
138 155 175
151 170 190
144 162 181
147 166 186
140 157 175
148 167 186
144 162 182
150 169 190
142 160 179
146 165 187
145 163 183
149 168 188
146 165 187
143 162 182
144 161 177
149 168 188
155 175 199
153 173 196
152 172 194
141 159 180
148 167 187
154 174 199
155 176 202
149 169 192
151 172 195
149 169 192
151 172 197
145 165 190
143 162 186
156 178 205
150 171 197
155 177 202
148 168 191
149 169 193
151 171 196
145 165 187
155 176 202
145 166 189
145 164 188
137 157 178
140 160 182
151 172 198
145 165 189
147 168 193
139 158 179
155 178 205
137 156 176
144 164 189
138 159 183
149 171 196
144 164 190
143 163 187
143 165 192
144 165 190
145 167 193
137 157 180
143 165 190
142 163 189
145 168 196
143 164 190
142 164 191
136 157 181
137 159 184
148 171 199
141 163 189
138 159 183
137 158 183
133 153 174
143 165 192
140 163 190
148 172 201
142 163 191
136 157 180
144 166 194
144 167 193
134 154 176
140 161 186
142 164 190
140 161 184
132 152 175
135 156 178
132 152 175
137 159 184
142 165 193
137 159 184
134 155 174
137 158 174
135 155 177
141 164 188
142 164 189
136 156 175
139 160 182
128 147 168
131 151 173
145 167 191
141 162 185
147 169 195
140 161 183
133 153 176
132 152 169
138 158 177
134 153 171
135 153 171
142 162 182
135 153 171
138 156 175
146 165 185
144 160 179
150 166 185
186 203 225
211 230 255
211 230 255
211 230 255
211 230 255
211 230 255
211 230 255
211 230 255
211 230 255
211 230 255
211 230 255
211 230 255
211 230 255
211 230 255
211 230 255
211 230 255
211 230 255
211 230 255
211 230 255
211 230 255
211 230 255
211 230 255
211 230 255
211 230 255
211 230 255
211 230 255
211 230 255
211 230 255
206 225 250
97 114 156
47 74 124
48 76 136
45 72 132
49 77 138
42 67 121
48 76 133
46 72 124
49 77 138
46 73 126
47 75 131
46 74 127
48 76 130
44 71 127
50 80 139
47 74 128
48 76 124
44 71 121
47 74 118
49 77 132
47 73 127
45 71 126
47 76 136
50 79 138
50 79 133
50 79 136
47 75 119
44 71 107
46 73 122
45 71 117
45 73 128
50 79 141
44 70 116
51 80 140
47 76 129
43 70 113
48 76 123
47 74 129
47 75 126
47 74 126
45 72 122
42 67 115
45 72 116
42 66 106
47 75 122
44 69 115
48 76 128
47 74 124
41 66 112
44 69 116
49 77 132
47 75 122
48 75 131
52 82 145
47 74 126
48 76 132
46 71 124
48 76 133
43 69 122
49 78 133
49 77 125
48 75 127
51 82 139
49 76 126
41 64 112
49 78 132
42 68 120
41 65 110
41 65 112
44 66 108
45 70 127
53 85 147
40 65 118
45 71 123
46 72 122
87 102 133
206 225 250
211 230 255
211 230 255
211 230 255
211 230 255
211 230 255
211 230 255
211 230 255
211 230 255
211 230 255
211 230 255
211 230 255
211 230 255
211 230 255
211 230 255
211 230 255
211 230 255
211 230 255
211 230 255
211 230 255
211 230 255
211 230 255
211 230 255
211 230 255
211 230 255
211 230 255
211 230 255
211 230 255
181 183 176
158 144 91
150 138 88
134 121 77
131 123 80
147 136 88
134 125 82
132 126 84
138 128 84
132 122 79
136 128 84
150 145 96
139 129 82
137 128 83
144 136 89
142 129 82
131 120 77
135 128 85
141 132 85
137 130 85
143 137 90
135 127 82
141 134 87
138 128 81
146 137 89
140 130 84
131 122 79
138 129 84
136 129 84
138 127 82
143 135 88
132 123 81
145 136 88
148 138 91
139 132 87
142 134 88
138 133 88
143 136 90
133 118 74
141 134 88
138 128 84
143 134 86
141 127 81
145 133 84
145 139 93
148 140 93
135 124 81
133 118 76
139 125 79
135 122 76
137 126 81
140 127 81
137 122 77
132 115 71
139 127 81
136 121 76
144 130 82
148 135 86
141 132 85
149 139 90
142 131 84
147 135 87
147 139 91
141 130 84
149 137 88
140 126 81
141 127 81
140 129 84
141 129 84
139 125 79
137 125 81
143 128 81
151 138 88
145 131 84
143 125 77
153 141 90
144 132 85
137 120 74
148 133 84
139 124 77
150 141 90
143 128 81
150 137 87
144 127 79
143 125 77
136 123 79
148 133 84
155 142 91
141 120 72
148 136 88
143 128 79
150 139 90
152 140 90
151 137 87
150 137 87
144 127 79
136 118 72
152 137 86
147 134 85
145 128 79
147 134 85
150 139 90
154 141 89
130 115 71
149 137 88
151 136 86
141 127 81
142 126 78
145 128 79
147 131 82
136 118 74
140 125 79
145 133 85
145 133 85
143 130 84
151 138 88
130 116 74
136 120 76
142 130 84
136 119 74
138 123 77
145 130 82
143 129 82
138 124 79
148 138 90
140 125 79
158 146 91
146 128 76
150 133 82
146 132 82
145 131 81
150 139 88
137 123 76
141 125 76
156 173 192
155 173 192
141 157 173
154 171 191
157 174 196
150 167 186
150 167 187
151 168 187
146 163 183
132 147 162
146 162 183
138 154 171
145 161 180
140 155 174
138 154 168
147 164 181
143 159 178
141 157 175
145 162 182
148 166 187
147 163 184
140 157 175
145 162 182
141 158 176
135 152 170
142 160 179
149 167 187
150 168 190
157 176 198
143 161 182
147 165 184
140 157 175
153 171 194
155 175 197
141 159 179
146 164 182
148 167 185
148 167 187
140 158 175
151 171 192
144 162 185
141 159 178
153 172 196
147 165 187
152 172 196
153 173 196
148 168 190
154 175 198
151 170 194
141 160 180
145 164 187
145 164 185
148 168 192
149 170 194
154 175 200
145 166 190
154 176 202
153 174 200
149 169 192
145 164 186
151 172 198
139 157 178
148 169 194
159 182 211
150 171 197
148 169 193
145 166 189
142 161 185
152 174 202
145 165 190
146 166 190
145 165 191
146 167 194
147 168 195
147 169 197
143 164 191
143 163 187
135 155 176
151 174 202
146 168 196
140 162 188
138 159 185
150 173 200
141 162 185
147 169 197
134 155 177
142 164 187
142 163 188
144 167 195
142 163 190
149 171 200
138 159 182
138 160 183
134 154 176
141 163 191
137 157 181
137 159 184
133 153 175
131 151 175
143 164 189
146 168 195
146 169 196
140 162 186
142 164 190
135 155 175
134 154 176
139 161 188
140 161 185
135 155 176
140 162 187
140 162 187
149 172 200
139 161 186
143 164 188
134 155 174
131 150 169
150 173 199
139 160 185
128 148 167
147 170 196
145 167 192
140 161 185
137 157 179
142 163 185
144 165 188
141 161 181
136 155 173
142 160 179
130 147 158
122 138 146
138 155 168
134 150 166
143 159 177
152 168 187
185 202 225
212 230 255
212 230 255
212 230 255
212 230 255
211 230 255
211 230 255
211 230 255
211 230 255
211 230 255
211 230 255
211 230 255
211 230 255
211 230 255
211 230 255
211 230 255
211 230 255
211 230 255
211 230 255
211 230 255
211 230 255
211 230 255
211 230 255
211 230 255
211 230 255
211 230 255
211 230 255
120 137 172
47 74 137
49 77 137
43 69 116
47 75 129
45 71 130
51 81 140
40 64 113
45 71 112
44 71 118
48 75 133
44 71 123
49 77 132
46 72 120
50 78 136
42 67 114
45 72 132
46 73 122
45 71 120
44 70 116
42 68 119
50 78 131
43 69 119
43 69 124
45 72 124
50 78 128
47 73 131
45 71 115
54 85 143
42 67 115
45 71 120
46 73 121
48 76 137
47 73 121
47 74 119
47 74 125
48 76 123
45 71 124
46 72 121
46 73 123
50 79 139
45 70 113
45 72 118
47 73 124
47 74 127
46 73 116
44 70 120
49 77 126
40 63 106
47 73 131
47 74 124
44 69 117
53 83 143
44 69 114
48 76 127
47 74 129
49 77 134
47 75 128
52 81 142
44 71 113
47 73 121
51 81 140
41 64 108
49 78 132
46 72 126
45 70 116
44 70 119
48 76 133
43 68 115
44 68 114
44 69 114
49 77 131
48 76 125
43 67 116
41 65 108
42 66 112
40 64 114
95 111 147
211 230 255
211 230 255
211 230 255
211 230 255
211 230 255
211 230 255
211 230 255
211 230 255
211 230 255
211 230 255
211 230 255
211 230 255
211 230 255
211 230 255
211 230 255
211 230 255
211 230 255
211 230 255
211 230 255
211 230 255
211 230 255
211 230 255
212 230 255
212 230 255
212 230 255
212 230 255
177 177 175
153 138 85
150 142 93
145 136 88
134 124 80
123 111 72
125 111 70
144 137 90
135 125 82
144 136 88
138 131 85
138 130 85
147 141 93
138 128 82
148 140 91
144 135 87
136 128 84
136 128 84
137 130 85
139 132 87
141 133 86
139 131 85
141 127 78
151 144 93
143 135 87
137 127 81
136 123 79
137 126 81
140 132 86
142 138 93
146 134 86
145 136 88
149 141 92
148 139 90
148 142 94
139 130 85
136 126 81
141 131 84
149 143 95
133 121 77
148 141 93
143 137 90
150 142 92
152 143 93
139 130 84
143 136 90
147 138 90
132 119 76
136 122 76
141 127 79
131 114 70
143 130 82
138 122 76
148 138 89
145 134 85
136 120 74
143 132 84
146 138 90
141 130 84
148 139 90
141 129 82
147 136 87
139 127 82
144 131 83
141 126 79
138 121 74
146 134 85
144 131 82
147 134 85
146 135 87
141 127 81
137 119 74
148 139 90
146 131 82
144 134 87
139 126 81
149 136 86
151 138 87
138 117 69
142 123 74
147 129 79
139 122 76
149 134 84
154 142 90
144 128 79
154 144 93
140 123 76
144 129 81
145 129 81
142 126 79
152 141 91
150 136 86
127 110 68
145 130 82
143 127 79
143 123 74
144 128 79
144 128 79
153 139 88
140 120 72
153 141 90
140 122 74
144 129 81
143 127 79
154 141 90
137 117 69
156 142 90
149 133 84
150 134 82
138 121 76
148 133 84
150 138 88
138 121 76
140 129 82
151 140 91
128 112 70
145 131 84
145 132 84
136 121 76
131 115 72
128 112 70
136 120 76
139 123 77
135 123 79
143 128 81
145 134 87
139 128 82
153 138 86
146 131 81
155 144 93
153 138 86
150 132 79
152 140 87
152 138 86
142 128 79
153 170 189
140 155 174
149 165 182
155 172 194
160 178 199
153 170 191
157 175 196
156 174 194
141 156 174
148 164 183
143 159 178
136 152 168
147 163 184
147 163 182
133 148 164
147 163 184
151 168 189
135 150 166
144 160 179
145 162 181
142 159 177
144 161 180
147 165 184
139 156 173
140 157 172
154 172 193
144 162 180
150 169 188
148 166 185
153 172 191
152 170 193
135 152 168
149 168 189
153 172 194
144 162 181
152 172 194
153 172 194
148 167 188
153 172 196
154 174 195
132 148 164
136 153 173
146 165 185
144 162 183
145 163 185
150 169 193
148 167 187
157 177 203
150 169 193
148 168 191
161 183 210
147 166 189
141 159 181
149 169 194
150 171 194
154 174 199
147 167 188
149 168 190
149 169 195
144 164 187
144 163 185
145 165 188
142 162 186
140 159 180
150 171 196
139 158 181
149 170 197
146 167 191
148 170 195
140 159 182
149 169 195
139 158 181
143 163 189
146 166 192
148 169 195
141 162 189
143 164 189
151 173 200
146 167 192
140 160 184
145 167 194
146 167 193
142 162 188
139 160 186
142 164 190
144 165 192
145 167 193
146 169 197
142 163 189
143 164 190
142 164 189
140 160 184
141 163 186
140 161 186
140 162 188
155 179 210
142 164 190
149 172 201
147 169 196
128 146 165
134 154 180
145 166 190
149 172 199
144 166 192
143 165 190
143 165 189
141 161 183
132 152 176
146 168 194
144 166 190
136 156 180
147 171 198
145 167 193
141 163 189
142 163 188
139 161 183
144 166 190
144 165 191
131 151 173
132 151 172
147 169 195
141 161 183
140 160 181
139 160 182
139 159 179
132 151 174
134 153 173
137 155 172
142 161 181
137 156 172
127 143 153
137 154 171
141 158 177
147 163 183
143 158 173
191 208 230
212 230 255
212 230 255
212 230 255
212 230 255
212 230 255
212 230 255
212 230 255
212 230 255
212 230 255
212 230 255
212 230 255
211 230 255
211 230 255
211 230 255
211 230 255
211 230 255
211 230 255
211 230 255
211 230 255
211 230 255
211 230 255
211 230 255
211 230 255
211 230 255
136 155 195
46 74 135
42 66 117
43 69 123
46 74 131
45 71 130
43 69 118
48 75 132
48 76 128
46 73 134
43 69 118
40 63 102
44 70 119
44 71 121
52 83 137
47 74 120
45 70 122
45 72 126
45 72 130
50 78 137
50 79 141
47 74 127
43 67 120
45 70 121
46 72 129
45 72 124
46 73 131
44 70 115
47 74 125
45 72 114
51 81 127
45 73 128
48 75 133
42 66 116
48 76 119
50 79 133
53 84 139
40 63 111
46 72 122
46 74 121
43 68 119
48 76 130
44 69 104
52 81 144
49 77 134
45 72 127
48 76 130
45 71 117
47 75 122
49 78 130
44 71 115
42 68 113
45 71 121
46 73 130
46 73 129
42 67 109
51 81 132
47 73 125
43 68 118
39 60 103
47 74 127
46 73 122
44 70 122
50 78 135
47 75 119
48 76 130
51 81 137
45 71 117
48 76 127
45 72 128
41 64 109
49 77 129
47 74 120
44 69 117
45 70 118
46 72 118
35 56 103
34 55 95
40 64 112
147 164 194
211 230 255
211 230 255
211 230 255
211 230 255
211 230 255
211 230 255
211 230 255
211 230 255
211 230 255
211 230 255
211 230 255
211 230 255
212 230 255
212 230 255
212 230 255
212 230 255
212 230 255
212 230 255
212 230 255
212 230 255
212 230 255
212 230 255
212 230 255
212 230 255
191 199 207
158 146 94
144 131 82
134 125 82
131 120 77
135 124 80
138 131 87
123 109 70
141 131 85
141 134 88
134 125 81
145 137 90
141 130 83
143 134 87
149 141 93
139 129 84
147 138 90
136 126 82
135 122 78
137 127 82
144 135 87
127 113 69
138 127 79
149 143 94
144 137 89
139 125 76
144 138 90
141 130 84
137 125 79
136 126 82
143 133 87
149 140 91
147 137 88
143 135 88
138 126 81
148 145 97
153 149 98
144 133 85
138 129 84
144 137 90
139 128 82
139 130 85
142 134 88
145 138 91
147 138 89
143 134 87
138 130 85
146 141 94
144 131 83
148 139 90
137 124 79
136 121 76
136 120 76
144 136 88
143 129 81
140 128 81
143 131 84
138 127 82
140 124 77
147 134 85
149 142 93
147 135 87
144 131 83
135 115 69
141 128 82
146 133 85
152 141 90
143 128 81
138 118 72
144 134 86
145 131 82
145 132 84
149 137 88
149 137 87
144 131 82
155 145 94
148 134 85
133 118 74
142 126 79
153 142 91
146 131 82
155 145 94
149 132 82
159 149 96
144 126 78
143 128 81
147 133 84
151 136 85
145 128 79
150 135 87
157 144 91
154 139 88
151 136 84
140 124 78
147 132 84
144 130 82
144 126 78
147 127 78
147 131 81
141 122 74
149 134 83
134 112 67
136 118 74
143 128 81
151 137 86
146 134 85
144 128 78
143 127 78
144 125 76
148 134 84
147 133 84
154 140 88
141 126 79
148 132 82
141 128 81
141 128 82
148 138 90
148 127 77
149 138 88
139 128 82
154 138 87
141 125 79
145 129 81
155 141 90
156 143 91
136 118 74
144 130 82
143 128 81
147 131 81
149 133 82
150 134 82
158 143 89
157 141 87
150 137 86
140 127 78
154 138 84
153 170 189
155 172 193
162 180 201
148 163 182
158 175 197
155 173 192
147 163 183
159 176 198
136 150 167
151 168 189
147 163 183
141 156 173
149 165 185
154 171 192
156 174 195
156 174 195
141 157 175
146 162 180
139 155 172
138 154 169
146 164 184
142 158 178
142 158 177
145 162 180
147 164 182
152 170 189
154 172 193
146 163 183
151 169 192
157 176 198
151 170 189
147 165 186
143 160 174
148 167 186
142 159 178
146 165 186
150 168 189
154 173 195
146 163 183
144 162 179
159 179 203
155 175 197
144 162 182
147 165 188
151 171 192
151 171 195
154 173 197
150 170 192
153 173 199
146 165 187
151 171 195
157 178 203
143 161 184
150 169 192
145 163 186
150 170 194
149 169 192
151 170 194
146 165 189
147 167 190
155 177 203
151 171 194
141 160 182
148 168 192
142 161 182
138 157 179
136 154 174
135 154 175
152 173 199
143 163 186
137 155 178
146 166 191
146 166 191
150 172 197
144 165 188
142 161 184
148 169 194
153 175 203
156 179 207
142 162 184
145 166 191
143 164 188
146 167 193
144 164 190
149 171 197
145 166 192
145 167 193
149 172 201
143 165 190
143 164 190
146 168 194
144 164 189
140 160 185
142 163 187
138 159 182
137 157 180
132 151 171
137 157 181
144 165 190
146 167 194
149 172 199
140 160 183
139 160 184
145 166 192
142 163 190
148 170 197
140 162 187
143 164 189
139 160 182
141 161 184
150 172 200
141 161 182
149 171 196
145 167 193
137 158 182
139 159 181
139 159 182
148 171 197
141 162 185
145 166 190
141 161 182
142 163 183
148 169 194
149 170 196
138 157 178
143 163 186
143 163 186
128 146 164
130 147 166
132 150 166
148 168 190
122 138 147
127 143 153
143 160 178
146 162 182
149 164 181
183 200 221
212 230 255
212 230 255
212 230 255
212 230 255
212 230 255
212 230 255
212 230 255
212 230 255
212 230 255
212 230 255
212 230 255
212 230 255
212 230 255
212 230 255
212 230 255
212 230 255
212 230 255
212 230 255
212 230 255
212 230 255
211 230 255
211 230 255
169 188 220
44 69 126
46 73 130
41 66 111
46 73 128
50 78 126
45 71 121
47 76 133
41 65 109
44 70 117
37 59 103
47 75 127
49 78 138
54 85 142
45 72 130
50 78 127
48 76 124
49 78 139
40 64 113
47 74 121
47 75 135
46 73 119
41 65 103
47 74 125
42 66 116
48 75 131
46 73 121
47 74 127
43 69 112
45 72 122
52 83 140
50 78 134
46 73 119
43 69 115
51 81 137
49 76 123
51 79 134
45 71 122
47 74 125
49 76 124
52 82 140
42 66 107
46 72 119
48 76 122
44 71 119
43 68 111
44 70 119
47 73 126
46 73 120
44 70 120
50 80 134
44 70 116
46 72 112
47 74 123
47 74 127
45 71 123
51 79 132
47 75 121
50 79 126
43 67 112
45 71 119
43 68 106
47 74 125
47 74 125
45 72 122
48 76 129
47 74 125
49 77 131
42 67 114
48 74 128
41 65 114
43 68 108
43 67 116
41 65 112
43 68 113
45 71 118
44 70 124
43 68 114
48 76 128
47 73 128
46 71 124
125 142 175
211 230 255
211 230 255
211 230 255
212 230 255
212 230 255
212 230 255
212 230 255
212 230 255
212 230 255
212 230 255
212 230 255
212 230 255
212 230 255
212 230 255
212 230 255
212 230 255
212 230 255
212 230 255
212 230 255
212 230 255
212 230 255
212 230 255
198 209 223
145 127 78
150 134 84
149 141 93
126 117 75
142 129 82
145 136 90
124 113 74
140 133 88
140 131 85
143 136 90
130 114 69
141 128 81
137 126 81
141 125 76
140 133 87
144 135 88
142 138 91
141 134 87
136 123 76
150 143 93
141 129 82
150 140 90
134 118 72
145 138 90
136 124 79
143 136 90
146 139 90
139 125 79
141 134 88
145 140 93
150 145 97
146 139 91
145 138 91
146 136 88
149 143 94
148 136 87
132 114 70
147 139 90
142 132 85
145 136 89
149 142 93
141 130 84
142 129 81
144 132 84
138 128 82
148 140 91
142 129 82
145 136 89
150 141 91
137 125 79
145 134 86
140 126 79
142 133 87
142 132 85
135 122 76
138 126 81
147 135 86
143 129 81
142 131 85
150 134 84
144 134 87
148 133 84
140 124 77
141 127 81
136 118 71
142 128 82
141 128 81
152 141 89
140 124 78
149 136 86
151 139 89
141 128 82
145 132 84
150 135 85
138 122 77
144 131 84
144 128 81
154 140 87
133 114 70
142 123 74
145 131 82
148 136 86
141 122 74
150 135 85
152 138 87
143 131 84
147 133 84
151 137 87
149 135 84
150 133 82
153 138 87
154 144 93
147 131 79
147 130 81
147 130 81
141 122 74
145 129 79
140 121 76
149 131 81
151 136 85
138 119 71
152 136 84
159 148 95
147 132 82
147 133 84
151 138 87
145 130 81
153 139 87
145 125 76
153 137 84
150 136 85
145 130 82
146 132 82
147 134 85
139 118 70
138 121 76
154 141 90
151 140 90
143 127 79
145 131 82
154 140 88
145 131 82
146 132 84
142 119 70
138 123 77
148 131 82
139 128 82
141 124 77
156 139 84
152 137 85
142 127 79
158 142 87
155 141 88
149 133 82
138 119 71
146 132 82
152 169 188
154 171 189
154 170 189
155 172 191
156 173 194
140 155 173
150 167 185
151 167 186
139 154 170
137 151 168
148 165 182
154 170 191
139 154 172
139 153 169
146 162 181
146 162 180
159 177 199
150 167 185
138 154 169
151 168 187
157 175 196
146 163 182
146 163 182
147 164 186
140 156 175
150 167 189
154 171 193
149 167 186
145 162 180
154 172 192
152 171 192
148 166 185
148 166 187
140 157 176
162 182 205
150 168 190
147 165 185
155 173 196
158 177 201
147 165 186
146 164 184
152 171 194
153 172 195
153 172 193
142 159 178
146 164 185
151 170 192
151 170 194
143 161 182
152 172 195
143 162 182
144 163 184
146 165 188
157 178 203
161 183 211
148 167 189
146 165 187
148 168 190
143 161 185
151 171 195
153 173 198
152 172 197
150 171 196
143 162 186
147 167 192
147 166 190
151 172 198
148 167 190
151 172 199
145 165 188
144 164 189
138 156 178
143 163 187
144 164 189
146 167 192
141 160 183
144 164 189
143 161 185
142 161 186
139 159 183
149 170 197
143 163 188
144 164 189
144 164 188
149 171 198
146 168 196
148 170 197
152 174 203
143 165 191
142 163 187
131 150 171
138 157 179
144 165 191
140 160 184
141 162 184
145 167 194
141 162 187
134 154 175
144 166 192
144 165 190
139 159 182
136 155 179
152 175 203
143 164 188
147 169 196
144 165 190
139 159 183
144 165 192
151 174 203
147 168 194
141 162 186
156 180 209
142 163 188
145 167 194
144 165 190
147 168 191
145 167 191
133 152 170
144 165 189
138 159 175
131 150 168
147 168 194
139 159 181
137 156 177
143 163 187
140 159 180
134 153 172
136 154 177
144 164 186
130 147 162
135 152 169
135 152 166
138 155 170
118 132 142
140 156 171
136 151 167
148 162 179
203 221 245
212 231 255
212 231 255
212 231 255
212 231 255
212 230 255
212 230 255
212 230 255
212 230 255
212 230 255
212 230 255
212 230 255
212 230 255
212 230 255
212 230 255
212 230 255
212 230 255
212 230 255
212 230 255
212 230 255
212 230 255
184 202 230
52 76 129
47 74 130
41 65 114
43 68 116
45 73 131
50 79 132
51 80 135
49 78 136
41 65 115
46 73 128
48 76 129
47 75 126
45 72 118
47 75 128
45 71 126
46 73 127
44 70 122
45 71 118
39 61 95
39 62 104
46 72 120
45 72 124
48 75 130
46 72 127
48 76 129
43 67 106
41 65 113
48 76 127
51 81 140
44 70 120
41 65 104
44 70 110
47 74 127
48 76 130
49 78 134
43 69 112
48 75 117
46 72 123
44 69 111
48 76 127
45 72 116
55 87 147
46 72 119
44 69 113
50 78 129
52 81 138
42 66 109
43 68 117
47 75 119
48 76 130
42 66 109
43 68 113
45 71 121
46 73 125
50 80 135
42 68 120
45 71 116
49 77 130
53 84 145
53 82 140
45 70 119
47 74 126
48 77 130
49 78 122
47 74 126
51 80 133
47 73 115
44 69 117
48 75 124
48 76 118
43 66 111
47 75 124
36 56 85
43 67 111
39 60 98
44 69 118
45 71 124
44 69 118
38 60 101
43 67 117
50 78 133
55 80 126
185 202 226
212 230 255
212 230 255
212 230 255
212 230 255
212 230 255
212 230 255
212 230 255
212 230 255
212 230 255
212 230 255
212 230 255
212 230 255
212 230 255
212 230 255
212 230 255
212 231 255
212 231 255
212 231 255
212 231 255
212 231 255
199 210 222
156 140 104
144 127 76
143 133 87
137 126 81
140 129 84
129 121 79
126 118 77
136 126 82
128 114 72
132 123 79
143 133 85
142 133 86
145 133 84
152 147 98
129 115 72
143 133 85
140 132 86
146 138 91
140 128 81
148 138 90
152 141 90
145 137 90
145 137 88
131 120 76
140 131 85
140 129 82
141 128 81
141 128 82
142 128 81
152 144 95
149 142 93
138 126 79
142 132 85
144 133 84
146 135 87
155 151 101
143 131 85
152 143 94
148 139 91
147 138 89
140 129 82
146 136 88
151 146 97
136 128 84
150 144 95
142 132 85
152 145 94
145 135 87
154 148 97
142 130 83
145 135 87
149 136 84
143 127 76
144 131 84
144 130 82
144 135 88
143 130 81
147 137 88
144 129 79
139 124 77
141 123 74
144 132 85
141 130 82
140 127 81
141 128 81
148 140 91
147 136 88
149 135 86
145 130 81
142 129 82
137 121 76
147 128 79
150 137 87
145 129 81
143 129 82
148 133 84
140 123 77
136 121 77
149 133 84
143 129 82
150 136 85
149 134 84
155 142 90
150 133 81
148 130 81
152 141 90
150 137 87
155 141 87
146 129 79
150 136 87
139 123 76
146 128 78
146 131 81
149 132 81
148 133 83
150 134 83
147 134 85
139 120 72
142 124 77
151 132 81
151 135 84
147 130 81
152 135 84
150 135 85
141 123 76
151 135 84
152 137 86
156 139 86
147 129 78
153 139 87
152 134 82
145 130 81
150 136 85
145 126 77
142 126 79
149 135 84
143 118 69
146 134 85
159 145 93
149 139 90
141 125 77
149 135 85
141 124 77
144 127 79
144 127 79
131 117 74
138 119 72
138 119 72
144 130 82
145 129 79
145 128 79
149 134 83
149 130 79
147 129 78
159 147 94
152 140 88
156 140 86
149 164 180
144 158 175
147 163 181
130 143 155
141 156 171
152 169 189
150 166 183
152 168 188
142 157 174
153 169 190
148 164 181
147 164 181
148 165 183
154 171 192
156 173 193
141 156 173
142 158 172
142 159 174
149 166 184
145 161 179
150 166 183
143 160 178
153 171 191
147 163 183
154 172 194
141 157 175
156 175 195
152 169 188
144 160 175
148 166 184
153 171 194
161 180 205
146 163 184
155 173 197
151 168 190
150 167 189
144 162 177
150 168 189
145 163 182
149 166 186
147 164 186
148 166 186
154 173 198
152 171 192
147 164 186
148 166 186
151 170 192
150 169 191
148 167 190
146 164 184
139 156 176
147 166 188
148 167 190
151 170 193
142 159 179
148 168 192
144 162 183
151 171 193
149 168 192
142 160 181
146 165 186
153 174 198
148 167 189
152 172 196
161 183 211
144 163 186
151 171 194
148 168 191
149 169 194
141 160 181
144 163 187
141 160 182
143 162 185
152 172 197
154 175 201
151 172 198
155 176 203
145 164 189
142 162 185
142 161 185
135 154 177
140 159 182
146 166 192
152 174 202
146 166 192
152 174 203
142 162 185
140 160 183
146 167 193
146 167 193
142 163 188
144 165 190
143 163 188
144 165 191
153 175 204
147 169 195
140 160 186
140 161 187
135 154 177
136 154 176
157 181 211
135 154 176
144 165 189
141 160 182
141 160 184
146 167 190
138 158 180
148 170 197
143 164 188
145 167 193
146 168 192
137 156 177
146 168 196
140 161 182
145 166 190
146 168 191
138 158 179
143 164 186
151 173 199
143 164 189
139 159 182
141 162 185
146 166 188
134 152 168
146 167 190
139 158 179
143 163 186
145 165 187
139 158 177
128 146 162
124 140 154
138 155 173
138 156 171
141 159 176
132 148 158
132 148 160
162 179 201
160 175 195
206 224 248
213 231 255
213 231 255
213 231 255
212 231 255
212 231 255
212 231 255
212 231 255
212 231 255
212 231 255
212 231 255
212 231 255
212 231 255
212 231 255
212 230 255
212 230 255
212 230 255
212 230 255
212 230 255
206 224 249
85 106 156
46 75 136
45 73 127
47 75 128
45 72 125
44 70 124
47 74 128
44 70 126
40 64 112
39 62 102
44 69 116
50 79 132
44 69 114
43 69 119
46 73 129
45 71 116
43 69 120
43 68 115
43 68 118
44 71 122
49 77 132
49 77 127
47 75 130
46 73 120
48 75 134
41 65 95
46 74 130
43 68 112
48 75 129
46 73 129
52 82 138
46 73 115
39 63 103
48 77 134
44 70 119
45 72 123
46 73 121
46 72 122
47 74 123
46 73 118
46 72 117
48 76 132
49 77 123
44 70 116
44 70 118
42 67 111
47 73 126
48 77 129
47 75 125
46 71 123
39 62 105
49 77 128
46 73 122
44 69 116
47 74 131
35 54 91
53 83 147
38 61 100
44 69 119
46 73 125
49 77 129
45 71 117
46 72 122
43 67 103
45 70 112
37 59 95
45 71 111
46 72 118
46 71 116
49 76 129
46 73 121
45 71 116
42 66 106
48 75 121
48 76 128
45 72 124
43 65 112
44 68 109
48 75 127
41 63 107
51 80 138
46 74 130
42 66 112
73 92 135
210 228 253
212 230 255
212 230 255
212 230 255
212 230 255
212 230 255
212 231 255
212 231 255
212 231 255
212 231 255
212 231 255
212 231 255
212 231 255
212 231 255
212 231 255
212 231 255
213 231 255
213 231 255
213 231 255
202 216 236
160 147 105
143 125 76
148 136 87
138 126 81
151 139 88
143 133 87
143 137 91
143 136 90
139 132 87
133 121 77
142 133 86
142 130 84
143 131 83
136 123 79
138 127 82
150 141 91
138 125 78
134 121 77
137 126 81
143 136 90
143 129 81
142 128 79
153 143 91
147 139 90
125 107 65
142 128 80
154 149 98
142 131 84
150 137 87
143 131 84
150 141 91
150 142 93
143 132 85
146 131 82
148 135 87
146 134 87
150 141 93
144 132 83
150 141 91
152 147 97
151 138 88
145 137 89
145 136 88
142 128 79
147 137 88
144 133 87
146 135 87
145 135 87
143 130 81
148 139 90
139 124 78
144 131 84
147 136 86
138 119 71
151 143 93
158 152 101
130 113 70
140 124 78
143 129 82
146 134 85
147 136 87
150 139 90
142 125 78
143 128 81
136 120 76
134 115 70
141 125 78
150 138 88
141 125 78
143 127 79
146 129 81
145 129 81
133 118 76
140 123 74
140 125 79
152 139 88
149 135 85
144 131 84
147 132 84
143 125 77
142 120 72
150 136 87
148 133 83
149 133 82
144 128 81
149 136 87
149 136 87
150 134 83
151 137 86
154 139 87
150 134 82
147 133 84
150 135 84
150 135 84
147 132 84
150 133 82
154 139 87
148 131 81
145 130 82
143 125 77
143 130 82
142 121 74
158 144 90
150 135 84
148 132 81
150 133 82
145 124 74
158 143 90
149 131 81
139 120 72
145 126 76
146 127 76
149 133 82
145 126 76
147 132 84
141 127 79
146 129 79
145 127 77
144 126 77
148 136 87
150 131 81
142 123 76
142 123 76
150 137 87
152 134 82
137 120 74
137 123 77
141 123 76
154 140 88
153 138 87
147 129 79
151 135 84
148 131 81
154 138 86
159 146 91
158 142 87
156 137 83
151 134 82
156 172 191
160 176 197
145 160 177
154 170 190
147 163 181
152 168 188
156 172 193
135 149 167
140 155 171
153 170 189
139 154 168
155 172 193
160 178 200
142 157 174
146 162 178
149 166 185
147 163 181
142 157 172
144 159 176
141 157 172
157 174 194
156 174 195
149 166 186
149 166 184
150 167 185
157 175 197
139 154 167
151 169 187
147 164 180
148 165 182
151 169 189
150 167 186
154 172 194
150 167 186
152 170 192
152 169 191
151 169 190
142 158 174
152 170 191
158 177 201
151 169 190
152 170 191
152 170 193
144 162 181
151 170 193
153 171 195
152 170 193
148 166 187
157 177 200
150 169 191
154 173 198
148 166 187
145 163 184
155 174 199
149 167 189
146 164 186
155 175 201
161 181 208
141 158 179
146 165 185
148 166 188
145 163 186
145 164 187
152 172 195
159 180 206
151 170 195
155 176 201
144 162 184
150 169 193
144 163 187
146 165 189
145 164 187
148 168 193
150 171 195
146 166 191
140 159 181
142 161 184
145 165 191
150 170 194
139 158 181
150 171 197
147 167 193
146 167 192
148 169 196
143 163 188
145 165 190
142 163 188
144 165 191
143 163 189
152 174 202
148 168 194
147 169 196
149 170 197
141 161 184
139 158 181
148 168 191
148 169 196
140 159 182
127 145 167
142 161 183
143 163 189
141 160 183
134 151 172
143 163 185
140 160 185
144 165 187
143 163 188
142 163 183
139 158 183
145 167 191
147 169 194
148 170 195
148 170 196
139 158 180
140 160 185
141 162 183
151 172 199
142 162 186
145 165 189
138 156 176
147 168 193
150 171 194
140 160 180
152 173 200
144 164 185
139 158 179
136 154 172
156 177 203
136 155 172
135 152 173
136 153 173
137 155 172
139 157 174
133 150 164
141 158 172
137 153 167
145 161 179
150 166 183
171 187 207
213 231 255
213 231 255
213 231 255
213 231 255
213 231 255
213 231 255
213 231 255
213 231 255
213 231 255
213 231 255
213 231 255
213 231 255
213 231 255
212 231 255
212 231 255
212 231 255
212 231 255
212 231 255
120 135 162
49 78 137
43 68 120
44 70 122
45 71 121
44 71 123
42 68 122
50 78 139
43 68 116
41 66 106
47 74 127
45 71 123
41 66 105
37 59 90
44 69 109
43 68 113
50 79 131
38 62 99
45 71 124
43 68 117
45 72 129
49 78 130
42 67 104
43 69 113
46 72 112
47 74 121
47 75 122
50 79 132
41 66 116
45 72 117
52 82 140
46 72 127
52 82 139
49 77 120
46 73 119
48 75 121
48 76 129
45 71 119
46 73 123
44 70 114
46 74 105
48 76 121
45 71 120
40 63 102
42 67 117
46 74 111
45 72 123
45 72 119
47 75 124
45 71 119
42 65 112
48 76 118
49 77 135
46 73 130
46 74 123
42 67 110
48 76 123
48 75 128
41 64 110
43 69 109
46 73 120
50 79 126
49 76 125
46 73 116
48 77 124
44 71 114
50 79 136
47 74 127
53 83 136
47 75 134
45 72 118
43 68 110
51 80 128
47 74 127
47 73 118
43 67 112
44 70 123
42 66 104
43 67 115
46 70 118
45 72 122
42 65 114
36 56 101
40 62 106
47 71 126
120 138 176
212 231 255
212 231 255
212 231 255
212 231 255
213 231 255
213 231 255
213 231 255
213 231 255
213 231 255
213 231 255
213 231 255
213 231 255
213 231 255
213 231 255
213 231 255
213 231 255
213 231 255
212 230 253
174 172 163
142 124 76
149 138 88
138 127 82
149 140 91
130 119 77
132 121 79
136 126 82
133 124 81
141 132 87
135 126 81
146 135 87
143 132 84
141 130 84
140 126 79
145 133 84
147 136 87
146 133 84
142 130 82
148 135 86
142 133 86
146 134 84
143 129 81
149 136 84
141 127 79
149 137 86
149 141 93
130 115 72
147 139 91
145 133 85
144 132 85
137 120 76
142 124 77
147 135 87
134 113 67
149 137 88
138 125 81
143 132 85
151 140 90
134 121 77
143 135 88
147 137 88
149 141 91
144 134 87
147 138 90
147 138 90
143 129 82
142 130 82
139 123 76
154 143 93
146 133 84
145 132 84
143 133 84
147 136 87
142 126 78
140 123 76
141 127 81
149 138 87
137 124 79
142 129 82
147 131 81
147 136 88
153 140 89
147 132 82
139 123 77
141 129 84
144 129 81
145 130 81
144 124 74
137 122 76
135 118 72
155 143 91
143 129 82
146 130 79
148 131 81
139 121 74
152 138 88
145 133 85
143 126 79
149 135 87
145 131 84
147 132 82
132 118 76
141 123 77
144 131 84
138 121 74
145 129 82
138 117 69
152 136 85
148 133 83
150 131 78
153 136 84
150 134 83
155 141 89
160 146 91
145 129 81
146 131 82
150 131 81
152 135 83
150 135 84
154 140 89
146 129 81
144 126 76
148 131 81
149 131 79
153 136 83
146 125 73
143 123 73
144 123 74
144 124 76
151 137 87
152 133 81
148 132 82
142 124 76
149 132 81
146 127 77
149 134 84
146 127 76
139 124 77
134 122 77
141 121 74
153 141 90
145 126 77
137 117 70
144 129 81
142 126 79
152 138 87
142 128 81
151 138 88
155 139 87
140 127 81
150 137 87
160 143 87
152 136 84
152 135 83
138 120 72
146 131 81
158 142 89
156 138 83
151 166 185
163 179 200
165 182 202
150 166 185
153 168 188
160 177 199
149 165 184
146 161 179
152 168 187
139 153 170
150 166 183
143 158 174
153 169 188
149 165 183
151 168 187
136 151 168
138 152 167
149 165 181
150 166 186
145 161 181
152 169 189
149 165 181
163 181 204
158 175 195
159 177 201
152 169 188
144 160 175
154 172 191
151 168 189
156 173 194
158 176 199
153 171 193
156 173 196
155 172 194
150 168 185
149 166 185
152 169 192
161 180 203
149 167 187
145 162 182
151 169 188
154 172 194
161 181 205
151 169 188
143 160 178
159 178 201
152 171 192
149 167 189
152 171 194
148 165 187
153 171 195
147 165 187
135 151 169
143 161 183
142 160 182
144 162 182
148 166 187
147 166 189
155 175 200
145 162 184
141 159 180
142 159 179
151 170 195
154 173 198
138 156 177
142 160 181
142 161 183
147 165 189
140 158 180
151 171 195
154 173 199
145 163 184
145 163 186
150 169 193
149 168 192
144 163 187
151 172 196
152 172 198
142 160 184
142 160 181
149 170 195
148 168 193
148 168 193
131 149 171
149 169 194
152 173 199
150 171 197
154 175 203
136 155 177
144 164 190
148 168 194
151 171 197
148 168 195
146 167 194
150 171 197
145 165 190
146 166 192
141 160 184
151 171 197
149 170 197
142 162 186
147 167 193
143 163 187
144 164 188
148 168 192
135 153 175
151 173 197
138 156 177
143 162 185
144 163 186
153 174 200
145 166 191
139 158 181
143 162 186
138 156 179
140 160 182
143 163 184
156 177 202
150 171 197
142 161 182
143 163 183
146 166 186
144 164 185
145 165 184
144 164 185
144 164 184
142 162 183
145 164 187
139 157 177
149 168 192
130 147 165
126 142 156
131 148 164
141 159 176
145 163 183
136 152 160
142 158 173
139 153 171
153 168 186
191 207 230
213 231 255
213 231 255
213 231 255
213 231 255
213 231 255
213 231 255
213 231 255
213 231 255
213 231 255
213 231 255
213 231 255
213 231 255
213 231 255
213 231 255
213 231 255
213 231 255
191 209 237
44 70 121
43 69 121
43 68 116
42 66 117
48 76 132
33 53 88
48 77 138
47 74 120
46 73 126
48 76 136
46 73 117
46 73 127
47 75 117
44 69 118
50 78 126
51 80 134
46 74 122
43 69 117
48 77 124
37 58 92
44 71 117
44 71 120
46 73 114
42 68 112
42 66 108
47 74 127
45 71 119
50 79 126
49 78 132
47 74 119
41 65 109
45 71 119
47 75 128
43 68 115
46 74 120
41 64 109
44 70 117
48 76 121
49 78 128
46 73 115
41 65 96
46 72 125
49 77 125
46 73 122
52 82 137
44 70 108
47 75 120
48 76 126
46 73 120
47 75 121
48 76 126
47 73 121
48 75 130
41 66 104
42 66 116
47 74 121
47 75 131
43 67 109
45 71 114
44 69 106
48 75 129
43 69 114
47 74 119
45 71 112
47 74 125
41 66 104
47 73 121
46 73 124
44 70 118
39 62 104
49 78 132
43 67 107
51 79 133
43 68 108
45 70 118
45 72 124
46 73 125
48 75 123
45 70 117
43 68 111
49 77 130
45 70 118
45 71 120
43 69 124
43 67 107
42 65 114
177 194 219
213 231 255
213 231 255
213 231 255
213 231 255
213 231 255
213 231 255
213 231 255
213 231 255
213 231 255
213 231 255
213 231 255
213 231 255
213 231 255
213 231 255
213 231 255
213 231 255
192 197 194
150 128 74
153 142 91
134 120 76
130 118 75
149 140 91
151 142 93
138 128 84
142 130 84
138 129 84
145 137 88
150 139 89
142 131 84
142 129 82
140 127 81
136 120 74
145 131 81
149 136 86
144 129 79
138 126 81
146 135 87
150 137 87
156 148 97
145 131 82
150 139 89
153 145 94
151 139 89
148 134 84
151 143 94
151 143 94
143 132 85
144 133 85
147 135 87
140 127 81
146 135 87
141 129 84
151 141 91
158 150 98
139 125 79
153 145 94
143 131 84
152 140 90
146 137 88
149 138 90
143 131 84
154 145 94
152 142 91
149 138 89
149 140 90
155 146 94
142 127 79
145 132 83
142 130 82
142 131 84
149 137 87
142 129 82
149 135 84
145 136 88
148 133 84
142 128 81
134 117 71
140 128 81
142 127 78
133 116 69
146 135 87
149 138 90
144 129 81
143 132 85
150 135 83
142 129 82
137 122 76
142 126 78
135 120 76
154 143 93
136 117 72
137 123 77
148 133 84
139 124 79
139 127 82
148 134 85
142 126 79
146 131 82
137 119 74
142 127 82
151 135 85
140 126 81
141 123 76
148 135 85
153 141 90
133 113 70
153 138 87
151 136 85
150 135 84
151 136 86
151 135 84
158 144 91
152 137 87
143 130 84
152 137 85
140 119 72
147 129 79
149 131 79
160 144 90
158 142 87
144 129 81
157 141 87
145 124 76
144 119 67
151 135 84
148 131 81
161 144 89
150 131 79
146 124 73
146 124 73
154 138 86
152 138 87
144 125 76
148 131 81
149 135 85
150 131 81
150 136 85
150 132 81
157 143 90
155 138 85
138 119 72
144 126 77
146 132 84
154 140 88
146 132 82
147 131 82
150 137 87
150 132 82
144 128 79
147 131 81
156 140 87
153 134 80
157 139 84
146 124 73
148 132 82
154 136 83
166 182 204
150 165 183
158 175 193
153 169 189
160 176 196
160 177 197
152 168 187
152 167 187
151 166 185
143 158 173
142 156 173
149 165 182
150 166 181
151 167 181
140 155 167
148 163 181
146 162 180
152 169 185
146 161 179
155 172 191
154 171 188
153 170 189
138 153 170
151 168 188
145 161 180
148 164 179
155 172 193
149 165 184
151 168 185
150 167 187
149 165 184
148 165 185
136 150 164
142 159 178
147 164 182
152 170 188
154 171 193
156 174 193
148 165 185
148 165 182
140 157 174
152 169 191
148 165 184
154 172 195
141 158 178
150 167 187
145 162 182
155 174 197
151 169 192
146 163 183
146 164 183
151 170 192
152 171 193
149 167 189
151 170 193
148 166 189
152 170 191
146 164 185
144 162 182
144 162 181
140 157 177
146 165 189
148 167 188
142 160 179
150 170 195
158 179 204
152 172 195
149 169 194
152 172 197
145 164 185
145 164 186
146 165 187
143 161 183
154 175 200
160 181 208
153 173 199
143 162 184
136 153 172
137 155 177
142 160 184
136 154 176
148 167 191
157 178 205
147 165 188
151 171 197
153 173 199
135 153 173
150 170 195
149 170 196
150 170 196
153 174 201
144 163 187
149 169 193
151 172 198
141 161 184
145 165 190
140 160 184
148 169 195
141 160 183
149 170 196
129 145 163
146 166 188
143 163 187
153 174 199
145 164 188
144 164 187
150 170 195
145 165 189
140 159 181
155 176 202
144 163 186
146 166 189
144 164 185
144 164 187
153 174 199
140 159 180
149 170 193
141 160 181
152 173 197
147 167 188
146 166 187
144 163 186
148 168 191
148 168 190
145 164 185
143 162 182
150 169 193
149 170 191
144 163 184
144 163 180
135 152 172
152 172 196
129 146 165
146 165 185
141 159 178
150 167 186
148 166 181
151 169 186
152 168 186
160 176 195
197 213 236
213 231 255
213 231 255
213 231 255
213 231 255
213 231 255
213 231 255
213 231 255
213 231 255
213 231 255
213 231 255
213 231 255
213 231 255
213 231 255
213 231 255
211 229 253
73 92 136
44 69 120
47 74 125
44 69 120
46 74 127
53 85 145
47 74 127
44 70 120
46 74 122
42 67 116
42 67 112
39 63 107
43 69 120
50 79 131
49 78 134
47 74 116
47 74 125
44 70 119
48 75 122
47 74 109
49 78 128
47 73 121
49 76 134
45 71 119
46 73 117
44 70 117
42 66 105
42 67 110
46 73 119
45 71 119
45 70 116
49 77 134
42 67 110
49 78 133
47 75 121
44 70 109
47 74 129
47 75 128
47 74 124
45 70 114
44 69 105
41 66 105
41 65 107
44 70 110
44 69 113
44 71 110
45 70 118
44 69 114
52 81 137
45 72 126
42 67 111
44 69 116
48 75 126
48 76 121
45 70 105
43 69 112
48 75 124
42 67 95
47 74 123
49 78 121
45 70 113
47 75 128
44 70 117
44 70 118
47 75 130
44 69 114
40 63 108
44 69 115
46 74 117
46 72 116
51 80 131
47 74 125
48 76 125
51 80 134
48 73 119
44 68 108
46 72 120
44 69 114
36 56 91
47 74 123
43 67 112
44 70 120
48 76 128
44 70 120
40 63 100
44 70 108
39 62 103
84 103 144
209 227 251
213 231 255
213 231 255
213 231 255
213 231 255
213 231 255
213 231 255
213 231 255
213 231 255
213 231 255
213 231 255
213 231 255
213 231 255
213 231 255
213 231 255
198 207 219
151 136 90
143 124 74
139 128 82
146 136 88
145 135 88
136 125 80
135 126 82
149 138 90
128 116 74
139 124 76
138 125 79
148 140 91
146 135 87
142 129 81
139 127 81
145 134 85
151 140 90
144 130 82
140 128 81
143 125 76
144 130 81
152 142 91
147 133 84
150 135 84
150 135 84
147 139 90
148 136 87
149 137 86
157 147 93
150 139 90
148 138 89
133 115 72
144 134 87
144 134 87
143 133 87
143 129 82
146 134 87
149 138 88
145 131 82
152 142 93
144 138 91
147 137 90
158 149 97
149 139 90
155 142 90
161 155 101
143 131 83
143 131 84
146 133 84
147 135 86
147 134 84
136 122 77
155 146 95
142 131 84
132 115 69
145 129 79
146 135 87
135 121 76
142 123 73
143 129 81
148 134 84
137 120 74
149 132 82
141 123 74
153 140 89
152 136 84
141 129 82
149 137 87
147 134 85
142 124 74
155 141 89
148 137 88
133 114 70
142 128 79
152 137 87
153 144 94
150 136 86
147 132 82
146 134 85
138 124 79
147 134 85
148 135 87
146 133 85
143 127 81
143 129 82
150 137 88
149 139 91
137 121 76
145 131 84
138 120 76
148 131 81
153 143 93
143 126 79
149 137 87
149 136 87
152 138 87
143 128 81
149 130 81
153 137 85
151 137 87
132 113 68
146 133 84
154 137 84
147 131 81
143 124 76
151 133 81
146 131 81
149 131 81
154 135 82
151 135 84
143 127 79
142 118 67
156 133 79
150 130 78
149 132 81
154 136 84
158 143 90
144 126 77
151 135 84
151 135 84
151 135 84
141 123 76
156 145 93
149 133 82
152 135 84
150 133 82
149 133 82
147 130 81
151 136 85
148 131 81
147 131 82
147 132 84
153 136 84
155 139 84
163 148 93
161 146 90
156 138 84
158 141 86
153 138 86
157 141 87
153 168 187
160 176 197
158 174 194
155 171 190
157 173 192
149 164 180
154 170 189
146 161 177
158 174 194
155 171 190
154 170 184
151 167 183
158 174 194
157 173 194
149 164 181
135 149 164
151 167 184
146 161 179
148 163 181
154 171 191
155 172 190
153 169 190
152 168 188
159 176 196
160 177 198
154 171 191
156 172 193
158 175 197
149 165 186
150 167 188
144 159 176
155 173 194
148 164 183
152 169 191
145 161 178
153 171 192
146 163 182
152 170 189
156 174 196
141 158 176
151 168 190
141 157 172
153 171 192
155 173 194
153 171 194
145 162 182
137 153 170
147 164 185
143 160 181
157 175 196
143 160 179
150 168 189
152 169 192
152 170 193
147 164 186
150 168 189
141 159 180
153 171 192
152 170 193
149 168 190
133 149 167
158 177 200
144 161 181
154 172 195
142 159 179
142 159 179
147 166 189
144 161 182
143 160 180
143 160 180
150 169 192
146 164 187
149 168 192
144 163 186
140 158 178
148 167 189
152 172 196
146 165 188
147 166 191
148 167 191
157 178 205
142 161 182
142 161 184
154 175 201
145 164 187
149 169 193
155 176 202
156 177 204
149 169 193
158 180 207
143 162 186
147 166 190
151 172 197
148 168 194
138 157 180
144 162 185
137 155 179
148 167 192
143 161 185
140 158 180
144 162 184
148 169 195
145 164 184
146 166 191
150 171 195
140 158 180
138 156 177
151 171 195
157 179 205
142 161 181
151 173 199
153 175 202
158 180 208
141 160 184
150 171 197
143 163 185
149 169 194
144 163 185
154 175 200
155 175 202
141 160 182
150 171 195
146 165 187
146 166 185
149 168 191
147 166 188
145 164 185
146 165 188
149 169 191
141 160 182
139 157 176
134 151 167
135 152 169
132 148 159
133 150 166
136 153 168
137 153 168
133 149 158
149 165 182
141 156 169
169 184 204
211 229 253
214 231 255
214 231 255
214 231 255
214 231 255
214 231 255
213 231 255
213 231 255
213 231 255
213 231 255
213 231 255
213 231 255
213 231 255
213 231 255
165 183 214
44 70 119
47 74 134
39 63 106
46 74 132
45 71 126
41 65 108
42 68 115
40 65 115
41 66 121
42 67 116
39 62 101
45 71 118
44 70 116
44 70 120
47 75 124
40 63 102
44 70 114
49 77 127
47 75 114
47 74 117
45 70 122
50 79 124
45 71 120
44 69 113
44 69 110
43 68 116
42 66 110
44 70 113
47 74 126
51 79 131
42 67 115
43 69 110
48 76 118
46 74 122
43 68 119
47 74 123
48 77 138
44 70 119
46 72 120
44 71 107
44 71 100
42 66 105
45 71 122
46 72 116
45 71 122
46 73 111
44 71 117
47 76 129
41 65 104
48 76 131
45 71 116
52 83 137
51 80 134
44 70 113
40 63 107
42 66 111
46 72 119
46 72 119
44 70 112
47 75 130
46 73 121
44 69 118
49 78 124
44 70 108
40 64 94
38 61 90
42 67 110
44 70 119
50 79 124
46 73 126
45 71 114
44 69 119
46 72 122
44 70 112
48 75 132
38 60 95
43 69 116
40 62 109
50 76 109
44 70 114
49 76 123
41 64 108
47 74 124
37 58 93
45 70 114
40 61 95
41 65 112
42 65 111
129 145 178
213 231 255
213 231 255
213 231 255
213 231 255
213 231 255
213 231 255
213 231 255
213 231 255
214 231 255
214 231 255
214 231 255
214 231 255
214 231 255
212 228 249
164 151 115
150 130 78
147 134 85
138 127 82
135 118 74
138 127 82
133 122 79
143 133 87
148 136 88
153 142 90
146 134 85
143 130 82
136 122 77
148 137 88
147 134 85
152 141 90
145 130 81
150 140 91
144 129 81
151 141 90
144 127 78
150 135 84
156 143 90
151 138 87
149 135 84
152 141 90
144 128 81
157 147 94
149 132 78
149 133 80
148 133 81
152 140 89
150 136 84
154 144 93
151 141 91
145 133 85
142 128 82
148 135 87
148 136 87
137 126 82
147 134 85
144 130 82
151 143 94
152 140 90
150 139 90
159 150 97
151 140 90
153 142 91
150 144 95
151 141 91
149 136 87
147 134 85
153 142 91
145 133 85
145 123 73
139 122 76
139 121 72
151 139 89
153 141 90
146 136 87
143 131 82
141 126 79
138 120 72
143 128 79
149 138 88
144 128 79
141 128 81
149 137 88
144 129 81
142 127 81
144 135 87
153 139 88
151 138 87
147 132 82
144 131 82
142 125 78
132 115 72
147 135 87
141 127 81
132 114 70
148 135 87
154 141 90
142 127 81
153 139 88
145 133 85
149 136 87
143 125 77
145 134 87
140 126 81
141 122 76
152 138 88
144 128 81
142 126 79
145 130 81
143 129 82
151 136 84
146 129 81
159 147 94
146 131 82
133 114 70
158 141 88
141 125 77
149 136 87
151 131 78
135 119 74
148 130 79
136 114 69
140 118 69
150 132 81
155 138 84
141 124 76
141 121 74
146 124 74
142 119 69
157 138 84
158 138 83
150 133 82
147 128 78
156 141 88
140 121 74
151 131 79
151 134 82
154 140 88
151 131 79
157 141 88
163 146 91
147 128 79
150 131 81
152 137 86
141 121 74
144 127 77
156 139 87
157 141 88
158 141 87
155 136 81
163 146 90
160 146 91
143 123 74
156 138 85
143 128 79
151 127 73
150 165 182
151 166 180
159 175 194
148 163 179
163 180 200
153 169 186
157 172 191
148 162 178
155 170 189
159 175 196
154 170 187
154 169 189
155 171 190
151 167 184
155 171 190
147 162 179
150 166 183
156 172 191
147 163 180
159 176 197
141 156 172
147 163 180
144 159 175
157 174 194
150 166 186
152 169 189
156 172 192
157 174 196
151 167 187
149 165 184
156 173 192
154 170 190
157 174 196
146 161 177
146 162 177
144 160 176
155 172 192
152 169 187
151 168 187
155 173 195
143 159 176
140 156 172
147 163 182
146 163 182
160 178 202
140 156 172
149 166 187
149 166 187
142 158 174
152 169 190
145 162 184
161 180 203
154 173 193
153 172 194
149 166 188
143 160 181
149 166 190
146 162 182
138 154 175
139 155 175
158 177 201
145 162 184
152 171 193
146 164 185
146 163 186
141 158 179
147 164 185
156 175 200
141 159 179
141 158 178
160 180 205
143 160 179
148 167 189
157 176 200
144 163 184
146 164 185
137 155 175
140 157 177
144 162 184
142 160 182
147 166 189
148 166 189
145 164 186
147 166 189
151 170 195
151 171 196
151 172 198
142 160 182
157 178 204
149 169 195
137 155 177
158 179 206
154 174 201
157 178 206
146 165 189
142 161 184
145 164 187
142 160 182
150 171 196
154 175 200
147 166 189
137 154 174
150 171 197
153 174 199
143 161 184
154 175 201
157 178 205
145 165 188
151 171 196
154 175 201
158 180 208
144 164 186
148 168 193
150 170 195
154 174 200
149 169 194
142 162 183
147 166 190
144 164 185
154 175 197
150 170 193
155 175 198
157 178 203
158 179 205
138 156 173
149 168 190
147 166 182
155 175 200
146 164 184
150 169 191
143 161 180
142 159 178
144 162 181
146 164 182
150 168 186
127 142 151
138 153 171
141 157 168
141 156 168
139 153 168
161 177 197
185 201 223
214 231 255
214 231 255
214 231 255
214 231 255
214 231 255
214 231 255
214 231 255
214 231 255
214 231 255
214 231 255
214 231 255
214 231 255
203 221 245
65 84 128
44 70 121
46 72 127
41 66 108
42 68 119
40 64 107
40 63 112
49 77 129
42 67 113
44 71 124
38 60 99
46 73 119
45 71 120
46 73 120
45 73 113
45 72 122
45 71 107
51 81 128
43 69 116
43 68 118
41 64 106
41 65 97
40 65 104
47 74 126
42 66 111
44 70 114
45 71 114
46 74 112
41 65 108
45 73 125
44 70 121
46 73 127
46 72 119
50 79 131
45 71 115
50 78 129
44 71 114
44 70 117
41 64 107
46 72 114
44 70 101
43 69 110
40 64 113
45 71 117
48 75 120
47 74 123
48 76 124
51 81 135
48 74 124
43 68 110
42 67 111
47 75 129
48 76 118
50 79 123
46 73 115
45 71 125
45 72 115
47 73 119
45 72 119
49 77 124
45 71 125
45 71 120
44 71 121
45 72 121
43 68 109
48 76 129
39 63 103
44 70 115
44 70 117
51 80 130
44 69 117
44 69 114
49 78 131
41 65 109
44 71 115
45 70 119
44 68 107
44 70 116
48 76 125
53 84 136
39 62 108
42 65 106
48 74 128
46 70 118
48 74 131
49 76 121
48 76 129
36 57 94
38 58 102
69 89 129
203 220 243
214 231 255
214 231 255
214 231 255
214 231 255
214 231 255
214 231 255
214 231 255
214 231 255
214 231 255
214 231 255
214 231 255
214 231 255
197 202 202
150 131 79
138 123 77
135 122 77
139 127 82
139 129 84
126 114 74
147 135 87
128 115 74
127 112 70
147 136 87
133 118 72
145 134 85
148 136 87
146 129 79
155 144 93
151 139 88
154 142 91
149 133 81
154 141 89
146 133 84
150 139 90
144 127 79
150 133 84
148 135 86
150 139 89
151 137 86
147 132 80
148 135 83
148 135 84
152 137 83
151 136 84
150 137 86
156 146 94
154 145 94
148 131 80
148 134 84
152 140 89
150 139 90
147 133 85
139 125 79
145 134 87
144 134 87
144 137 90
146 136 88
159 152 99
153 139 86
150 137 87
149 138 88
143 131 84
142 128 81
153 142 91
144 133 85
143 125 76
153 139 87
140 124 77
144 132 84
149 133 83
138 123 76
151 134 83
143 131 82
154 146 95
146 127 76
138 124 77
142 124 74
144 133 85
149 138 88
151 137 85
151 139 88
136 119 74
147 132 82
150 138 88
150 137 87
136 120 74
158 144 91
157 144 90
146 132 84
143 129 81
150 139 90
149 134 84
148 134 84
150 134 82
157 146 94
144 130 82
150 136 87
154 142 91
143 132 85
139 120 74
134 114 70
148 134 85
135 118 74
140 117 70
143 126 79
151 136 87
153 138 87
150 134 84
145 127 79
145 124 74
155 141 90
141 120 72
144 125 77
144 126 77
143 126 79
140 119 72
146 128 79
149 131 81
151 134 82
152 139 87
152 134 81
150 135 84
158 142 88
147 129 79
152 139 87
151 136 84
152 134 82
148 129 79
154 137 85
155 136 83
149 131 81
155 137 84
159 142 88
151 133 82
145 123 74
155 138 85
161 144 89
150 130 79
153 134 82
150 133 82
150 130 79
151 137 85
147 130 81
146 128 79
152 137 85
151 135 84
138 122 76
164 146 90
145 125 76
154 138 85
149 129 78
151 134 82
163 142 84
159 145 91
145 160 175
151 166 184
160 176 197
143 156 173
158 173 193
150 165 182
153 168 185
144 158 174
152 167 184
145 160 173
147 162 179
157 172 191
147 162 179
149 163 179
152 167 186
149 164 183
156 172 190
147 162 175
149 165 181
148 163 180
140 155 169
150 166 184
155 171 191
152 168 186
154 170 190
145 159 176
153 169 189
152 167 188
159 176 196
148 164 181
155 171 190
160 177 197
162 180 198
152 168 187
153 170 189
157 174 195
146 162 180
149 165 185
146 162 182
154 171 191
146 163 179
149 166 185
138 153 172
146 162 181
153 169 190
146 163 182
146 162 180
153 170 192
144 159 180
154 172 194
138 154 172
154 171 193
154 171 192
151 169 193
152 169 192
153 171 194
160 179 203
155 173 197
147 164 184
153 172 195
151 168 191
151 169 189
152 171 193
148 165 187
149 167 188
154 172 194
156 175 198
142 158 176
145 162 182
150 169 190
150 168 187
147 165 186
160 180 203
144 162 183
140 158 177
139 156 175
146 164 186
150 170 193
146 164 186
154 174 197
143 161 180
145 164 185
157 177 202
151 171 194
138 155 176
148 167 191
141 159 180
152 171 195
149 168 193
146 166 190
158 178 203
156 177 203
152 172 197
156 176 201
154 174 199
155 176 201
137 155 177
151 171 197
150 169 193
149 168 192
146 164 186
148 167 191
150 170 195
140 158 178
153 174 200
149 168 192
147 166 190
156 176 202
155 176 200
154 174 200
150 169 194
157 178 204
141 159 180
146 166 188
155 175 202
150 170 194
151 170 194
159 180 206
142 160 180
151 170 194
150 169 193
145 163 184
146 164 184
151 170 191
149 168 192
155 175 199
138 156 175
146 165 183
138 155 172
148 167 188
145 163 184
145 163 182
146 163 183
144 162 184
139 155 173
142 159 178
143 160 177
142 157 174
144 160 174
141 156 167
156 172 189
147 161 177
205 221 244
214 232 255
214 232 255
214 232 255
214 232 255
214 232 255
214 232 255
214 231 255
214 231 255
214 231 255
214 231 255
214 231 255
128 143 173
44 70 126
44 70 120
43 68 115
47 76 129
45 72 120
47 74 116
46 72 113
46 73 119
42 67 109
45 70 113
46 73 119
45 71 110
48 77 121
47 74 123
48 75 132
50 78 134
44 70 120
46 73 125
44 70 117
48 75 118
38 61 93
45 71 113
41 64 90
47 74 121
46 73 122
46 73 124
45 71 120
47 75 112
48 75 127
44 70 111
49 78 137
48 76 118
43 68 114
48 77 119
48 76 122
47 76 122
47 73 113
50 79 129
49 78 121
47 74 111
46 73 111
46 72 115
44 69 117
44 70 112
45 70 117
46 74 121
40 64 109
48 75 117
47 75 116
47 75 120
46 73 123
48 75 124
47 74 119
48 77 122
49 77 118
47 74 123
48 75 119
44 69 118
46 73 122
43 68 104
48 76 124
45 70 113
42 66 106
45 72 117
44 71 115
39 61 100
47 74 119
42 67 106
42 67 111
47 74 121
45 72 113
46 72 115
44 69 103
41 64 107
45 70 113
50 80 125
42 67 112
44 70 115
44 70 116
46 73 116
43 68 112
41 65 102
47 72 119
46 71 120
43 67 109
43 68 113
46 72 116
43 68 116
44 68 106
42 63 107
122 137 165
214 231 255
214 231 255
214 231 255
214 231 255
214 232 255
214 232 255
214 232 255
214 232 255
214 232 255
214 232 255
214 232 255
208 222 241
159 142 93
153 139 87
161 152 98
152 140 90
139 129 84
144 132 85
154 144 94
134 123 79
149 139 88
147 137 88
152 136 86
155 143 91
149 136 87
155 143 91
145 132 82
150 136 84
145 129 79
155 144 93
146 131 81
144 131 84
144 130 81
144 125 76
158 149 97
156 146 93
150 137 86
152 141 90
151 137 84
154 145 93
158 144 89
153 139 87
149 133 83
148 131 80
148 135 84
147 133 84
150 136 86
149 138 89
146 132 83
148 135 86
152 139 87
152 142 90
147 136 87
147 139 91
147 135 87
151 140 90
147 136 87
151 139 87
155 145 94
139 122 74
154 140 87
138 122 76
154 142 91
147 133 84
159 151 98
147 133 83
142 128 81
139 126 81
152 142 91
145 133 84
145 129 81
154 144 94
150 133 82
146 132 83
141 125 77
142 124 74
148 132 81
153 142 91
149 136 87
144 130 81
125 114 72
142 124 77
150 137 87
144 131 82
143 129 82
142 125 77
141 124 76
141 122 74
148 131 81
149 135 87
154 141 90
151 136 85
148 133 84
147 132 82
151 138 87
145 127 78
143 128 81
137 119 72
146 131 82
142 124 76
152 138 87
151 133 82
143 128 81
157 145 93
162 150 95
148 129 79
138 120 74
142 124 77
156 142 91
154 138 87
147 128 79
149 130 81
143 128 81
141 122 76
139 121 74
155 139 87
135 113 67
157 141 88
141 127 79
137 115 67
153 137 85
146 128 79
155 139 87
154 134 81
152 134 82
154 137 85
153 133 81
154 139 87
151 133 81
152 133 81
153 136 84
148 128 78
154 136 82
155 139 86
154 137 85
147 128 77
159 143 88
157 140 87
158 141 87
155 136 84
145 129 81
149 131 81
145 127 79
144 126 77
137 118 72
145 125 76
144 126 79
149 132 81
151 133 81
146 131 81
151 127 73
153 132 79
157 140 86
148 129 76
152 166 185
155 170 188
152 167 183
153 168 185
157 172 193
147 161 175
161 176 196
161 177 196
153 168 184
161 177 196
151 166 184
153 168 184
155 171 187
149 163 180
158 174 193
153 168 187
152 167 186
142 157 171
157 173 193
149 164 182
158 174 193
154 170 187
160 177 196
161 178 200
153 169 189
161 178 199
155 171 191
153 169 186
152 168 187
155 172 192
152 168 187
159 175 197
158 175 196
150 165 183
149 165 185
147 162 179
150 166 183
148 164 184
155 171 191
150 166 186
149 165 186
155 172 193
142 158 176
153 170 190
153 170 192
158 175 198
158 177 199
141 157 175
159 177 200
161 179 202
158 176 200
157 175 198
153 170 191
156 174 197
148 165 185
159 177 200
154 172 195
139 155 174
144 160 180
156 174 197
157 175 200
142 158 178
144 160 179
147 164 187
148 165 187
151 169 192
153 171 192
150 168 190
147 165 186
136 152 170
159 178 201
148 166 186
157 176 199
148 166 189
146 164 185
150 169 190
149 167 188
146 164 185
140 158 180
140 158 177
147 164 185
148 167 190
141 158 180
148 166 186
153 172 195
146 164 185
149 168 192
151 170 195
142 160 180
145 163 185
144 161 180
144 162 184
154 173 198
151 170 193
151 170 192
140 158 179
149 168 189
155 175 199
154 174 198
139 157 177
153 174 199
153 172 197
150 169 192
147 166 190
154 174 199
152 172 196
141 159 183
155 175 200
146 164 187
144 163 186
147 165 189
151 170 194
151 171 196
145 164 185
148 168 192
152 172 197
149 168 190
145 164 185
148 167 188
149 168 192
150 169 190
152 172 194
146 164 183
152 171 192
145 164 182
152 171 193
147 165 185
150 168 191
166 187 212
145 163 179
139 156 173
146 164 182
135 151 168
138 155 170
149 167 183
152 170 187
133 149 164
137 153 170
144 160 173
150 166 181
147 162 177
163 179 199
163 177 194
214 232 255
214 232 255
214 232 255
214 232 255
214 232 255
214 232 255
214 232 255
214 232 255
214 232 255
214 232 255
194 211 234
58 78 120
45 71 123
42 68 117
40 64 101
40 63 111
42 68 112
41 66 113
42 67 112
43 69 99
37 59 99
43 69 107
45 71 115
43 69 100
46 74 121
40 63 114
48 75 124
47 74 120
49 77 129
47 74 122
45 71 113
41 66 113
47 74 123
45 71 112
35 56 89
44 71 119
45 72 122
40 63 103
45 72 123
37 59 97
42 66 114
43 69 114
43 67 110
47 75 121
45 70 119
51 80 134
49 78 122
45 72 122
38 60 105
43 67 109
47 74 111
46 73 113
45 72 114
45 71 117
46 73 116
47 74 120
50 80 129
49 77 121
45 71 118
43 68 116
48 75 116
50 78 131
47 74 106
48 76 124
47 74 116
45 71 119
45 72 105
46 72 114
44 70 119
50 79 128
50 79 130
41 65 97
46 72 113
44 70 116
45 72 106
41 65 98
41 63 99
46 73 123
48 76 114
36 58 104
44 69 114
49 76 127
48 76 126
44 69 110
46 71 115
44 69 111
35 55 88
39 62 92
44 70 112
46 72 118
39 64 106
40 63 89
45 72 120
48 76 132
41 65 98
42 66 109
43 67 99
39 61 94
43 66 107
44 68 104
40 62 96
37 58 105
44 68 117
197 214 240
214 232 255
214 232 255
214 232 255
214 232 255
214 232 255
214 232 255
214 232 255
214 232 255
214 232 255
214 232 255
162 152 132
155 136 82
149 135 85
129 112 70
136 127 82
136 125 80
141 130 84
143 127 78
126 112 70
139 124 77
129 111 68
143 127 79
140 125 79
147 135 87
153 138 86
148 134 84
159 148 94
154 141 89
146 130 79
148 134 84
155 142 90
154 143 90
152 139 88
160 149 96
151 137 86
155 143 90
143 125 74
158 146 92
152 136 84
156 146 93
151 135 83
156 146 93
149 133 81
149 134 83
145 126 74
151 137 87
143 130 82
147 132 83
149 135 84
157 147 94
152 142 90
160 149 94
149 136 87
151 140 90
142 127 79
149 139 89
152 143 93
156 149 98
148 140 91
143 133 85
148 133 84
147 136 87
144 130 82
143 130 82
150 135 84
145 130 81
143 125 76
148 135 86
134 121 76
159 147 94
158 147 93
154 141 89
143 126 78
158 144 91
139 122 74
155 145 93
139 124 77
148 132 82
142 126 79
144 125 76
138 124 79
145 129 81
146 132 84
151 136 85
141 127 79
147 132 82
148 135 85
153 140 88
156 144 93
158 148 95
152 136 84
153 136 83
150 136 85
146 132 82
144 129 79
151 141 90
157 144 91
153 136 84
148 132 82
155 140 87
145 127 78
156 140 87
146 124 73
154 137 84
140 121 74
159 142 87
152 136 85
150 130 78
154 139 88
154 139 87
145 129 81
154 142 91
148 134 85
144 128 81
146 130 81
148 130 79
151 132 81
148 128 78
145 128 79
143 124 76
153 138 87
156 142 90
141 119 70
150 135 84
152 132 79
153 140 88
165 152 97
146 123 72
157 139 85
161 143 88
151 134 84
148 133 82
143 123 74
150 132 81
149 132 82
151 128 77
153 131 78
140 118 69
149 134 84
141 121 74
148 132 82
150 136 85
147 130 79
137 116 69
145 128 79
148 131 81
153 139 87
153 134 81
154 138 85
167 151 94
144 124 74
154 138 85
147 128 77
155 170 189
162 177 196
159 174 191
150 165 179
144 158 171
161 177 195
154 169 186
161 177 198
148 163 177
157 172 188
145 159 175
148 162 178
148 163 178
140 154 167
152 167 182
146 161 174
146 160 177
149 164 181
158 174 194
154 170 188
150 165 182
163 180 198
151 166 181
156 171 191
151 166 185
157 173 190
156 173 192
150 165 181
148 164 182
145 160 175
154 170 188
153 169 187
159 175 195
142 157 175
161 178 197
151 167 185
153 169 187
156 173 192
154 170 190
158 175 195
157 175 197
155 172 193
156 173 193
158 175 199
159 176 199
163 181 204
153 170 190
161 179 202
154 172 193
144 160 178
158 175 198
157 174 197
159 176 199
152 169 189
153 170 192
136 151 169
156 174 196
162 181 205
154 172 193
156 174 198
158 176 199
147 164 185
152 170 191
157 175 199
146 162 182
144 161 180
142 158 177
159 178 202
148 165 185
154 172 194
142 158 177
144 161 180
151 169 191
151 169 191
145 162 182
150 168 189
160 179 202
144 160 180
157 176 200
149 167 189
149 167 188
154 172 194
146 164 183
149 167 191
153 171 192
140 157 178
148 166 186
149 167 188
147 165 187
145 163 185
153 171 195
153 172 196
144 162 184
146 164 186
142 160 181
147 166 190
157 176 200
146 164 187
150 169 193
153 173 198
150 169 191
142 160 181
149 168 191
146 165 189
154 173 198
154 174 198
151 170 194
153 172 195
155 175 200
158 179 204
159 179 204
157 178 203
151 170 192
157 177 203
161 182 208
150 169 194
154 174 198
152 171 194
145 163 184
157 177 202
154 174 198
150 168 190
150 169 190
154 173 197
149 167 188
151 169 192
147 165 185
154 173 196
153 172 194
146 163 184
149 167 189
142 159 176
151 169 187
146 163 181
136 152 166
155 173 194
141 157 173
145 162 178
148 164 181
127 140 148
150 166 181
139 152 167
160 175 192
180 195 215
215 232 255
215 232 255
215 232 255
215 232 255
215 232 255
215 232 255
215 232 255
215 232 255
215 232 255
114 130 161
39 63 113
39 61 110
43 68 123
41 66 112
48 77 130
41 64 103
44 70 115
45 73 121
39 63 92
43 69 110
43 68 101
46 73 124
42 67 117
42 67 115
52 82 139
46 73 128
47 74 121
38 60 102
39 62 90
42 67 102
44 69 109
49 77 125
43 68 114
43 69 112
47 73 109
48 77 129
48 75 121
41 64 99
44 69 103
44 69 115
42 66 104
48 76 112
49 76 107
43 69 105
49 77 132
45 71 117
45 72 107
43 68 110
39 63 109
39 61 101
46 72 116
47 74 121
48 75 121
43 68 104
48 75 115
45 71 118
46 73 124
47 75 119
44 70 114
48 76 124
48 76 126
37 59 100
48 76 119
48 75 123
48 75 127
45 71 112
48 75 117
49 77 125
44 70 108
46 72 120
45 69 110
43 68 107
41 66 112
47 74 117
48 75 127
50 79 126
44 70 117
46 73 114
45 70 112
46 74 113
45 70 121
50 78 128
47 74 129
45 71 115
40 64 108
45 72 104
46 72 116
42 66 113
45 70 110
38 61 103
47 74 122
43 68 107
47 74 115
50 80 136
44 68 116
47 74 122
44 68 112
44 68 113
49 76 115
42 66 105
48 74 127
38 59 94
118 132 155
215 232 255
215 232 255
215 232 255
215 232 255
215 232 255
215 232 255
215 232 255
215 232 255
215 232 255
195 205 216
154 134 81
150 135 85
148 135 87
137 124 79
138 126 80
145 132 84
137 121 74
145 133 84
148 137 88
150 138 88
149 137 87
151 137 86
153 141 90
152 139 87
156 141 87
151 133 80
152 138 86
149 133 83
154 140 88
150 135 84
143 127 81
153 141 90
153 140 87
143 128 79
153 141 90
149 134 83
157 143 89
156 143 89
156 144 90
159 149 96
151 136 84
151 137 86
148 133 83
152 139 87
143 125 76
151 137 87
147 129 78
146 128 78
148 137 87
150 133 82
158 145 90
148 133 83
150 136 84
152 136 83
157 145 92
150 139 89
152 140 87
162 151 97
145 134 85
149 134 83
153 143 93
147 134 85
154 144 93
155 144 93
155 142 90
154 137 84
149 132 80
153 138 86
149 134 84
153 136 83
153 139 88
150 135 84
146 132 82
144 128 81
137 123 77
147 132 82
145 134 85
145 127 78
151 138 87
146 132 84
155 143 91
135 114 68
134 117 72
152 137 85
150 134 83
154 141 89
141 119 67
155 139 86
143 127 79
147 134 84
136 118 71
147 130 79
149 135 84
143 128 79
149 136 85
147 128 76
148 131 79
140 120 72
144 125 74
147 130 79
161 146 91
152 137 85
149 137 87
135 116 70
154 138 84
150 133 82
156 141 87
153 136 83
149 133 82
157 143 90
147 123 69
153 136 84
163 151 97
153 139 88
146 132 84
150 133 82
147 130 81
141 121 74
146 131 82
148 132 82
140 118 70
139 125 79
148 130 79
149 129 78
155 137 84
162 147 93
151 132 81
154 131 78
151 131 78
162 143 88
159 138 84
136 114 68
150 135 84
151 132 81
151 128 76
149 131 81
140 115 67
149 131 81
162 145 90
145 124 74
144 124 76
134 115 69
137 115 68
154 137 85
139 125 77
151 130 78
153 133 79
155 137 84
153 134 82
143 121 72
154 132 79
148 126 74
155 136 82
167 183 203
152 167 182
155 169 187
156 171 189
160 175 193
157 172 189
161 176 196
158 173 189
145 159 173
153 167 184
153 168 183
161 176 195
155 170 185
153 168 185
161 177 194
137 150 159
157 173 191
149 164 181
148 162 179
153 168 186
166 183 205
161 176 197
163 179 199
159 175 195
153 168 187
155 171 189
153 168 187
155 170 188
141 155 170
160 176 194
160 176 195
144 158 171
155 171 191
151 167 184
148 163 179
156 172 192
146 162 177
152 168 187
152 168 188
156 172 193
160 176 199
148 164 182
154 170 191
154 171 192
157 174 195
145 161 181
150 166 188
152 168 189
155 172 193
158 175 196
156 173 195
160 177 198
155 172 194
144 159 179
148 165 184
155 172 194
162 180 203
155 172 194
154 170 189
149 166 185
149 166 186
144 160 179
151 168 188
150 166 187
146 162 179
150 167 188
152 170 191
163 181 205
155 173 196
150 167 187
157 175 199
145 161 181
158 176 198
155 173 195
153 170 191
157 175 196
154 172 195
147 164 185
141 158 176
149 167 188
154 172 194
148 166 185
151 169 191
146 164 184
158 177 200
151 169 191
157 176 200
153 172 195
150 167 189
144 161 182
145 163 183
152 170 193
144 162 183
145 162 184
156 176 200
156 175 199
153 172 197
154 173 195
162 182 206
155 175 200
156 176 201
153 172 196
148 166 187
149 168 190
153 172 194
153 172 196
160 180 205
150 168 192
148 166 188
149 167 187
151 169 192
151 170 194
149 168 190
156 175 199
156 175 199
157 176 201
157 177 203
147 165 185
157 177 201
140 157 171
149 167 187
166 187 213
155 174 198
145 162 183
151 169 189
153 171 194
147 164 182
163 183 208
132 149 169
133 151 174
117 134 159
100 116 140
143 160 183
135 153 175
140 157 175
147 164 180
144 160 177
142 157 169
145 161 178
146 162 178
155 171 188
145 160 176
148 162 178
163 178 195
213 230 253
215 232 255
215 232 255
215 232 255
215 232 255
215 232 255
215 232 255
215 232 255
198 215 240
42 67 118
44 70 116
42 66 112
44 71 123
39 62 106
42 67 110
45 71 119
40 63 112
42 67 108
35 55 93
44 69 110
45 70 120
45 71 115
45 72 119
48 75 114
47 75 126
46 73 124
40 64 105
43 69 105
42 68 109
43 70 121
45 72 117
45 72 115
45 70 118
47 74 116
38 61 91
45 71 106
47 75 116
46 73 119
51 81 136
44 68 105
46 73 117
40 64 107
44 70 113
52 81 135
38 62 95
48 76 133
44 70 113
45 72 110
50 79 126
40 63 105
44 69 119
48 75 122
44 69 109
50 79 129
47 74 114
45 71 115
46 73 118
45 71 118
44 69 103
48 75 112
47 75 112
45 72 109
42 66 104
48 77 128
46 73 119
44 69 117
43 68 101
44 71 108
44 70 116
46 72 116
44 69 111
39 62 94
49 77 127
44 70 114
46 72 120
49 77 118
40 63 102
45 72 116
38 60 90
43 68 106
48 76 124
45 71 120
48 76 122
41 64 104
40 64 99
52 82 126
43 69 119
45 71 109
46 72 121
49 77 135
45 70 107
43 67 110
45 71 107
45 71 107
41 64 104
40 61 97
46 74 126
42 66 109
43 68 114
39 62 106
44 69 112
36 55 93
59 77 106
193 209 233
215 232 255
215 232 255
215 232 255
215 232 255
215 232 255
215 232 255
215 232 255
213 230 253
152 138 107
159 145 91
151 141 91
159 146 93
127 113 72
136 124 79
138 123 76
136 121 74
141 129 81
146 133 85
129 111 68
136 121 76
109 96 62
112 104 70
124 109 69
142 127 79
155 140 87
146 129 79
149 133 82
144 125 74
154 138 86
154 141 89
146 128 78
149 136 87
144 129 81
153 138 86
148 135 84
159 146 92
145 130 79
153 139 87
152 135 84
154 143 91
147 132 84
158 144 90
146 128 78
157 145 91
151 136 86
152 138 86
153 139 87
156 145 92
159 144 89
161 150 96
153 141 89
161 152 97
153 139 86
159 143 87
160 149 94
153 141 90
153 143 93
150 137 87
153 138 87
157 145 91
157 142 90
150 134 83
153 139 87
151 140 89
154 145 94
141 122 74
155 137 83
152 133 81
147 128 78
152 137 86
136 117 72
156 142 90
152 141 91
141 125 77
148 132 82
154 143 91
146 130 81
143 128 79
154 143 91
150 137 87
136 120 76
148 132 82
148 134 84
160 144 90
153 134 80
147 131 81
148 132 82
138 122 74
151 135 83
153 142 90
141 129 81
139 121 72
143 130 82
152 138 86
146 129 79
158 145 91
158 141 87
142 121 72
155 144 93
151 135 84
157 142 90
143 126 77
155 139 87
138 120 74
146 130 81
150 132 81
161 145 90
150 132 81
154 138 86
146 125 74
148 130 79
157 141 87
145 123 73
143 123 74
152 135 84
151 136 85
158 142 90
143 125 77
154 137 85
155 137 85
146 129 81
147 132 82
151 130 76
139 116 69
154 134 81
157 139 86
152 132 81
157 138 84
156 140 88
154 136 83
156 138 85
157 141 88
151 132 81
153 134 81
151 132 79
148 130 81
149 128 77
144 127 79
154 136 84
159 140 85
138 122 76
142 124 76
151 130 79
150 128 76
143 123 74
152 134 82
141 120 71
146 120 67
161 145 90
152 135 82
159 139 83
156 139 87
163 179 195
142 155 170
162 177 196
158 173 190
150 165 181
167 183 204
151 164 180
149 164 180
152 166 180
152 166 182
148 161 177
161 177 195
154 169 185
154 169 186
160 175 195
151 165 181
148 162 176
153 168 186
154 169 188
152 166 184
148 162 176
160 175 195
154 169 188
150 165 180
160 175 195
162 178 198
159 176 192
156 171 187
144 158 173
156 172 191
157 173 191
151 166 185
148 163 180
145 160 175
150 165 182
160 176 196
144 159 177
144 159 176
154 170 191
164 180 203
148 163 182
156 172 191
160 176 196
155 171 192
167 185 207
152 167 188
163 181 204
159 176 197
157 173 194
156 173 192
154 171 192
161 179 201
148 164 182
146 161 179
158 175 197
149 165 185
148 164 183
157 174 195
151 168 190
150 167 188
142 158 175
152 169 190
152 169 190
160 178 200
146 162 180
148 165 182
147 164 184
152 169 189
155 172 195
138 154 171
150 167 189
152 169 188
163 182 204
153 170 193
156 174 196
146 163 183
147 163 181
148 165 185
139 155 176
150 167 190
156 175 197
157 176 199
154 172 192
159 177 201
152 170 192
148 164 186
152 170 193
143 159 179
150 168 190
150 167 188
150 168 190
148 165 184
155 174 198
152 170 191
154 171 195
153 170 193
154 173 196
163 182 208
155 174 198
152 171 193
151 170 194
154 172 196
164 184 210
144 162 181
153 172 194
147 164 183
150 168 191
157 176 199
144 161 181
155 174 196
155 174 198
155 173 194
153 172 195
153 172 194
154 173 196
160 179 205
158 177 202
153 172 193
157 176 198
157 175 199
154 172 195
146 163 182
143 160 177
151 169 188
157 175 199
156 176 200
119 135 156
64 82 114
68 87 130
81 98 134
68 82 108
68 84 114
59 78 120
71 89 127
65 79 101
94 110 138
139 154 169
154 171 187
139 155 167
152 168 186
145 160 174
143 158 170
145 158 174
149 162 179
196 212 233
215 232 255
215 232 255
215 232 255
215 232 255
215 232 255
215 232 255
215 232 255
152 167 191
41 66 114
42 67 118
38 61 106
39 62 96
47 75 127
46 73 125
42 67 107
45 72 127
48 75 126
42 67 104
47 75 126
45 71 131
48 77 129
42 66 109
46 73 123
40 64 103
44 71 111
48 76 120
47 75 119
47 74 124
46 72 116
43 68 112
45 70 116
39 62 103
45 71 114
44 70 97
46 73 122
49 78 123
41 66 111
40 63 103
40 63 102
45 72 113
51 80 127
47 74 124
43 68 104
48 76 117
46 72 121
41 65 105
48 76 130
46 74 119
41 64 111
46 73 121
43 69 106
44 70 104
49 77 130
44 70 115
43 68 115
45 71 117
48 76 121
50 78 122
46 73 117
45 72 108
42 66 105
42 66 104
47 75 122
48 77 122
46 72 113
47 74 119
50 78 121
47 74 117
45 72 105
42 68 114
46 74 121
46 73 114
47 74 121
46 73 116
47 74 108
46 72 117
47 74 114
44 69 104
46 72 118
50 79 124
45 71 119
45 71 115
42 67 108
45 71 113
40 63 107
43 68 118
44 69 107
42 66 104
46 72 119
40 63 109
42 65 103
41 65 98
47 75 122
40 62 97
44 70 108
47 73 108
44 69 117
37 58 89
43 67 108
37 58 82
40 61 101
45 70 111
135 149 171
215 232 255
215 232 255
215 232 255
215 232 255
215 232 255
215 232 255
215 232 255
200 206 207
152 133 81
145 130 82
145 131 84
135 118 74
148 134 85
143 128 81
150 135 84
137 126 81
106 98 66
56 46 38
55 51 47
59 55 49
60 52 45
66 56 41
69 57 45
56 55 50
81 66 46
110 101 66
145 131 84
162 150 96
155 141 89
155 144 91
149 136 86
164 151 96
154 141 89
149 133 81
156 139 84
164 150 93
158 144 90
152 134 81
148 133 82
157 143 90
157 142 90
158 147 94
155 144 91
157 143 90
153 139 87
154 140 89
153 139 87
152 137 86
155 142 90
157 146 93
162 150 94
163 149 93
153 137 83
163 151 96
152 138 86
154 141 89
150 130 78
155 141 88
152 138 87
150 137 87
154 138 86
161 148 94
155 142 91
150 132 81
151 133 81
140 122 74
144 126 78
142 123 74
155 143 91
152 137 86
145 128 78
152 136 84
144 128 79
155 142 90
143 125 76
151 134 82
153 137 85
152 134 82
150 134 83
156 143 89
153 137 85
141 125 76
154 133 79
150 132 81
153 136 83
153 134 81
157 139 84
143 124 74
145 128 78
164 151 96
147 128 76
148 133 82
156 142 89
153 137 84
153 135 82
149 130 78
156 142 89
153 133 81
151 138 87
148 135 85
151 137 87
157 144 91
154 133 78
149 130 78
148 131 81
146 121 69
148 131 81
149 129 78
156 139 86
153 136 84
156 139 86
151 131 79
157 139 86
143 123 76
144 124 74
149 130 79
146 124 74
148 132 82
159 143 90
152 136 85
147 130 81
146 125 76
151 133 82
151 131 81
154 134 81
141 121 74
152 132 81
146 123 72
154 133 81
159 142 88
156 137 84
158 138 83
147 126 76
152 134 82
151 132 81
148 128 77
147 129 79
159 142 87
157 140 87
153 137 85
160 143 88
137 109 63
162 143 87
139 119 72
148 130 79
150 133 82
149 130 79
154 138 85
156 138 84
155 136 82
152 135 82
159 137 82
149 163 178
162 177 196
166 181 201
153 167 183
149 162 177
153 167 183
160 175 191
154 169 184
146 160 174
150 164 178
162 177 196
155 169 185
150 164 179
148 162 176
159 174 194
157 172 191
145 158 175
153 167 185
148 162 180
154 169 187
159 174 192
156 171 189
161 177 195
148 162 177
153 168 183
160 176 191
159 174 192
149 164 179
155 170 186
152 167 185
153 169 184
144 158 170
147 162 177
148 163 181
153 168 187
165 182 203
153 168 187
147 161 180
149 163 183
152 167 186
153 168 188
150 165 186
150 165 185
161 178 199
160 177 198
159 175 195
156 172 193
159 176 197
150 165 185
154 170 191
150 166 185
152 168 189
161 178 198
159 175 197
157 174 194
160 177 199
152 169 187
156 173 193
140 155 170
152 169 189
149 166 183
143 159 176
155 172 191
151 167 187
156 173 195
150 167 187
157 174 196
158 176 198
154 171 193
163 181 204
165 183 207
151 167 188
154 171 193
164 183 207
161 179 201
158 176 199
155 173 194
155 172 192
146 162 179
147 164 186
149 165 186
151 168 190
145 162 182
152 169 189
153 170 192
154 172 192
150 167 187
157 175 197
157 175 196
155 173 194
151 168 189
156 174 197
144 161 181
150 167 189
152 169 188
158 177 200
159 178 201
158 176 201
146 163 182
160 179 204
158 176 200
161 180 205
144 162 181
152 171 192
151 169 190
160 179 205
149 167 188
151 169 190
153 171 193
158 176 199
151 168 189
150 168 189
161 181 206
158 177 199
158 177 200
158 176 197
159 178 203
161 179 204
148 166 187
149 166 185
151 168 188
146 163 183
146 163 177
150 167 185
115 131 155
58 73 104
53 71 106
55 72 101
73 90 125
71 85 110
65 80 105
69 82 102
62 82 121
59 78 118
67 80 103
62 77 106
63 79 107
98 111 126
147 163 182
146 161 177
150 166 183
145 160 175
144 158 173
146 159 172
172 186 204
216 232 255
216 232 255
216 232 255
216 232 255
215 232 255
215 232 255
215 232 255
78 96 134
37 59 105
40 64 104
39 62 97
41 65 103
42 65 111
49 79 128
44 70 115
43 69 106
51 81 137
45 72 114
46 72 120
43 67 107
45 72 122
42 65 105
43 68 112
47 74 120
50 80 137
44 70 112
47 74 112
47 74 119
46 72 118
47 75 116
40 63 107
45 71 114
51 81 136
41 65 95
43 69 114
38 60 98
49 77 124
42 66 98
43 68 98
42 67 110
39 62 96
43 68 111
46 73 113
47 74 113
45 72 104
43 69 104
54 85 141
45 72 129
49 77 126
43 69 102
43 68 107
46 74 118
46 73 104
48 77 122
49 77 125
47 74 119
47 75 115
47 74 115
47 74 119
43 68 93
39 63 100
47 74 118
44 71 112
42 67 113
48 75 111
44 68 106
43 68 113
47 76 120
45 71 107
46 73 117
44 70 103
45 72 119
45 72 113
45 72 121
49 77 124
44 70 106
45 71 110
41 64 108
42 66 107
45 71 114
50 78 128
38 60 89
43 68 105
44 70 102
46 72 125
46 72 115
39 61 97
42 67 98
42 65 106
42 66 98
43 67 108
41 65 102
42 64 109
43 67 118
47 72 104
45 72 124
45 72 108
42 66 111
42 66 108
47 73 122
32 49 82
39 62 110
90 106 142
211 228 250
216 232 255
216 232 255
216 232 255
216 232 255
216 232 255
213 229 251
162 146 111
163 147 91
160 143 90
140 127 80
147 135 87
142 129 82
146 135 87
75 69 49
55 49 42
58 46 37
61 49 36
57 49 43
60 50 43
70 54 40
56 52 46
58 53 45
57 51 44
78 58 39
71 55 41
71 66 53
116 104 70
147 130 80
150 134 83
150 132 79
159 146 92
156 141 87
155 138 83
159 143 87
151 134 83
150 134 81
145 128 79
151 133 80
157 141 87
163 150 96
154 139 86
152 137 84
160 146 91
157 142 90
153 139 86
148 131 79
162 150 96
155 144 91
153 142 90
156 140 86
162 147 92
151 137 84
156 140 86
163 151 96
148 134 83
162 150 94
153 139 87
158 148 95
153 140 88
162 149 94
154 141 90
157 147 95
155 142 90
155 144 93
144 124 73
151 134 82
145 128 78
143 127 79
140 122 76
146 131 82
149 132 81
145 129 81
144 130 82
146 133 84
147 129 79
156 141 88
149 130 79
161 144 89
151 134 82
152 138 87
144 128 79
155 141 87
152 136 84
160 145 90
150 134 83
158 141 86
137 118 72
151 138 87
154 139 87
148 134 84
148 130 79
153 140 88
154 137 83
158 144 90
153 137 85
147 131 81
155 139 87
156 142 90
157 142 88
151 131 79
149 131 81
149 130 79
154 136 84
153 138 87
153 136 84
157 141 87
154 135 83
161 144 89
167 153 97
146 124 73
154 135 81
148 127 76
162 148 93
157 137 83
151 133 82
149 132 82
145 127 77
152 136 85
141 121 74
152 136 85
167 152 95
144 127 79
154 136 84
144 124 76
157 139 85
144 122 72
159 137 83
157 139 84
145 120 70
152 133 82
143 124 76
135 112 65
145 126 77
165 149 94
150 132 81
155 139 87
155 138 85
153 134 81
149 128 77
152 133 81
149 130 79
143 123 74
153 133 81
147 126 74
141 121 72
150 130 78
145 122 71
154 133 79
161 144 89
151 131 79
161 143 87
159 172 191
166 181 199
147 160 174
158 172 187
167 182 201
160 174 192
155 169 182
153 167 185
144 157 172
152 165 183
151 165 178
155 170 185
157 172 187
153 167 182
156 170 189
158 173 188
150 164 179
163 178 196
153 167 186
144 158 169
156 170 187
163 178 197
151 165 180
146 160 173
158 173 191
156 171 189
155 170 185
149 163 181
142 156 168
164 180 201
146 160 175
164 180 201
158 173 194
159 175 193
165 181 201
149 164 182
162 178 198
157 173 192
160 176 197
162 178 199
164 180 202
159 174 195
164 181 201
151 166 186
157 172 193
155 171 192
166 183 206
160 176 196
154 169 190
156 171 192
157 173 194
164 181 204
147 163 181
154 170 190
151 167 185
153 170 186
146 162 181
147 162 180
141 156 171
144 159 176
158 175 196
144 159 177
157 174 196
146 162 180
156 173 194
159 176 197
151 167 185
164 182 205
159 176 195
164 181 204
164 182 205
155 172 194
156 172 194
156 173 196
160 177 199
153 169 191
155 172 193
155 172 191
146 162 179
153 170 192
137 152 168
158 175 198
155 173 192
156 173 196
157 176 198
154 171 192
151 167 188
140 156 174
154 172 191
147 163 184
141 158 175
142 158 178
155 172 194
154 171 193
158 176 199
159 177 200
149 165 187
147 163 182
147 163 184
160 178 202
158 176 199
152 169 190
152 170 190
143 160 178
146 163 182
151 169 189
154 173 194
155 173 195
143 160 179
147 164 182
153 171 192
152 170 190
154 172 194
151 169 188
152 170 192
152 170 190
161 180 203
166 186 210
150 167 184
157 175 197
155 172 193
148 164 184
152 170 194
87 103 132
66 85 122
59 76 115
56 74 115
55 72 104
69 85 118
62 79 112
68 84 112
74 91 120
63 78 108
56 72 109
56 74 112
64 75 89
52 69 101
58 75 106
63 78 99
121 136 155
133 146 160
147 162 171
148 162 176
149 162 178
158 172 189
208 224 246
216 233 255
216 233 255
216 233 255
216 232 255
216 232 255
182 198 224
43 68 118
44 69 116
42 67 113
43 69 119
38 61 107
44 70 112
45 72 110
46 74 113
44 70 120
41 65 105
37 59 91
43 68 99
40 64 104
44 69 118
46 73 118
47 73 122
47 74 114
44 71 112
42 67 115
48 75 123
47 75 122
40 64 101
41 66 103
50 79 129
43 68 107
43 67 104
51 80 136
42 67 109
46 73 119
45 71 116
42 68 99
42 67 113
38 61 89
46 73 119
48 75 117
48 77 121
44 70 107
49 79 116
45 71 115
43 69 111
43 68 110
41 66 106
50 79 129
44 69 111
44 71 113
47 75 132
48 77 123
49 77 121
47 74 113
42 66 109
43 67 107
46 73 121
50 78 133
45 71 117
44 71 119
44 70 113
47 74 125
41 65 112
43 69 110
42 66 106
43 69 115
46 73 114
45 72 116
46 73 120
45 72 111
45 70 107
49 78 132
47 74 121
45 71 115
45 71 117
42 67 116
45 70 109
48 75 116
52 83 133
36 58 81
45 70 111
44 70 112
48 76 123
44 69 119
46 73 118
45 71 117
41 65 104
44 68 112
45 71 122
47 74 116
44 68 105
40 64 97
37 58 94
41 62 106
44 69 97
37 56 87
41 63 96
47 72 111
44 67 110
35 53 82
39 60 102
181 196 216
216 232 255
216 232 255
216 232 255
216 233 255
216 233 255
193 199 202
159 138 84
142 125 77
143 123 76
140 127 80
144 133 85
114 106 71
69 51 37
55 48 39
60 48 42
70 56 44
74 55 38
58 48 37
55 47 39
56 52 46
67 53 40
69 54 37
65 55 40
71 60 49
73 55 39
72 61 48
64 54 46
85 76 55
144 129 81
154 139 87
146 130 81
156 136 81
151 135 84
150 131 79
154 137 84
156 136 83
157 143 90
154 140 88
157 142 90
149 135 85
147 128 75
162 148 93
160 146 91
148 128 76
157 145 91
152 138 87
158 147 94
149 135 85
158 143 89
151 139 87
152 136 83
157 143 90
154 142 90
163 148 92
167 153 96
160 147 93
160 148 93
155 137 84
152 138 87
143 128 81
155 142 90
154 135 82
163 150 96
155 140 87
152 137 85
152 137 85
149 131 79
151 134 82
158 146 93
137 120 74
156 139 87
152 135 84
147 129 79
144 123 72
150 133 81
153 139 87
157 139 84
157 143 90
161 143 87
157 140 86
145 127 76
142 126 78
146 130 79
157 142 89
158 142 87
150 138 87
145 129 79
139 125 77
150 136 85
144 128 79
145 129 79
149 134 83
153 142 90
145 130 81
137 120 72
152 141 90
136 120 76
136 122 77
144 130 82
146 130 82
150 134 84
151 135 84
150 131 79
155 138 85
156 135 81
153 130 76
156 138 83
151 129 75
162 143 86
162 142 86
152 134 82
157 136 81
153 129 76
150 132 81
161 146 91
160 143 88
151 133 81
142 125 77
153 134 82
156 137 84
159 143 90
145 124 76
139 119 72
157 139 87
142 123 76
150 130 79
153 134 82
154 133 79
158 139 85
153 134 82
162 143 88
159 140 85
145 127 78
158 138 84
153 138 85
166 149 93
158 141 87
152 134 82
151 131 79
153 131 79
156 137 83
158 138 83
153 135 82
148 126 74
153 136 84
163 145 89
151 127 74
155 133 79
152 129 74
158 139 84
154 133 79
148 162 175
157 171 187
164 178 197
165 180 197
147 161 177
159 174 190
159 174 191
146 159 171
154 168 180
155 169 184
160 174 192
156 170 186
157 172 188
160 174 191
151 164 180
164 179 197
155 169 184
151 164 180
148 162 179
153 167 182
165 180 199
164 179 199
160 174 193
162 177 196
162 177 195
162 177 196
153 167 183
159 173 193
151 165 183
162 178 196
146 160 174
163 178 198
152 167 185
156 170 190
159 174 194
158 173 193
160 175 193
152 166 185
163 179 200
155 170 188
152 167 185
152 166 185
161 176 197
168 185 207
161 176 197
165 181 203
154 169 188
161 177 196
158 174 194
151 166 183
150 166 185
154 169 188
152 167 188
152 168 187
152 168 185
148 164 182
150 165 183
152 167 185
157 173 191
162 179 200
139 154 169
149 164 183
157 173 194
160 178 198
153 169 189
160 177 198
164 181 203
160 177 198
153 169 189
155 170 191
156 173 193
160 177 200
159 176 197
161 178 199
150 166 185
160 176 198
157 173 195
153 170 190
151 167 188
147 162 180
147 162 178
161 179 201
151 168 187
155 172 190
151 167 187
161 178 199
155 173 195
157 175 196
157 174 195
150 165 184
159 176 197
149 166 186
146 162 182
152 168 189
160 178 201
160 177 201
159 176 196
164 183 207
158 175 197
150 167 186
157 175 196
148 164 185
156 173 194
148 164 182
154 172 193
147 164 180
160 178 199
156 174 195
156 174 195
160 178 200
150 167 186
153 170 191
143 159 176
159 177 201
148 165 183
152 170 190
164 183 206
162 181 204
156 174 194
151 168 189
146 163 180
143 160 183
67 82 109
78 95 124
63 79 113
68 84 117
69 87 118
71 87 118
62 80 116
65 82 120
68 84 120
66 82 108
56 72 105
68 82 106
59 73 99
53 67 94
70 85 115
59 76 103
52 69 97
63 76 97
120 133 151
139 153 168
153 167 183
151 165 181
154 168 182
178 192 211
216 233 255
216 233 255
216 233 255
216 233 255
216 233 255
118 132 157
34 54 95
39 62 107
39 62 101
42 67 105
42 66 103
44 69 110
42 67 112
50 78 129
46 72 123
43 67 116
50 79 128
44 70 117
42 67 97
40 63 107
46 74 119
41 64 103
45 72 112
41 65 96
41 66 102
44 70 120
46 73 120
45 71 110
43 67 110
44 69 105
47 73 119
48 75 122
44 69 109
45 71 114
46 72 111
44 71 112
46 73 120
43 68 114
45 72 112
47 75 120
44 70 100
46 73 120
45 72 109
50 79 129
45 71 113
42 67 99
44 69 95
38 61 99
48 75 124
44 70 99
42 66 111
46 73 120
46 72 121
45 72 117
48 75 113
47 74 122
39 62 86
43 68 105
45 70 113
44 70 112
45 72 114
44 70 112
45 71 91
45 71 107
47 74 113
44 68 103
48 76 129
42 67 109
42 66 111
47 74 124
49 78 122
41 66 103
44 69 112
41 66 105
47 73 119
44 69 107
45 71 101
49 78 127
44 70 107
49 78 127
43 68 110
45 70 113
47 73 114
44 69 117
47 74 125
45 70 114
40 64 85
46 73 98
40 64 99
47 75 119
42 65 101
44 68 105
42 65 98
42 65 102
45 72 117
47 73 115
45 68 109
44 69 102
42 65 105
42 66 109
39 60 94
45 68 111
119 135 162
216 233 255
216 233 255
216 233 255
216 233 255
216 233 255
184 178 151
148 132 82
142 125 77
162 145 91
150 137 87
108 99 66
58 51 46
57 47 34
56 43 30
61 50 41
65 49 34
58 50 42
59 50 34
67 56 45
66 50 30
63 51 40
64 55 44
57 50 41
69 57 44
75 52 35
62 52 39
64 53 44
56 54 50
79 65 46
144 131 82
153 137 85
163 147 90
158 143 89
150 132 81
159 142 87
162 147 90
150 133 81
163 148 93
149 128 75
148 132 82
163 148 92
162 149 94
162 151 97
157 144 90
154 139 86
159 146 92
154 139 87
151 136 84
153 141 90
157 142 87
151 136 85
153 137 84
157 141 87
158 140 84
162 148 92
155 136 81
159 142 87
155 139 87
160 145 91
144 129 81
159 143 89
159 146 93
152 136 85
149 132 81
144 124 74
144 128 79
153 138 87
149 132 81
155 135 81
158 142 88
153 136 84
148 134 85
154 139 87
161 142 84
152 133 80
153 135 82
159 142 87
144 122 72
156 138 84
156 142 88
153 135 82
154 139 87
150 134 82
139 117 69
155 140 86
148 131 81
152 134 82
145 131 82
152 141 90
137 122 74
155 141 88
146 131 81
149 134 84
147 132 81
143 127 78
142 127 79
156 144 93
141 125 77
138 123 77
151 137 85
143 125 77
154 140 88
165 153 97
144 125 76
149 131 81
160 141 86
148 129 79
154 135 82
155 138 84
166 148 90
158 136 81
153 132 79
155 134 81
157 138 83
159 142 87
143 121 71
161 142 87
154 136 83
147 129 79
154 138 85
154 136 84
149 132 81
151 130 79
142 123 76
158 141 87
145 125 76
155 135 82
155 137 84
151 130 78
158 134 79
151 128 76
157 133 78
150 132 79
152 135 84
145 124 74
154 134 82
150 130 79
153 134 82
151 129 77
146 126 76
151 133 82
153 132 79
149 131 79
149 125 72
158 144 90
166 145 87
163 145 88
164 148 91
160 140 84
149 126 73
152 134 82
166 180 198
150 163 176
159 173 189
165 180 196
160 174 190
163 178 195
159 173 190
155 168 183
162 177 192
163 177 195
157 172 189
165 180 197
154 168 182
164 179 197
155 169 184
144 157 170
145 158 174
151 164 178
153 167 184
161 175 193
153 166 183
157 172 189
152 166 183
142 155 168
146 160 172
163 178 196
158 173 191
162 177 195
158 173 189
150 165 180
159 174 193
156 171 189
163 178 197
143 156 174
161 176 195
153 167 185
164 179 200
144 158 175
165 180 201
154 169 188
155 170 190
140 153 170
166 181 202
156 171 191
159 174 195
152 167 186
165 181 203
153 168 187
148 162 181
155 170 188
152 167 186
158 174 195
162 178 199
149 164 183
146 160 176
163 179 201
146 161 177
146 160 178
152 167 185
140 154 170
154 170 189
147 162 180
156 173 193
155 171 191
163 180 201
160 176 197
156 172 191
159 176 197
152 168 187
149 164 184
152 168 187
146 162 179
151 167 188
164 181 204
151 168 187
164 182 203
153 169 189
148 163 183
142 157 175
160 176 198
152 167 186
162 179 200
158 175 195
152 168 189
164 181 203
157 175 195
157 173 193
154 171 192
158 174 195
162 179 199
157 174 195
148 164 181
162 179 200
149 165 184
156 173 194
161 179 200
158 175 195
143 158 175
159 177 198
162 179 202
159 176 199
161 179 201
145 161 177
152 169 190
161 179 201
159 176 195
155 172 193
161 179 201
155 173 193
149 166 181
156 173 193
153 170 189
155 172 190
158 175 198
157 174 192
151 168 186
161 179 201
162 179 202
157 175 197
157 174 195
146 162 182
92 106 125
64 84 126
59 77 113
73 87 107
67 86 124
66 81 115
67 81 105
60 78 110
56 72 100
49 70 108
70 87 123
55 71 98
77 90 110
64 79 109
58 72 102
51 67 98
68 83 109
61 74 89
55 71 96
54 70 97
97 110 125
143 158 170
140 153 166
162 176 193
170 185 203
213 229 251
216 233 255
216 233 255
216 233 255
214 231 254
52 73 120
40 63 106
44 69 110
44 71 122
45 72 124
37 59 90
46 74 119
44 69 114
42 67 113
47 75 124
40 65 105
41 64 105
41 65 102
46 73 124
44 70 108
45 72 113
41 66 93
44 70 117
43 68 106
42 67 111
47 75 120
40 63 91
41 65 97
46 73 116
42 67 103
46 74 118
40 64 111
44 70 115
42 67 101
47 74 130
50 79 123
45 71 115
43 67 105
50 78 122
40 63 109
46 73 118
43 69 111
48 77 118
47 74 114
44 70 107
39 62 101
53 84 138
45 72 119
44 70 123
44 69 110
42 66 111
50 79 127
43 68 111
40 64 99
38 60 94
44 69 107
43 68 107
42 67 114
45 71 122
41 65 104
41 66 108
45 72 113
44 70 104
47 73 122
48 76 117
49 77 130
43 68 114
42 66 100
45 70 115
44 69 112
44 69 103
41 65 110
43 69 107
43 69 111
51 79 136
50 78 128
42 67 96
48 77 124
43 69 114
44 71 108
42 66 101
41 65 104
48 77 134
46 73 116
46 72 110
48 75 113
40 63 99
46 72 112
39 61 98
46 72 115
44 70 113
40 62 101
38 58 85
41 65 99
46 71 115
43 69 105
41 64 97
45 70 105
40 62 102
44 69 107
38 57 88
35 53 82
60 79 115
208 224 246
216 233 255
216 233 255
216 233 255
207 220 238
160 139 84
160 142 88
145 129 80
141 127 80
109 101 68
59 47 39
61 50 39
57 41 28
67 48 30
65 51 37
61 45 34
58 48 38
67 52 40
77 52 30
67 56 40
56 53 44
56 48 40
61 54 41
66 56 45
61 53 43
70 58 46
62 54 47
65 54 42
69 54 39
76 68 54
157 142 89
163 148 92
161 146 91
160 144 90
159 142 87
152 134 81
157 143 90
148 133 82
162 147 92
157 140 87
149 135 85
150 134 83
155 138 86
154 140 88
154 133 79
161 146 91
154 136 83
158 143 89
163 148 92
144 128 79
160 145 90
157 144 90
160 146 91
152 137 84
156 142 89
157 140 86
153 135 83
150 132 79
153 135 82
153 136 84
154 141 90
158 145 93
150 136 85
151 133 81
149 134 84
154 141 90
160 147 93
151 131 79
152 136 84
150 130 79
146 127 77
147 126 76
159 141 86
153 137 85
150 131 79
150 128 76
154 139 87
147 130 81
163 146 90
159 141 87
156 137 83
144 127 78
155 131 76
150 135 84
148 130 79
156 140 86
151 138 87
149 135 84
144 127 77
140 128 81
140 125 79
145 133 85
154 139 86
154 141 88
145 131 81
148 135 84
146 129 79
157 145 91
156 143 91
154 138 87
134 116 70
145 126 77
164 151 95
157 141 88
156 137 84
149 124 72
149 129 76
161 144 90
151 132 79
159 141 86
161 144 89
153 135 82
160 138 83
161 143 87
158 140 86
152 126 71
150 128 76
155 134 81
152 133 81
168 151 93
157 137 83
146 125 74
167 151 94
152 133 81
155 138 87
155 135 82
152 134 82
153 131 78
160 140 85
163 146 91
157 137 84
154 132 78
158 141 87
153 134 81
163 145 90
156 135 81
156 138 84
149 127 76
158 136 81
156 135 80
151 127 74
151 130 78
156 138 84
154 136 84
156 135 81
158 135 79
157 138 84
156 138 84
167 147 89
157 138 84
164 146 89
161 174 193
159 172 189
154 168 183
161 175 192
160 174 190
159 173 189
155 168 183
155 168 183
152 165 180
161 175 192
156 170 184
164 178 195
145 158 168
156 170 189
152 165 180
149 162 175
159 174 189
160 174 190
160 175 190
158 172 190
156 170 187
153 167 185
163 177 196
149 162 179
144 157 171
157 171 185
154 168 182
150 164 179
159 174 192
162 177 196
152 166 183
157 171 188
156 171 189
158 172 191
166 181 202
151 165 180
163 178 197
162 177 197
159 173 193
166 181 201
163 178 198
152 166 185
157 172 192
160 176 195
153 168 185
148 162 181
146 159 177
153 168 187
155 170 190
156 171 190
146 159 178
148 162 180
153 167 186
154 169 188
133 147 162
155 170 190
154 169 188
144 158 173
144 159 174
168 185 207
151 166 184
149 164 183
147 162 180
152 167 185
156 171 191
152 167 187
158 174 195
153 169 188
154 169 189
162 179 199
157 173 193
156 172 192
152 168 186
152 167 186
157 172 192
157 173 193
156 172 192
156 171 191
170 187 210
161 178 198
148 164 178
157 174 194
163 180 201
155 171 192
147 162 178
152 167 187
164 181 203
162 179 200
150 166 182
154 171 190
155 171 190
152 168 186
158 175 194
151 167 185
154 171 192
154 171 191
152 169 190
148 164 184
157 174 194
154 170 188
150 166 184
161 178 200
151 168 185
154 171 191
156 173 193
162 179 200
156 172 190
164 182 205
154 171 190
159 176 197
151 167 184
162 179 201
150 165 181
155 171 190
145 161 176
152 168 188
147 163 180
157 174 192
155 172 190
158 175 195
120 135 159
70 87 121
70 86 116
60 76 106
66 80 105
66 82 114
68 85 120
70 81 99
64 78 103
66 82 104
61 77 100
68 82 109
54 70 99
62 78 113
56 69 87
61 77 98
51 64 83
58 72 91
68 82 112
58 72 97
54 69 92
52 66 95
112 126 141
150 163 179
160 174 191
170 185 203
193 208 228
217 233 255
217 233 255
217 233 255
167 183 211
45 72 127
37 59 92
42 66 114
42 68 110
42 65 104
40 65 104
48 77 127
42 67 111
46 73 121
38 61 103
42 67 106
42 66 114
43 69 114
47 74 116
43 68 102
44 70 109
49 78 133
45 72 110
44 69 118
46 73 116
44 70 107
45 72 113
49 76 118
41 64 103
40 64 99
41 67 113
47 74 108
44 69 109
46 73 117
44 70 103
47 75 118
51 81 132
46 72 121
41 65 94
47 74 115
45 71 109
41 65 98
49 77 129
50 80 123
47 75 123
36 57 98
49 78 126
46 72 116
42 66 107
45 72 116
44 70 110
35 57 95
45 71 114
42 66 96
48 76 117
43 69 102
43 68 104
44 70 114
42 65 105
50 80 131
47 73 122
50 79 125
45 71 117
44 70 113
43 68 112
37 58 93
42 66 111
46 72 109
46 73 118
48 76 111
45 71 112
44 70 108
40 64 99
43 66 107
46 74 125
39 62 95
47 75 117
39 62 99
46 73 118
45 71 112
46 72 116
45 70 111
45 70 113
42 66 105
48 76 116
45 72 110
43 69 111
45 71 114
38 59 92
46 72 115
47 73 117
44 69 115
42 66 106
46 72 113
47 74 116
44 69 104
46 71 115
44 68 98
43 67 112
42 65 106
41 63 105
39 59 89
42 65 100
152 166 188
217 233 255
217 233 255
217 233 255
195 197 197
157 135 79
165 151 95
135 117 72
119 105 67
49 44 37
47 43 36
56 46 35
57 43 32
64 46 30
52 46 34
53 48 36
65 47 31
71 55 38
56 47 38
70 58 40
57 55 44
56 53 44
53 55 47
77 58 39
70 59 45
67 53 40
66 53 43
60 50 43
68 57 48
65 54 46
100 90 59
155 140 86
146 126 74
148 131 81
156 137 83
156 139 86
157 143 90
166 151 93
159 140 86
154 138 86
160 148 94
160 147 93
154 138 84
160 146 91
158 145 91
156 139 86
142 122 72
161 148 94
160 148 94
154 141 88
165 147 90
152 137 87
151 133 81
165 151 94
155 141 88
161 148 94
163 151 96
158 144 90
169 157 100
150 136 85
161 146 91
146 134 85
167 156 99
162 147 93
147 128 78
151 134 82
151 136 84
149 130 79
146 124 72
151 136 85
144 125 74
161 143 87
153 133 79
145 128 79
161 145 89
163 144 87
155 137 83
157 140 86
140 122 74
149 133 82
142 123 74
154 139 87
160 145 90
162 147 91
147 128 77
158 146 93
147 130 79
153 137 84
152 135 84
147 128 79
127 104 60
160 146 91
150 135 84
143 125 76
152 135 83
148 131 81
141 125 77
134 121 76
145 131 82
148 133 84
143 127 79
139 126 79
145 130 81
133 114 70
142 120 71
163 146 90
158 143 90
145 124 74
163 146 91
155 134 81
158 140 86
152 129 78
149 128 77
157 137 83
156 135 81
153 135 82
159 142 87
149 130 79
165 147 90
154 133 79
154 136 84
162 142 86
152 127 74
151 132 81
170 153 95
156 139 87
151 132 81
157 140 87
150 130 78
149 127 76
160 141 87
158 139 85
145 123 72
161 143 87
144 118 67
147 127 76
158 136 79
160 144 90
158 138 84
156 137 83
167 146 87
144 125 76
154 136 84
148 128 76
162 141 85
148 125 72
159 139 84
166 149 91
161 138 81
158 138 81
162 143 86
163 177 195
159 172 188
151 164 179
161 175 191
160 174 188
160 174 187
156 170 182
147 159 173
153 166 181
155 168 183
162 176 193
159 173 191
147 160 173
156 169 184
163 177 194
153 166 179
159 173 190
159 174 189
161 175 191
164 178 197
154 167 182
164 179 197
157 171 187
167 182 200
159 173 188
154 168 181
151 165 181
149 163 177
150 164 178
155 169 184
159 174 192
160 174 192
157 171 189
164 179 197
148 161 176
156 170 189
157 171 190
161 175 194
153 167 183
164 179 200
159 174 192
155 170 187
164 179 199
170 185 205
153 167 186
156 170 190
152 167 184
154 168 187
146 160 177
161 177 196
153 167 185
162 177 197
156 171 188
158 173 191
160 176 195
151 166 183
153 168 186
145 159 177
159 174 194
152 167 185
143 157 172
152 167 184
160 176 196
157 172 190
155 170 189
158 173 193
159 174 193
151 165 183
159 174 194
148 162 178
160 175 195
148 163 180
152 167 185
156 172 190
158 174 193
161 177 197
144 159 177
159 175 195
166 183 203
163 179 199
160 176 196
154 169 187
152 167 185
148 163 180
167 184 205
146 161 179
153 169 187
147 162 179
147 163 181
160 176 195
146 161 178
162 178 198
166 183 205
162 179 199
153 169 188
158 174 195
159 176 197
160 177 197
156 172 191
154 170 189
158 174 195
165 182 204
155 171 191
163 180 202
163 180 200
153 168 187
159 176 196
155 172 192
153 169 187
164 182 204
151 166 183
158 175 193
162 179 201
160 177 194
148 163 180
161 178 196
159 175 195
168 186 208
165 182 204
129 144 163
64 80 100
63 77 96
61 79 112
72 87 120
74 87 109
62 76 102
61 75 96
69 85 118
78 91 114
66 80 105
61 77 93
62 77 108
68 82 97
69 84 101
57 72 102
69 84 110
59 71 94
64 77 101
55 70 96
57 71 92
60 74 93
56 72 99
52 64 83
126 138 151
153 167 180
147 159 174
163 176 193
217 233 255
217 233 255
217 233 255
144 158 183
41 66 115
41 64 111
44 70 112
49 78 130
41 65 108
42 67 108
38 61 98
48 76 121
44 69 112
41 65 112
44 69 117
43 67 106
41 64 108
48 76 122
42 67 99
45 72 116
46 72 110
43 68 112
48 76 110
44 70 106
45 72 113
44 69 109
40 64 102
43 68 107
41 64 111
46 73 115
44 70 115
42 66 108
44 70 107
38 61 104
47 74 120
45 71 114
45 72 118
47 75 111
43 68 111
41 65 98
43 69 118
45 72 121
39 62 97
42 66 103
44 69 110
43 68 105
44 70 104
40 62 92
46 72 111
43 69 109
48 76 129
42 66 96
39 63 90
42 67 103
42 67 110
44 70 109
50 78 124
44 70 117
49 77 121
42 67 97
49 77 123
43 68 108
45 70 110
50 78 113
40 64 100
41 64 101
46 73 115
43 67 110
44 68 106
44 72 107
47 74 120
44 70 110
46 71 109
41 64 100
47 74 113
42 67 107
43 68 103
44 70 119
47 74 111
39 62 101
45 72 115
44 70 111
44 70 120
43 68 109
41 65 102
44 69 106
42 67 99
46 72 102
41 64 94
45 71 103
39 62 102
44 70 107
40 60 95
36 57 94
41 64 104
39 60 88
41 63 102
47 73 115
40 62 91
40 62 101
39 58 82
43 66 104
144 159 183
217 233 255
217 233 255
217 233 255
163 144 108
160 141 87
163 150 95
142 126 77
61 50 36
55 39 30
54 36 22
63 42 18
66 44 25
61 47 30
53 44 37
75 51 28
76 54 32
63 52 40
75 55 36
65 60 49
63 52 37
69 56 40
65 54 37
58 57 49
56 52 48
61 55 48
63 54 48
66 56 48
62 51 39
56 53 50
59 57 47
134 117 73
152 132 81
154 135 81
154 135 82
156 142 88
152 137 85
156 139 86
161 144 89
163 148 93
153 134 82
155 140 87
161 146 90
163 147 92
159 141 86
159 143 89
154 135 81
161 143 87
159 143 87
153 136 84
153 135 81
167 154 97
160 149 95
164 149 92
157 141 87
159 144 89
161 143 87
164 147 90
156 136 83
155 136 82
158 143 90
155 139 85
161 149 95
144 126 76
144 127 78
154 135 82
140 124 77
156 139 86
152 132 81
159 141 86
162 142 84
151 130 76
160 145 90
159 141 86
151 131 78
156 138 84
153 134 81
158 142 88
156 139 86
157 140 87
150 130 78
159 145 91
143 119 67
151 133 79
155 138 85
160 145 91
163 149 93
156 142 89
143 128 79
135 117 72
150 137 87
149 134 84
151 135 84
144 131 82
157 142 88
138 125 79
148 131 79
143 127 78
151 139 88
157 140 86
147 126 76
162 148 93
147 131 81
151 134 84
154 136 82
144 128 79
155 141 88
159 141 87
152 135 84
149 127 74
160 144 89
150 129 78
156 134 78
160 140 85
162 144 88
144 123 74
156 138 85
160 143 88
165 146 90
145 122 71
154 135 82
160 140 84
150 129 78
154 132 78
155 135 82
144 120 70
149 127 76
154 135 82
150 130 79
155 136 83
151 132 81
159 137 82
156 132 78
156 138 84
159 141 87
149 130 79
151 130 77
160 142 87
154 132 78
148 126 74
154 133 81
151 132 81
151 131 79
146 126 76
167 151 94
163 146 90
162 140 83
162 142 85
158 135 79
158 138 84
154 135 82
156 169 184
154 167 182
151 164 176
157 170 185
150 163 176
153 165 182
159 173 188
156 169 183
162 175 192
160 174 186
160 173 188
153 166 179
143 155 169
158 171 187
147 160 174
153 167 182
156 170 187
154 167 180
157 170 187
161 174 190
162 176 194
160 173 191
160 174 190
158 171 186
153 166 181
155 168 184
166 180 198
157 171 185
159 173 190
162 176 194
163 178 197
150 163 180
158 172 189
171 186 206
157 171 189
157 171 189
161 176 195
164 179 198
162 177 196
163 178 197
151 164 181
152 165 181
159 174 193
161 176 195
159 174 193
162 177 196
162 176 195
142 155 171
160 175 194
160 175 195
145 159 176
147 161 176
139 152 168
153 167 185
142 156 172
159 173 192
165 180 200
156 171 188
147 161 178
155 170 188
161 176 195
152 166 182
153 168 187
153 168 186
160 176 195
158 173 193
159 174 193
157 173 192
159 174 191
161 176 196
153 168 187
147 162 178
146 159 176
145 160 176
155 170 188
167 183 204
157 172 193
155 170 188
157 172 191
161 177 196
168 184 205
152 166 186
155 169 188
156 172 189
158 174 192
143 157 172
159 174 193
148 163 182
157 173 193
149 163 179
158 174 194
155 171 189
156 171 190
163 179 197
151 166 182
157 173 191
161 177 197
142 156 170
152 167 185
145 159 176
155 170 187
145 160 175
158 174 194
156 171 190
156 172 191
160 176 196
159 175 194
160 175 193
154 170 186
166 182 204
165 182 202
163 180 202
162 178 199
153 168 187
157 173 194
144 158 173
156 172 190
158 174 193
145 160 176
61 79 114
58 75 107
61 80 117
76 92 123
50 69 101
69 85 115
71 83 99
67 85 114
55 72 103
66 83 108
69 82 108
69 84 110
64 81 113
58 75 107
60 78 112
72 84 105
65 79 98
51 65 90
56 68 84
63 78 109
54 67 89
56 70 93
66 78 81
46 60 83
76 88 104
135 147 158
145 158 169
157 169 185
207 222 243
217 233 255
217 233 255
77 93 127
39 63 105
43 68 110
46 71 119
37 58 91
45 72 122
44 70 119
42 67 102
41 66 110
35 55 90
46 73 120
44 70 113
42 67 106
47 74 112
41 65 95
46 73 122
44 70 114
43 67 100
48 75 112
42 66 106
42 67 102
43 69 101
49 78 122
40 63 96
47 75 120
44 69 103
44 68 101
47 73 114
39 63 92
44 69 110
48 75 121
45 72 102
48 75 120
47 74 123
40 65 95
46 72 120
40 64 94
41 65 102
45 72 112
45 71 112
47 74 126
46 73 116
46 72 114
44 71 110
44 70 111
35 56 84
51 81 131
48 75 112
41 65 92
39 62 92
46 72 119
44 69 105
47 75 121
47 75 123
40 64 102
48 75 129
49 77 120
45 71 106
43 68 93
46 73 128
39 61 102
46 72 119
46 72 110
37 59 89
44 70 113
46 73 108
40 64 99
49 76 128
47 75 115
45 71 114
45 72 117
47 75 118
42 67 104
42 67 114
49 78 124
47 74 116
45 71 111
45 72 110
42 66 103
39 62 99
42 67 105
46 74 117
44 69 100
49 77 117
43 67 99
43 67 110
43 67 95
41 64 100
40 61 91
41 64 106
44 69 98
45 70 104
43 68 114
46 71 112
42 66 101
39 61 91
39 60 94
46 72 122
37 56 84
110 122 140
217 233 255
217 233 255
211 224 240
162 143 87
157 140 87
153 137 86
76 64 45
62 41 24
52 36 24
58 38 25
61 39 21
46 40 32
62 51 35
44 41 32
74 57 38
65 49 35
64 48 29
63 54 38
68 54 38
70 53 31
65 53 41
70 55 38
52 48 40
69 58 45
80 62 44
72 57 42
73 57 41
61 60 54
75 55 39
66 54 44
74 61 43
161 146 91
166 148 90
147 131 81
159 143 89
161 148 94
157 140 86
163 148 91
160 143 89
151 137 85
154 137 84
151 133 79
166 152 96
160 146 91
172 158 100
162 146 90
157 139 86
161 147 93
162 144 89
163 149 93
161 144 89
162 147 91
158 140 86
159 142 88
165 149 92
150 130 78
153 132 78
159 144 90
154 137 84
161 145 91
162 144 90
150 134 82
158 142 87
160 143 88
150 126 73
162 146 91
153 136 84
157 141 87
157 137 81
151 132 78
156 139 86
161 144 89
153 135 82
155 137 84
153 135 82
151 133 81
151 130 78
157 142 88
158 142 88
155 139 87
146 126 76
160 145 90
161 146 90
160 145 90
159 145 91
148 129 78
150 137 85
153 139 87
155 142 90
142 125 77
156 139 85
148 134 82
142 128 81
156 142 90
152 135 84
155 140 87
153 140 88
149 133 82
151 137 85
156 142 88
162 147 93
154 139 87
149 132 81
159 138 84
145 127 77
153 138 85
162 145 90
156 134 79
167 151 93
161 145 90
151 127 74
147 123 71
151 132 81
155 133 79
157 140 87
162 141 86
167 149 90
158 137 82
162 142 86
168 148 89
161 144 88
153 132 79
151 128 74
154 133 79
157 135 81
158 138 84
138 117 70
154 135 82
160 140 84
152 133 82
150 131 81
159 142 88
151 130 78
161 141 84
146 125 76
157 140 85
140 116 67
155 137 84
153 132 79
154 134 81
144 118 67
158 136 81
156 135 81
153 136 84
158 137 82
152 132 78
154 132 78
159 136 79
159 138 83
163 144 87
155 167 183
162 175 189
166 180 195
156 169 182
159 172 186
163 176 194
152 165 177
162 176 192
149 162 175
147 159 170
144 156 167
161 175 190
160 173 188
155 168 180
169 183 201
157 170 185
158 171 187
168 181 200
165 179 197
135 147 157
155 168 184
147 159 174
148 160 174
152 165 178
159 173 188
155 168 184
161 175 191
168 182 201
158 172 186
164 178 195
164 178 197
163 176 195
169 183 201
160 174 191
166 181 200
148 161 176
147 160 177
160 174 193
159 172 190
157 171 188
148 161 179
159 173 191
160 175 193
162 176 194
166 181 199
147 161 175
153 166 183
154 168 186
150 163 180
155 169 187
150 164 181
155 169 188
149 162 179
142 155 172
149 163 180
146 160 177
162 177 197
159 174 192
168 183 203
158 172 191
149 162 180
152 166 185
155 170 188
147 161 176
162 176 196
161 175 192
168 184 205
157 171 189
163 178 197
170 186 206
166 182 202
153 167 184
153 168 185
156 171 189
154 169 187
151 165 180
174 191 213
158 172 190
159 174 193
156 171 187
164 179 198
155 170 187
156 171 189
154 170 184
154 168 184
149 163 177
164 180 199
157 172 190
138 152 167
155 170 186
156 171 188
166 182 202
159 175 195
156 171 190
155 170 189
158 173 190
160 175 194
152 167 184
159 174 192
157 173 192
156 171 190
161 177 197
165 182 202
164 180 199
158 173 190
161 177 194
156 172 190
154 169 186
153 168 186
156 171 185
166 182 202
157 172 191
158 173 191
163 179 198
167 184 204
163 180 198
158 174 192
164 180 200
115 132 161
61 79 117
65 81 113
65 82 111
58 73 93
55 74 107
60 77 114
70 85 108
64 78 108
56 70 93
78 92 116
68 82 102
56 72 101
66 80 100
48 64 90
64 78 99
59 77 107
70 83 109
57 69 97
70 84 104
45 61 91
69 80 97
59 70 73
50 60 76
49 58 62
56 69 101
132 144 162
142 154 166
160 173 189
186 200 219
218 233 255
205 220 243
38 61 106
42 67 117
42 66 102
38 62 110
39 61 101
42 67 108
42 66 112
39 62 95
43 68 118
43 68 116
41 66 105
42 67 110
40 64 88
43 69 114
43 69 109
47 75 115
44 69 112
42 67 101
47 75 105
38 61 93
46 73 115
43 68 99
43 68 108
40 62 97
46 74 106
46 73 103
42 67 104
44 71 115
45 71 113
43 67 107
37 59 88
47 73 110
40 64 94
46 72 103
46 71 111
47 74 119
47 74 121
40 63 99
47 74 123
46 72 114
47 74 114
49 78 108
47 74 111
45 71 120
44 69 108
42 67 102
52 81 129
45 71 116
43 68 98
42 65 97
43 68 100
46 72 112
39 62 104
45 70 104
43 68 105
41 66 107
40 63 93
48 75 113
44 69 106
48 74 122
44 69 111
46 72 113
42 67 108
41 64 111
42 66 91
50 79 124
43 68 98
43 67 104
41 65 98
46 73 120
45 71 121
44 70 111
41 63 91
46 74 112
47 74 119
44 70 96
42 65 106
44 69 99
47 74 107
48 77 121
44 69 107
48 75 127
45 71 108
38 60 91
40 64 88
38 60 93
46 73 116
44 69 105
47 73 115
41 64 103
41 64 100
44 67 109
45 69 99
48 74 109
43 67 103
47 72 117
41 63 105
40 60 97
42 65 89
39 62 99
200 214 234
218 234 255
189 191 186
155 134 79
144 127 79
126 106 64
51 44 35
56 39 26
47 31 20
62 46 33
57 43 34
67 48 31
57 40 26
67 46 28
55 47 40
60 51 38
59 46 29
62 49 32
60 52 43
63 51 40
72 49 31
56 54 46
69 53 36
63 54 38
63 49 35
66 56 43
64 51 34
65 56 46
66 50 31
58 55 46
68 48 32
116 105 70
155 138 85
155 139 87
158 141 86
154 139 86
155 140 87
161 142 86
142 122 72
166 152 94
152 131 78
156 138 84
147 129 79
153 135 82
164 151 95
159 141 86
153 136 84
148 127 76
159 142 87
159 144 89
156 136 81
163 147 91
172 157 98
159 142 87
155 136 83
160 145 90
157 139 84
157 141 87
169 153 95
165 147 90
158 141 87
163 146 91
155 137 84
160 143 88
143 125 76
159 144 90
159 144 90
155 135 81
160 142 87
167 150 92
150 129 76
164 146 89
148 128 76
152 133 81
154 137 84
149 124 71
163 146 90
145 125 76
147 129 79
157 140 87
156 137 82
151 136 84
157 141 87
147 128 76
158 136 81
152 132 79
170 152 93
147 131 81
146 129 79
146 131 82
159 145 91
156 139 85
141 120 71
150 134 82
152 138 87
154 139 87
149 131 81
145 131 81
151 132 81
144 128 79
148 133 84
139 121 74
145 130 82
148 129 79
150 136 85
151 131 79
149 131 81
143 125 77
158 135 79
160 141 86
147 126 76
168 150 91
159 139 83
162 144 88
158 138 84
161 140 84
152 131 79
159 137 82
170 152 93
157 136 81
158 137 83
142 119 69
162 139 83
163 140 83
160 141 86
155 137 84
153 132 79
150 129 78
148 124 72
154 134 81
150 128 76
161 138 82
159 138 84
153 133 81
161 145 90
153 129 76
170 153 94
154 130 76
163 145 89
154 134 81
150 130 79
159 140 85
155 131 77
152 132 79
158 136 81
154 132 78
162 141 84
158 135 79
163 141 84
164 145 87
159 172 186
166 180 195
162 176 187
164 178 191
165 179 194
162 175 191
155 168 183
154 167 180
163 176 192
162 175 191
154 166 180
157 170 186
157 170 184
166 180 196
161 174 190
141 153 164
162 175 189
159 172 187
149 161 175
156 169 185
148 160 170
152 165 178
163 176 192
156 169 182
150 163 177
160 174 191
168 182 201
157 171 187
153 166 180
163 177 194
162 175 193
157 171 188
166 180 198
161 175 189
155 167 184
160 173 190
164 178 195
159 172 189
155 168 185
166 180 199
162 175 194
157 171 189
160 174 190
157 171 188
163 177 196
151 164 182
161 175 194
147 160 176
149 162 180
160 174 193
163 177 196
154 167 186
159 173 191
147 160 176
157 172 190
156 170 188
149 162 179
149 162 178
137 149 165
153 166 183
134 146 160
157 172 190
157 171 190
152 166 184
150 163 180
146 159 176
153 168 185
156 171 190
154 168 187
169 185 205
156 171 189
161 176 194
157 171 189
164 179 197
152 166 184
151 165 181
162 176 195
155 169 185
161 175 193
153 167 185
160 175 194
156 171 188
155 169 185
152 166 182
156 171 189
168 184 204
155 170 185
160 175 193
147 162 178
156 170 188
167 183 202
161 176 196
150 164 181
166 182 201
169 185 206
170 186 207
166 182 200
167 183 202
166 182 200
158 173 191
162 177 196
146 160 177
162 177 197
159 174 190
154 169 186
150 165 181
160 175 191
158 173 190
163 179 196
154 168 186
165 181 199
162 177 197
159 174 193
167 183 201
153 168 186
165 181 201
160 175 191
157 173 192
79 94 120
56 78 120
62 79 111
59 72 97
59 77 112
66 81 102
75 91 125
76 89 113
73 88 108
81 96 122
70 86 117
58 74 103
66 81 106
64 79 103
65 81 104
68 83 105
69 81 90
69 80 98
73 87 114
63 79 111
56 69 84
62 73 96
73 83 101
51 64 81
53 65 78
48 59 64
79 92 118
128 139 150
145 157 171
163 175 190
218 234 255
158 172 195
37 59 103
41 66 100
40 64 104
39 62 99
40 64 99
41 66 108
38 61 95
44 70 100
43 68 112
44 69 114
43 69 116
46 73 110
43 67 97
45 72 106
44 71 110
38 62 87
44 70 106
46 73 112
40 64 102
40 63 106
44 69 104
45 72 118
48 75 116
47 75 127
38 61 91
45 71 110
47 73 118
46 73 116
42 67 99
46 72 105
42 68 108
42 66 103
37 58 89
49 77 121
49 77 116
43 68 112
47 75 120
43 69 99
42 66 101
45 72 110
49 76 122
46 72 114
45 71 98
48 75 121
47 75 122
47 75 119
48 76 121
42 67 94
45 72 107
44 70 113
46 73 122
46 72 102
50 79 129
41 64 95
46 73 111
39 63 96
52 82 123
44 70 113
45 73 106
48 75 118
40 64 97
46 72 122
45 71 106
46 73 124
45 71 114
41 65 112
42 66 89
44 69 105
45 71 121
42 66 102
37 59 92
48 76 121
41 65 104
38 60 91
47 75 116
43 69 106
48 76 119
42 66 109
52 82 131
49 78 123
44 67 100
39 61 93
43 66 104
48 74 115
41 64 101
45 70 110
43 67 105
49 75 120
41 65 109
43 68 108
39 61 96
46 72 122
39 60 97
46 69 112
43 67 94
41 64 93
42 64 96
39 58 86
40 60 87
37 54 79
160 174 196
218 234 255
176 170 158
155 137 84
131 110 67
78 49 34
39 35 31
43 31 21
52 40 32
62 41 18
59 42 27
68 50 30
64 49 34
68 48 30
64 49 33
67 53 34
66 51 34
65 50 35
64 40 11
69 55 41
64 51 33
67 53 37
55 51 44
67 55 41
65 52 42
55 48 38
55 51 42
61 57 48
54 43 38
54 50 41
68 53 38
67 63 48
153 135 81
162 143 86
156 137 82
159 144 90
154 133 78
160 142 87
156 137 82
160 143 88
164 146 89
157 139 85
162 144 88
160 143 87
170 157 99
159 142 87
154 134 81
160 144 89
159 140 86
159 140 84
160 143 87
148 128 76
168 150 92
157 142 88
167 150 92
160 142 87
159 144 91
153 134 82
165 146 90
158 138 84
162 146 91
170 154 96
163 147 91
155 134 79
160 143 88
153 132 79
154 131 76
159 142 87
153 135 82
158 139 83
156 136 82
163 146 90
154 132 76
159 141 87
157 136 81
159 139 83
150 132 81
161 144 88
155 135 81
157 144 90
149 130 78
158 138 84
154 134 81
150 128 76
166 149 91
165 149 93
144 129 79
155 136 81
154 137 84
146 131 82
147 131 81
142 129 81
160 146 91
153 137 85
138 122 74
144 127 77
142 126 77
159 142 87
145 133 84
148 134 84
128 112 68
151 134 82
155 137 84
151 134 82
170 157 99
141 123 76
146 126 77
146 124 73
156 138 84
159 137 82
154 136 82
151 126 73
159 139 85
146 123 72
164 143 87
156 133 78
161 138 82
152 132 79
129 102 56
158 137 82
160 139 83
145 120 69
171 151 91
152 131 78
155 133 81
161 143 88
147 123 72
148 126 76
149 129 77
158 140 87
154 132 79
150 129 76
153 130 78
149 128 77
162 142 87
154 130 76
161 139 82
156 134 79
153 131 78
161 141 85
157 132 76
164 142 85
145 122 72
153 130 77
153 132 79
154 128 73
146 125 74
160 141 85
153 132 78
157 133 78
161 174 189
162 175 190
160 173 187
167 180 196
165 178 193
159 172 187
159 171 187
164 177 190
170 183 201
162 175 190
147 159 172
158 170 184
154 166 180
152 164 177
163 176 192
163 176 192
151 163 178
159 172 186
159 172 187
158 171 187
155 168 184
165 179 195
153 166 179
147 159 171
163 177 192
164 177 193
165 179 196
170 184 201
159 172 187
151 163 178
162 176 194
154 167 183
155 168 183
172 186 204
145 157 171
164 177 194
167 181 200
161 174 191
157 170 188
161 175 192
151 164 180
154 167 183
158 171 188
154 167 183
140 152 168
164 178 196
152 165 183
156 170 187
149 162 179
169 184 203
158 172 189
157 171 189
157 171 189
158 172 189
158 172 190
162 176 194
156 169 187
163 177 196
145 158 174
164 178 198
147 160 177
153 167 185
157 171 189
160 174 193
159 173 190
163 178 197
161 175 193
162 176 194
154 168 183
153 167 183
152 166 183
162 177 193
157 171 189
159 174 191
163 177 194
159 173 192
154 168 184
167 182 203
158 173 190
158 173 191
156 170 186
161 176 193
152 166 179
155 169 185
170 185 206
155 169 186
163 178 195
162 177 196
156 170 184
156 170 186
168 184 201
167 183 203
157 172 189
150 165 180
149 163 179
149 162 180
166 181 201
164 179 199
166 181 200
156 170 188
168 184 205
160 174 193
157 172 192
148 162 177
153 167 184
159 174 193
159 173 191
160 175 192
160 175 192
160 175 190
160 174 193
154 168 185
157 171 189
161 176 191
158 173 190
167 183 204
157 172 191
127 141 158
59 75 100
58 78 116
58 76 107
71 84 108
59 74 101
62 78 104
67 82 103
78 92 121
61 75 96
56 69 92
59 79 112
72 85 111
65 77 97
63 77 98
66 81 105
57 71 97
53 65 75
67 82 108
67 77 93
74 86 105
54 69 99
66 79 97
58 69 92
60 70 67
72 81 92
48 62 83
61 71 90
122 133 154
160 173 189
157 169 184
214 229 251
131 144 169
37 58 89
38 61 95
42 67 109
41 66 107
39 62 98
48 75 128
42 66 111
40 63 101
43 67 107
40 63 97
45 71 120
43 69 112
45 71 109
47 75 116
45 71 114
40 63 92
41 65 110
43 68 106
42 66 111
41 65 96
37 58 93
48 76 113
41 64 106
45 71 116
44 70 110
44 70 110
37 59 94
43 67 113
42 66 101
46 72 117
45 72 117
44 70 111
46 72 111
46 73 117
48 75 120
42 66 104
49 76 121
40 64 98
48 74 124
40 63 88
44 71 119
45 72 108
45 70 108
44 69 103
47 75 121
34 54 80
40 63 104
43 67 101
48 76 114
42 67 104
46 72 119
51 79 131
41 65 91
46 72 111
43 68 89
46 72 118
44 69 112
41 65 105
48 75 120
49 78 123
42 67 113
46 72 109
42 67 103
47 73 114
45 71 107
45 72 106
42 67 89
45 71 107
46 73 117
43 68 109
47 73 110
43 69 118
40 63 88
47 75 119
49 77 119
48 75 124
47 74 116
44 69 100
50 77 122
37 59 92
41 65 109
49 76 122
45 71 118
42 66 93
45 71 110
45 70 107
45 71 112
45 70 109
47 73 112
42 66 98
37 59 89
40 61 87
44 70 112
44 68 97
42 66 101
42 64 100
39 62 88
43 66 100
36 56 87
40 59 95
116 129 157
214 229 250
165 148 91
171 154 95
122 106 65
48 31 17
51 35 26
47 31 20
63 46 32
56 45 33
49 40 30
62 45 30
60 50 39
67 48 28
62 52 40
67 52 36
74 59 38
68 55 43
68 48 23
67 52 36
62 54 44
65 46 27
70 61 49
69 47 32
63 52 43
64 54 44
69 55 38
64 54 39
67 51 33
54 54 47
50 52 40
53 53 48
128 116 72
166 147 89
164 146 89
156 137 83
160 148 94
160 143 87
157 141 87
167 148 90
163 144 86
166 147 90
167 152 95
160 140 84
164 147 90
172 153 93
160 142 87
161 147 91
161 141 84
161 141 86
164 146 89
159 144 90
165 146 89
164 147 91
162 144 88
162 144 89
157 136 82
155 138 85
170 154 96
168 152 94
172 157 98
161 143 88
156 137 84
154 134 81
146 125 74
151 132 81
152 127 73
155 136 82
169 151 93
145 126 76
164 147 90
158 141 86
158 142 88
162 146 91
163 146 91
151 128 74
152 131 78
154 132 78
151 129 76
161 141 84
157 138 84
150 127 74
148 130 79
157 139 85
132 112 67
157 135 81
152 132 78
154 140 87
160 144 88
156 141 88
161 146 90
155 135 79
143 126 77
154 140 88
159 142 87
150 134 82
145 129 79
152 138 87
147 131 81
151 136 83
159 145 91
150 131 79
144 125 76
162 147 91
151 134 82
158 141 87
141 121 72
151 129 76
160 144 90
158 137 81
159 137 81
164 145 88
159 137 82
159 137 82
160 139 83
160 134 76
163 143 87
158 137 82
158 136 81
152 133 81
152 132 79
156 135 81
154 130 75
157 134 79
154 133 79
166 145 87
154 131 77
160 138 84
155 135 82
153 133 81
149 125 74
161 145 90
154 136 84
158 137 82
155 133 79
155 135 82
161 143 87
157 137 82
155 131 77
154 131 78
159 139 84
156 133 79
148 124 72
167 147 90
163 145 88
159 135 79
157 134 78
148 121 67
155 131 76
152 130 76
174 188 205
166 178 194
172 186 203
165 178 194
167 180 194
173 186 204
164 177 191
159 171 185
152 164 174
152 164 174
157 170 183
148 160 171
151 163 175
153 165 177
161 174 185
157 169 183
154 166 178
164 177 192
161 174 188
149 161 175
165 178 195
159 171 185
155 168 179
156 169 182
159 171 189
159 172 187
163 176 192
162 175 191
169 183 200
165 178 195
165 179 195
161 174 191
166 180 197
160 173 189
162 175 191
172 186 204
169 183 201
165 178 196
157 170 184
160 173 190
148 160 176
153 165 182
171 185 204
141 153 169
158 171 189
148 160 176
162 176 194
169 184 203
157 170 188
169 183 202
153 166 183
155 168 184
147 160 176
151 164 180
153 166 182
157 170 187
160 173 191
161 175 192
149 162 179
157 170 187
155 169 186
160 174 192
158 171 189
161 175 194
175 189 209
160 174 192
156 170 187
155 168 185
155 169 186
165 179 198
148 160 175
166 180 199
164 178 195
154 167 184
163 177 195
166 181 199
168 183 201
156 169 187
163 177 195
153 166 184
152 165 182
161 175 192
157 171 187
158 173 190
156 170 187
158 172 189
166 181 198
155 169 184
159 173 190
156 170 186
170 185 204
166 181 199
160 174 191
168 182 203
158 172 188
156 170 187
156 170 189
157 172 188
149 163 180
154 168 183
163 178 196
159 173 190
164 178 198
158 173 189
158 172 188
164 179 198
158 173 189
161 175 192
159 174 190
161 176 191
162 177 194
150 164 178
159 173 190
164 179 198
157 171 187
160 174 192
170 185 206
103 116 134
55 73 110
64 78 93
47 68 98
63 79 103
57 72 93
63 77 104
59 76 107
63 77 104
71 87 111
66 81 103
68 81 97
64 81 108
68 82 105
56 71 98
76 88 106
61 76 95
58 71 94
59 74 102
69 80 98
59 73 89
49 63 86
58 70 80
42 56 79
63 73 86
62 73 83
53 63 82
52 61 80
86 97 118
163 176 191
160 172 188
207 222 242
107 120 140
37 59 90
37 59 81
39 62 95
42 67 114
41 65 106
43 68 101
38 60 92
45 72 116
39 62 91
42 67 98
41 66 96
37 59 90
45 71 109
44 70 102
41 65 94
48 77 124
43 69 103
44 70 98
44 70 116
45 70 110
42 67 102
43 68 97
45 71 105
50 78 119
41 67 106
45 71 111
46 73 117
46 73 111
45 71 115
52 81 132
48 75 123
44 69 107
43 68 100
45 71 121
44 70 117
44 69 107
44 69 98
43 68 103
46 73 111
43 68 100
45 72 116
48 75 119
46 72 109
43 68 108
40 63 100
47 74 115
46 74 115
42 66 95
47 74 114
43 69 109
49 77 128
47 75 110
42 67 86
45 72 119
46 72 113
43 67 105
47 74 114
43 67 108
47 75 111
43 67 112
47 75 119
38 62 93
45 71 106
41 63 88
40 64 92
42 66 103
45 72 107
48 75 119
45 71 111
43 68 106
42 67 105
43 67 105
50 78 130
46 72 114
44 69 95
42 65 107
43 68 94
42 66 106
46 72 103
44 69 114
45 71 109
38 61 87
38 60 96
43 68 103
41 64 102
46 70 103
38 62 97
43 67 109
45 70 114
44 71 105
43 67 107
41 64 96
45 71 104
40 61 98
46 72 114
41 63 80
36 55 88
37 57 87
42 65 102
36 55 91
107 120 142
211 223 241
149 128 77
144 129 81
84 62 39
77 46 19
57 38 27
54 35 20
50 34 21
66 48 35
61 37 13
51 41 31
61 45 29
60 48 34
64 50 36
79 53 24
69 50 31
76 56 37
64 45 27
52 42 31
55 43 29
69 49 29
62 54 40
69 53 32
75 56 38
71 54 35
66 53 37
64 49 34
49 45 35
56 46 35
61 56 45
65 52 37
95 84 55
168 152 94
156 135 79
164 146 89
161 141 84
159 140 84
166 148 90
166 147 90
168 151 93
164 145 89
171 154 96
161 141 86
164 148 91
171 154 96
164 149 93
167 149 91
167 151 94
155 136 82
163 147 90
164 148 93
155 133 78
173 157 98
166 146 89
154 138 85
155 135 82
158 139 85
167 151 94
162 141 85
160 141 86
165 150 94
155 137 84
155 138 84
171 153 94
157 137 81
162 144 87
156 136 82
167 152 94
152 134 82
158 139 84
155 136 82
148 127 74
156 138 84
161 144 88
156 133 78
148 128 77
160 139 83
154 136 82
159 139 84
167 152 95
167 150 93
151 131 79
157 140 85
153 133 79
160 142 86
158 137 82
161 143 87
149 129 77
160 143 87
155 134 81
140 121 74
151 133 81
157 139 84
151 133 81
154 135 81
158 141 87
154 137 84
155 140 87
165 151 94
144 128 79
158 144 90
153 138 85
162 145 89
154 136 82
150 132 81
163 145 88
147 126 74
152 132 79
159 141 87
154 132 78
154 134 81
157 137 84
156 134 79
153 129 76
158 137 82
156 138 85
153 131 78
163 139 81
164 143 86
150 127 76
155 132 78
157 135 81
161 138 81
165 146 90
155 134 81
153 132 79
162 143 88
161 138 82
145 127 77
150 129 79
164 143 87
161 140 85
159 139 85
161 139 84
169 152 94
162 142 85
150 126 72
155 137 82
166 148 91
160 138 82
160 140 85
160 138 82
158 135 79
160 136 79
161 138 81
162 141 84
160 138 82
157 135 81
164 142 84
173 186 203
169 183 197
156 168 183
166 178 192
157 169 183
159 172 185
166 179 194
159 172 186
160 173 185
162 175 189
147 158 167
162 174 188
168 181 195
156 169 180
151 163 175
164 177 191
171 184 201
160 172 188
160 172 187
149 160 172
154 166 177
158 170 185
159 172 185
163 176 189
168 181 196
161 173 187
170 183 200
152 164 178
166 179 195
155 168 183
169 182 200
163 176 192
168 181 199
169 182 200
164 177 193
160 172 189
163 175 193
159 172 188
151 163 178
157 170 185
155 167 183
157 170 185
154 167 183
146 158 175
159 172 189
152 165 181
140 151 167
155 168 185
158 170 187
153 165 182
145 157 173
167 181 198
149 162 178
160 173 190
157 170 187
152 165 180
147 159 175
149 161 177
158 171 189
161 174 192
155 168 185
162 176 194
156 169 186
151 164 180
158 172 190
163 177 195
159 172 189
168 182 201
153 166 181
153 166 183
163 177 193
156 169 184
146 158 174
171 186 205
156 169 184
160 173 189
153 166 182
165 179 197
162 176 193
157 171 186
159 173 191
157 171 188
160 174 192
162 176 192
164 179 197
154 167 183
154 167 182
166 180 198
153 166 181
161 175 192
176 191 210
159 173 189
160 174 191
157 170 187
164 178 196
160 174 190
156 169 187
158 172 188
158 172 189
165 179 197
160 174 191
161 176 194
154 167 184
156 170 186
157 170 187
163 177 193
167 182 199
161 175 193
164 179 194
158 172 185
171 186 204
166 180 194
163 177 194
173 188 208
167 182 201
158 172 187
166 181 196
59 76 107
62 80 113
50 70 94
62 77 108
72 86 112
63 79 95
64 80 103
68 84 113
66 85 121
67 83 108
64 78 102
70 83 108
68 83 105
62 76 103
64 76 96
55 69 98
75 87 106
70 82 102
60 72 92
59 73 99
52 62 76
60 73 87
52 66 93
60 70 83
63 74 91
46 55 75
54 62 80
58 67 78
63 72 84
115 126 144
155 166 181
192 205 224
59 79 118
38 62 98
38 59 93
35 55 89
42 68 115
37 58 92
44 70 112
40 63 98
47 74 122
42 67 113
37 59 84
40 63 91
46 73 117
44 71 108
47 74 119
46 73 118
44 70 109
45 71 107
43 68 96
38 60 95
46 73 111
41 64 102
36 57 79
42 67 90
49 77 120
46 73 106
47 74 104
45 71 102
48 75 122
42 66 108
41 65 101
36 58 85
47 74 116
44 69 113
46 73 118
44 70 104
43 68 107
44 68 110
44 69 114
42 67 109
49 78 126
49 77 127
45 71 102
45 71 114
42 66 106
48 77 121
42 66 108
48 75 124
46 73 107
42 66 108
48 75 119
44 70 109
47 74 113
44 70 101
42 66 103
44 69 108
40 64 99
44 69 113
44 70 115
42 68 102
44 69 108
44 70 96
44 70 121
45 70 105
44 69 111
46 72 112
44 68 113
39 62 91
43 68 110
49 79 119
49 77 116
46 72 124
50 79 131
41 64 93
46 73 114
42 66 100
45 70 114
45 71 94
39 63 89
39 62 91
43 67 105
44 69 106
42 65 93
41 65 93
42 67 102
43 67 109
46 72 113
41 63 85
46 73 122
41 63 96
49 76 120
43 66 105
47 73 117
47 73 116
42 65 99
47 74 104
38 59 96
35 54 68
40 62 96
37 57 87
39 60 87
76 88 109
195 196 194
167 148 90
128 114 72
64 45 30
69 44 29
51 32 16
56 39 31
77 49 22
66 46 25
66 39 20
46 35 21
67 46 24
46 48 42
72 49 22
58 47 30
78 55 31
67 51 35
50 42 29
62 54 42
64 53 40
60 45 25
70 50 34
66 57 42
70 56 36
63 53 42
56 56 45
61 49 35
57 50 39
55 52 41
69 56 41
60 56 39
69 54 35
153 132 76
165 147 89
165 146 89
164 146 90
166 148 90
165 145 88
154 132 78
162 141 84
165 144 86
162 141 85
167 147 90
161 140 84
172 156 97
173 158 98
163 146 90
166 150 93
172 155 96
163 146 91
153 135 82
153 136 84
158 138 83
163 145 88
152 134 82
163 144 88
170 153 94
164 144 87
152 130 76
160 141 87
161 141 85
160 142 88
147 125 74
159 138 83
154 132 78
150 133 82
159 140 85
165 147 90
162 146 90
148 128 77
157 135 79
156 134 79
166 145 87
153 130 76
156 136 82
158 136 81
155 133 79
155 136 82
152 133 81
156 137 84
153 136 82
159 141 86
154 132 78
151 133 81
156 136 81
161 144 89
160 146 91
156 140 87
149 134 84
155 140 87
149 134 82
157 140 85
149 128 76
152 132 79
142 123 74
152 133 81
141 122 74
157 144 91
159 142 87
156 139 85
151 135 84
156 139 85
161 144 88
155 136 82
161 143 88
154 135 82
149 127 76
152 129 76
161 141 84
163 143 86
157 132 78
160 138 82
159 136 81
159 138 82
153 131 78
159 137 82
157 134 79
172 155 96
146 125 76
155 134 79
166 144 87
165 145 87
150 126 73
160 138 82
158 136 81
171 151 91
159 139 85
149 129 79
163 143 88
157 135 82
163 142 86
156 135 82
157 136 82
167 148 90
161 140 84
157 135 81
155 128 72
144 121 70
150 130 77
163 144 88
157 132 76
151 125 72
158 137 82
165 144 87
156 134 79
166 143 84
169 149 90
165 145 87
159 135 78
160 172 186
155 167 181
172 185 201
169 182 198
159 172 185
160 172 187
164 176 189
166 179 194
160 173 183
162 174 187
144 155 165
155 167 180
158 170 182
157 169 182
154 166 178
153 164 179
168 181 197
163 175 191
162 175 191
162 174 188
147 158 170
163 175 190
157 169 182
163 176 192
158 171 184
167 180 195
162 175 189
156 169 183
161 173 188
163 176 191
162 175 190
161 174 188
171 184 201
163 175 192
174 187 206
168 181 198
169 183 199
162 174 191
160 172 188
159 171 187
160 173 190
154 166 182
168 181 200
161 174 191
164 177 194
151 164 181
160 173 190
162 175 193
146 158 173
144 155 171
146 157 171
162 175 192
157 170 187
149 161 176
164 177 195
152 164 180
160 173 190
154 166 182
145 157 173
147 159 174
150 162 178
154 167 183
171 184 203
157 169 186
161 174 191
152 165 179
163 176 193
153 165 181
167 181 198
152 165 182
146 158 174
150 163 177
170 183 200
166 180 196
152 165 178
153 166 180
162 175 190
160 173 189
168 181 200
152 165 176
153 165 178
167 181 199
160 174 191
171 185 204
158 171 187
155 168 182
162 175 191
162 176 192
166 180 196
170 184 201
165 179 197
147 160 174
169 183 203
152 165 181
165 179 197
161 174 191
154 166 182
151 164 179
163 177 193
163 176 192
159 172 190
159 172 188
163 177 195
168 182 201
168 182 199
167 181 198
156 169 186
165 179 196
165 178 196
166 180 196
160 174 190
158 172 186
168 182 200
163 177 192
168 182 199
154 168 180
120 133 147
60 79 107
53 73 102
59 78 111
53 72 105
54 72 103
68 82 108
67 83 112
74 84 96
64 80 107
61 76 107
56 69 88
69 83 108
63 77 97
64 79 104
59 73 98
62 75 104
55 72 97
73 85 103
68 82 103
68 81 99
61 72 93
65 79 97
64 74 86
63 74 83
70 81 89
61 71 88
67 75 91
52 64 86
74 84 102
124 135 148
173 185 202
176 189 207
34 55 92
43 69 113
37 60 95
41 66 109
44 71 111
43 68 110
40 63 110
47 75 123
33 53 75
42 67 96
38 59 98
45 71 111
38 61 95
52 82 120
43 68 105
46 73 104
42 67 101
40 64 93
42 66 100
41 66 96
47 74 115
45 72 105
43 69 93
47 74 116
42 66 102
36 58 75
41 65 90
40 64 84
43 68 111
42 67 102
39 62 100
41 64 110
41 66 100
44 69 102
42 65 107
42 67 110
41 64 94
41 66 104
42 67 104
43 68 100
43 67 105
47 74 114
42 66 105
49 77 132
45 72 105
46 72 115
40 63 101
42 66 103
44 69 103
49 77 116
45 71 112
45 72 107
40 63 85
46 73 104
44 70 105
40 64 101
46 72 99
47 74 112
45 71 114
43 67 105
46 73 118
40 63 99
45 70 108
45 71 111
45 71 111
49 78 131
48 77 120
49 78 119
48 75 119
45 71 111
47 73 117
43 67 111
43 68 108
45 71 100
41 65 98
47 73 114
39 62 89
42 66 103
46 73 117
43 67 107
43 67 103
42 67 101
45 71 108
42 66 96
44 68 108
45 71 115
41 64 83
42 64 100
40 63 103
43 68 107
44 68 96
42 65 92
41 64 104
45 70 112
42 65 102
36 55 80
43 65 95
32 50 77
40 60 78
39 60 81
44 66 89
32 46 66
173 171 164
173 154 95
118 97 58
64 39 21
60 34 12
55 31 15
67 49 34
75 48 26
50 36 20
68 49 30
72 50 27
59 47 33
58 40 20
57 43 23
75 50 26
57 44 30
68 51 35
57 46 33
60 46 33
57 41 23
59 54 43
71 52 32
59 49 39
66 52 36
70 54 40
66 54 44
58 53 43
64 49 33
54 55 48
52 50 39
60 56 43
63 54 40
133 120 76
165 148 90
166 147 89
167 147 89
168 148 89
163 143 87
159 138 83
153 131 78
157 139 85
159 140 85
161 139 83
163 144 87
164 147 90
167 149 91
163 145 89
158 139 84
166 147 90
164 144 87
156 138 84
164 143 87
165 146 89
154 135 81
168 150 93
158 140 87
167 148 90
165 145 88
169 152 94
164 144 87
164 144 88
156 138 85
154 134 81
163 140 81
162 141 84
162 144 88
158 137 82
162 143 87
161 142 86
161 141 85
155 134 81
158 137 82
155 132 78
145 127 77
161 140 84
155 134 79
164 145 88
155 136 84
159 139 84
169 151 93
158 140 85
165 144 86
147 126 74
156 134 79
152 134 81
151 136 84
164 146 90
137 116 67
158 140 85
158 142 88
154 138 85
151 133 81
152 131 79
154 134 81
162 146 90
162 143 87
154 140 87
162 145 89
144 126 76
157 138 84
147 132 82
154 138 85
144 125 76
148 131 81
161 141 86
159 139 84
163 144 88
151 127 73
160 142 87
146 123 72
151 129 78
153 132 79
149 127 76
157 135 81
163 138 81
147 123 72
166 146 88
161 136 78
164 144 87
161 140 85
158 133 78
163 141 83
160 142 87
151 124 71
154 129 74
159 137 81
149 125 74
157 134 81
153 133 81
156 134 81
154 132 79
156 132 78
162 137 81
153 131 78
164 141 84
171 150 90
140 117 68
147 126 76
144 122 72
152 130 76
146 123 72
158 136 81
159 133 78
161 138 82
172 152 93
159 137 80
162 140 83
166 144 86
170 147 87
158 169 185
159 170 186
171 183 200
170 183 200
158 169 184
160 172 186
158 170 182
158 170 185
161 173 186
148 159 168
156 168 181
171 184 201
164 176 188
150 161 171
160 172 185
164 176 191
164 176 189
151 163 176
162 175 190
142 153 161
157 168 181
167 180 196
168 181 198
164 177 192
168 180 195
166 178 193
170 183 199
165 177 193
155 167 181
157 168 183
166 178 195
166 179 196
166 179 196
169 181 198
164 177 193
173 186 202
165 177 194
173 186 202
154 166 178
170 183 201
150 161 176
154 166 182
161 173 190
161 174 191
159 171 188
169 182 200
163 176 193
154 166 182
159 172 188
161 173 190
159 171 187
163 175 192
155 167 183
157 170 185
153 165 180
156 168 185
164 177 194
153 165 181
167 180 198
152 164 180
159 171 187
161 174 191
169 182 200
156 168 185
169 182 200
165 178 195
171 185 202
162 175 192
169 182 199
148 160 176
162 175 192
163 176 194
155 168 182
159 172 187
157 170 185
157 170 185
163 176 192
167 180 197
153 165 177
167 180 195
161 174 188
159 171 185
170 183 201
169 182 198
156 169 184
153 166 178
159 173 187
162 175 191
161 174 188
166 179 197
164 177 193
171 185 203
168 182 198
155 167 182
157 170 183
165 178 194
154 167 182
163 177 193
163 177 191
155 168 181
160 173 189
159 172 188
165 179 195
158 171 187
160 173 188
158 171 187
160 173 188
167 180 196
152 165 177
162 176 191
150 163 174
163 176 194
166 179 197
167 180 197
172 187 203
157 167 179
83 92 111
56 75 103
51 70 97
57 73 96
67 84 108
67 81 107
63 79 95
72 85 107
63 77 103
68 84 102
68 81 105
63 81 115
62 72 88
57 70 89
62 77 99
60 77 110
56 68 82
64 77 98
62 76 102
56 69 89
63 72 72
64 76 96
65 77 98
61 73 86
53 63 75
80 90 108
66 74 90
60 69 84
49 59 76
67 74 88
95 103 119
164 176 192
136 147 164
37 60 100
36 58 95
41 64 99
41 65 92
41 65 108
38 60 97
40 64 87
45 70 110
43 68 109
43 68 92
39 62 96
44 70 112
39 62 100
43 69 109
47 74 120
48 75 116
40 63 93
43 68 105
47 74 100
40 62 98
41 65 104
45 71 112
45 71 106
45 71 107
42 67 91
45 71 110
43 68 99
42 66 113
46 73 114
45 71 112
41 65 98
44 69 119
44 70 106
42 66 111
43 68 102
43 68 98
46 73 117
45 71 114
43 67 107
42 66 98
42 66 100
43 69 106
45 70 109
45 70 113
45 72 110
40 64 108
44 70 107
47 74 114
36 57 81
44 69 100
45 71 108
44 68 96
46 72 114
44 70 110
43 68 101
46 73 107
50 78 121
46 72 105
41 65 106
42 67 104
50 77 118
45 70 111
39 61 86
47 75 117
46 73 111
45 72 109
38 60 95
40 65 92
45 71 98
46 72 116
43 68 102
43 68 105
41 64 95
43 69 103
45 71 120
41 64 94
48 75 110
45 71 102
41 65 102
45 71 115
40 63 100
42 66 95
45 70 94
47 75 124
40 63 99
39 61 93
44 68 96
45 71 112
36 56 75
50 79 127
43 68 110
39 61 104
50 78 121
46 71 102
47 74 122
46 70 98
42 63 90
46 70 109
43 67 102
43 66 104
41 61 86
40 62 88
162 146 97
157 137 84
89 70 46
72 41 19
65 39 18
63 38 22
58 31 13
79 47 20
50 35 21
65 47 32
60 41 23
74 48 24
57 45 33
65 46 29
66 50 32
71 50 31
65 50 34
59 46 36
53 45 34
58 42 24
63 51 38
57 45 34
66 59 47
68 48 27
73 52 30
68 57 44
66 57 47
67 55 33
48 51 39
57 52 36
63 52 35
55 56 46
109 96 59
160 141 84
159 139 84
166 144 86
172 151 90
163 144 87
157 134 78
168 150 91
166 145 87
169 149 90
173 153 93
166 147 90
163 142 86
172 153 94
164 141 84
165 148 91
162 143 87
167 148 90
168 150 93
167 148 90
162 144 88
164 146 90
161 137 79
166 147 90
161 140 84
158 139 85
168 149 91
169 150 93
158 138 84
157 139 85
167 150 93
167 147 90
162 139 81
167 148 89
157 136 82
167 148 90
155 137 84
154 134 81
158 138 82
163 142 85
168 149 90
161 142 87
151 126 73
158 140 85
161 138 81
166 150 93
162 137 79
156 136 81
161 140 83
161 143 87
164 141 83
165 146 88
163 146 90
156 136 82
147 125 74
162 144 88
157 139 84
152 133 81
158 140 86
154 138 85
161 144 88
165 146 89
151 132 81
138 117 70
154 136 84
166 149 91
149 132 81
156 138 85
148 130 79
159 140 85
162 146 90
166 149 93
146 125 74
160 144 90
163 144 87
145 127 77
163 143 86
165 145 87
151 131 78
163 140 83
136 108 59
162 140 83
139 111 63
160 138 84
150 125 72
160 138 83
162 142 85
157 133 79
162 138 81
167 148 90
169 147 87
166 145 87
161 138 81
164 141 83
160 136 79
159 139 84
151 132 81
157 136 82
170 150 93
150 125 74
160 136 81
165 144 87
147 122 71
152 131 77
154 131 77
158 135 79
161 138 82
152 130 77
170 150 91
153 127 73
158 132 76
159 136 81
166 143 84
168 147 88
177 156 94
174 151 89
156 129 74
173 185 202
162 174 190
169 181 197
158 169 185
157 168 185
157 168 184
172 184 201
161 172 188
162 174 189
150 161 175
165 177 193
160 172 187
156 167 182
149 159 172
159 171 185
166 178 194
165 177 191
166 178 194
159 170 184
157 168 181
152 163 175
150 161 173
151 162 173
161 172 187
165 177 191
172 184 199
166 178 192
155 166 179
161 173 187
167 179 195
171 183 200
160 172 188
161 174 187
164 176 192
156 168 181
167 179 195
160 172 185
168 181 198
163 175 190
167 180 197
152 164 179
157 169 186
158 169 186
154 166 182
163 175 192
158 170 187
161 173 189
158 170 187
154 166 182
160 172 189
153 164 180
166 179 195
149 161 175
170 183 200
163 175 191
156 168 182
155 167 182
171 184 201
161 173 190
156 168 184
163 175 192
165 177 194
167 180 197
158 170 186
164 176 193
162 175 190
157 169 184
167 180 197
161 174 190
162 174 191
161 173 190
158 171 187
165 178 195
157 169 185
162 175 188
166 179 196
164 176 192
159 171 185
170 183 199
163 175 191
150 161 174
162 175 191
162 175 192
160 172 186
161 174 188
157 169 183
147 159 169
161 174 189
156 168 182
162 175 191
159 171 187
170 183 201
171 184 200
172 185 202
158 170 187
166 179 193
172 185 201
172 186 202
163 177 189
165 178 195
168 181 198
162 175 190
161 173 189
154 166 176
158 171 186
160 173 186
163 176 191
171 185 203
154 166 180
172 186 202
167 180 197
164 177 193
170 183 200
173 186 203
154 166 180
126 124 110
78 86 88
68 85 113
60 75 96
66 81 108
69 85 112
63 79 99
55 71 94
49 66 85
60 77 98
56 72 98
76 90 109
68 81 97
58 73 101
73 85 97
64 77 99
59 72 92
65 79 101
61 73 84
70 79 91
78 89 104
65 75 90
59 71 84
63 73 90
58 69 79
74 84 93
52 62 78
79 87 95
66 74 88
60 67 78
71 79 85
69 77 92
147 158 173
138 148 164
34 54 75
39 63 102
39 61 100
44 70 110
38 61 98
40 63 90
42 66 101
43 68 121
44 69 108
43 69 105
46 73 109
39 62 102
44 70 112
40 63 95
42 66 111
44 70 110
45 72 116
48 75 115
44 69 106
44 70 111
46 73 115
42 66 93
48 74 112
48 75 115
49 76 109
43 68 94
44 70 107
44 70 101
44 70 110
44 69 111
39 62 84
39 62 99
41 64 96
44 71 108
52 81 117
44 70 101
47 73 110
45 71 102
44 70 110
42 66 104
39 62 96
45 72 111
48 76 111
43 69 83
46 72 116
37 58 75
46 72 112
39 62 90
40 63 89
46 73 111
37 60 83
42 65 98
42 66 103
45 70 108
46 72 112
42 66 102
47 74 104
46 73 113
45 72 114
45 71 110
42 66 87
42 66 110
44 70 98
41 66 98
40 63 92
42 65 102
41 65 101
41 65 98
40 63 79
50 79 132
45 71 101
47 74 119
33 53 75
41 65 94
42 67 108
42 66 98
48 76 116
41 65 96
42 66 99
40 63 105
41 65 79
44 69 105
35 56 91
45 70 110
44 67 99
46 73 116
42 66 94
42 66 108
43 67 109
43 67 100
36 56 71
42 66 104
44 68 106
42 64 92
39 58 86
44 68 112
41 63 96
42 66 104
39 59 82
41 63 86
41 62 90
33 51 80
128 110 75
154 133 80
79 41 18
58 33 21
63 37 15
61 33 15
72 42 17
75 45 23
50 32 19
59 35 17
72 47 18
66 47 30
75 53 27
75 47 20
63 49 37
67 49 30
68 45 23
58 40 19
63 51 34
57 44 24
66 54 35
63 53 39
67 47 27
53 47 34
61 47 28
66 52 36
63 53 38
54 48 36
47 51 45
50 46 33
65 52 29
71 56 38
66 58 42
133 116 70
173 154 93
173 155 96
165 146 87
161 139 83
177 157 96
172 150 90
161 135 78
165 147 90
167 144 86
163 142 86
168 149 90
157 135 81
161 143 87
156 136 81
163 143 86
159 140 85
164 147 90
158 137 82
151 131 79
162 143 87
163 143 87
169 151 93
164 145 88
153 131 77
158 138 84
165 146 90
175 157 97
165 145 88
165 144 87
162 142 85
152 129 76
151 130 78
152 132 79
159 138 84
163 146 90
157 135 81
157 133 76
160 138 82
157 135 79
144 116 65
164 147 90
160 137 81
162 142 85
151 132 79
161 143 88
161 143 87
148 127 76
160 138 81
166 145 87
174 157 97
164 143 84
157 135 81
163 141 84
167 148 90
154 138 85
153 134 81
159 143 88
149 124 72
161 143 88
162 145 90
153 135 82
156 138 84
155 136 82
154 133 79
162 145 90
162 145 88
156 137 82
157 139 84
166 150 93
156 139 85
153 133 79
149 129 77
155 133 79
170 150 91
152 132 79
159 141 87
159 135 79
156 139 85
157 133 78
166 147 90
169 146 87
153 127 76
153 128 76
160 134 79
157 131 76
166 143 84
160 137 81
160 137 81
164 143 86
159 137 81
156 131 76
164 142 85
161 142 87
157 135 81
159 136 81
161 142 87
149 129 77
157 135 81
163 140 84
171 152 93
159 137 82
157 134 81
155 134 81
158 134 78
172 150 90
153 125 72
160 138 84
178 158 97
154 128 74
162 141 85
167 142 84
175 151 90
160 129 71
166 143 84
165 141 84
171 183 199
174 186 203
164 175 191
163 174 190
157 168 183
158 169 185
163 174 190
162 173 188
169 181 198
167 179 195
166 178 194
162 173 189
168 180 196
175 187 204
171 183 200
165 177 193
165 177 193
163 174 190
173 185 202
153 163 178
171 183 200
165 177 193
154 165 180
166 178 193
175 188 204
164 176 190
157 168 183
152 162 177
161 173 186
158 169 184
165 177 192
161 173 185
168 180 195
155 166 179
160 171 186
169 181 198
164 176 192
162 174 187
173 185 202
165 177 194
160 171 187
166 178 194
163 175 192
164 176 193
155 166 183
135 144 158
160 172 188
155 166 181
163 175 191
175 188 206
163 174 191
165 177 194
152 163 178
154 165 181
158 170 186
160 171 186
151 163 178
161 173 189
150 161 174
155 167 181
156 167 183
158 170 185
154 166 181
180 194 212
166 178 195
170 183 200
158 170 185
155 166 181
162 174 189
166 178 195
166 178 195
174 187 205
175 188 206
168 180 196
159 172 186
163 176 191
160 172 186
174 187 203
173 187 203
153 164 178
159 171 185
161 173 188
158 170 183
159 171 185
163 176 191
149 160 171
172 185 201
168 181 195
159 172 183
171 184 202
152 164 176
176 189 206
165 178 192
167 180 196
167 180 197
161 173 188
162 174 188
168 181 198
163 176 188
163 176 189
157 170 182
167 180 194
170 182 198
161 174 186
163 175 190
164 177 192
170 183 198
171 184 201
159 170 185
173 186 202
177 190 208
167 179 195
167 180 194
169 182 197
147 155 160
122 117 85
66 84 112
62 80 115
60 74 95
56 75 108
63 79 96
50 69 101
74 88 105
59 73 94
66 82 107
63 76 105
74 86 101
61 73 88
74 88 109
67 78 90
65 80 109
67 79 85
62 74 88
62 76 93
67 79 99
83 93 112
72 81 99
66 80 105
73 83 103
67 75 86
66 75 91
73 80 94
73 81 91
67 76 98
64 72 86
57 64 81
68 74 86
109 118 130
125 136 154
32 51 90
38 60 91
38 61 98
44 70 104
36 58 101
42 66 103
38 60 89
42 67 111
43 69 107
45 71 118
44 69 114
46 74 113
43 68 103
46 72 108
42 66 108
44 69 111
45 71 112
44 70 104
44 69 91
43 68 108
46 73 111
52 82 133
46 73 118
44 69 105
49 77 128
37 59 95
46 73 114
43 69 107
40 64 99
46 71 109
42 66 100
40 63 88
44 69 106
42 66 101
46 72 108
43 68 106
42 66 109
38 61 93
45 70 113
40 63 103
46 72 101
42 67 90
47 74 116
43 69 105
40 63 103
48 75 114
36 58 81
44 70 104
47 75 117
43 67 97
47 75 120
48 75 112
45 70 104
45 71 106
42 68 96
48 76 124
39 61 98
41 66 90
46 73 116
43 67 107
43 68 102
42 65 91
41 64 99
46 72 116
42 67 107
40 63 85
43 68 111
42 67 97
46 74 107
49 77 113
43 68 108
49 78 117
34 54 81
42 66 104
43 67 101
43 67 102
45 71 112
43 68 102
42 67 104
44 69 110
46 73 126
42 67 96
41 64 97
47 74 117
42 66 102
43 68 110
42 66 98
41 65 102
40 62 96
45 70 105
42 66 104
41 65 91
41 65 98
44 68 99
41 63 99
41 64 87
35 50 64
42 64 108
43 66 102
37 58 85
38 58 86
39 59 77
128 113 76
133 108 64
68 39 16
61 31 14
54 30 16
79 41 9
61 37 15
69 42 15
60 35 10
68 43 24
59 36 18
64 40 11
67 47 25
74 53 31
74 51 24
45 39 27
67 51 36
47 43 31
54 43 25
59 45 28
68 52 34
51 44 31
54 46 35
59 42 23
64 46 32
54 50 42
58 54 46
67 54 38
56 54 47
59 56 41
54 53 38
63 53 36
63 56 40
121 99 56
152 131 76
173 155 94
173 154 93
163 145 88
166 142 83
174 155 94
171 153 94
165 144 86
168 150 91
168 144 84
161 139 82
167 146 87
164 142 84
173 154 94
162 143 87
163 148 93
170 151 93
164 143 87
153 132 79
180 162 100
160 141 85
164 145 88
161 140 84
165 144 87
163 144 88
168 146 88
166 148 91
163 142 86
157 134 79
161 140 84
164 142 85
164 146 90
150 124 71
167 147 89
167 148 90
153 131 78
153 132 79
164 141 84
163 139 81
154 132 78
150 128 76
163 142 85
162 143 87
150 128 74
170 151 93
166 148 90
160 139 82
156 136 82
168 150 91
156 135 81
160 139 84
162 141 84
166 147 90
158 143 88
165 148 91
173 155 95
155 139 85
164 144 87
158 137 81
164 145 88
162 146 90
151 133 81
158 139 84
153 135 82
159 139 84
148 131 81
154 131 77
148 125 74
152 131 79
150 131 79
160 138 81
154 139 85
163 143 87
167 149 91
163 140 81
158 138 82
162 139 83
153 132 79
167 148 91
171 149 90
165 142 85
167 146 87
167 145 87
166 144 87
162 140 84
164 143 86
161 138 82
153 131 79
165 142 84
170 150 91
170 146 87
156 133 79
176 156 94
178 159 98
156 133 81
163 140 85
154 131 79
166 144 87
159 135 81
154 128 74
159 135 79
163 136 79
152 126 72
160 137 82
154 130 77
161 135 79
168 144 86
165 139 82
157 131 76
151 119 65
172 151 90
166 141 82
159 138 82
159 131 73
166 142 84
164 176 192
166 177 193
166 177 193
162 173 188
158 169 184
157 168 183
170 182 198
167 179 195
155 166 180
169 180 196
160 171 187
159 170 186
165 176 192
173 185 202
163 175 190
162 173 188
174 186 203
174 186 202
158 169 184
166 178 194
164 175 191
168 180 196
157 168 183
165 177 193
168 179 195
170 181 198
159 170 186
168 180 196
172 183 200
167 178 195
158 169 184
169 181 197
171 183 199
168 179 196
171 183 199
168 179 195
172 184 200
167 179 194
168 180 196
159 170 185
172 185 202
166 178 194
158 169 185
157 168 184
158 169 186
155 166 182
158 170 186
158 170 186
161 173 188
165 177 194
150 160 175
154 165 180
159 170 185
169 181 197
167 179 195
166 178 194
161 173 189
170 182 199
161 172 188
154 165 179
169 181 197
158 169 184
163 175 191
164 176 192
158 170 185
158 170 185
156 167 181
157 169 183
158 170 184
162 174 189
162 174 189
170 182 199
156 168 183
162 174 190
168 180 196
167 179 195
163 175 189
168 180 196
159 171 183
158 170 183
164 176 191
167 179 196
162 174 185
155 166 180
158 170 185
162 174 189
160 172 183
152 163 173
162 174 187
160 172 186
159 171 182
156 168 181
163 175 189
158 169 184
162 174 188
168 181 194
167 179 194
159 171 183
162 173 186
167 180 193
166 178 192
162 174 188
167 180 196
163 175 189
166 178 194
166 178 193
161 173 187
161 173 187
168 180 195
156 168 182
156 168 181
156 168 179
170 182 198
166 179 194
142 145 139
124 119 92
53 71 96
46 66 104
66 81 101
61 78 106
56 73 90
60 76 93
52 66 85
58 75 91
58 74 96
77 88 107
71 83 98
75 88 101
66 80 109
60 70 85
64 77 97
70 81 96
68 79 93
60 71 95
63 77 96
78 88 100
64 76 100
78 88 100
72 80 95
72 81 102
65 73 91
63 72 90
65 73 89
70 78 92
51 57 70
64 71 86
67 73 83
131 141 155
119 129 143
31 51 83
37 59 98
41 64 97
39 62 106
39 62 93
41 65 90
39 63 93
45 72 115
46 71 111
36 57 89
47 73 114
46 72 117
43 70 108
46 74 104
47 74 116
42 68 103
48 75 115
45 71 100
44 70 97
46 73 112
43 68 98
37 59 85
43 66 94
44 70 115
44 70 103
40 64 89
44 70 109
43 68 110
42 66 100
42 67 106
43 69 113
46 72 112
50 78 109
45 73 104
43 68 104
43 69 104
44 70 106
41 65 88
46 73 114
44 69 113
48 76 106
42 68 102
40 63 102
41 64 90
50 79 118
48 76 122
44 70 112
41 65 96
47 75 113
43 69 106
39 62 97
45 72 110
46 72 115
44 69 112
46 73 113
43 69 108
41 65 93
45 71 106
42 66 98
43 68 114
44 69 107
44 70 110
45 71 99
40 63 99
42 65 101
37 59 94
43 69 100
40 63 88
43 69 78
45 71 112
44 69 107
45 71 106
44 70 113
45 71 107
47 75 109
43 66 103
38 61 84
43 69 101
49 77 118
40 64 89
44 69 111
43 67 105
41 65 94
41 64 91
46 73 116
50 77 125
45 71 104
43 67 103
44 68 101
47 74 112
40 62 100
44 68 96
46 71 111
44 68 105
41 63 93
42 63 101
36 56 82
46 71 117
41 63 90
43 66 103
38 57 80
34 52 84
113 89 61
141 118 70
61 35 15
68 38 18
46 26 15
68 38 19
67 35 9
60 36 19
70 44 21
62 44 25
74 49 28
78 51 21
69 47 20
68 49 31
66 49 25
74 48 22
67 46 25
63 52 38
66 50 29
76 58 34
77 53 31
73 52 32
77 56 35
74 58 38
58 55 44
59 47 31
54 50 39
65 49 35
53 49 37
65 53 35
72 60 38
57 47 33
67 59 45
107 95 57
142 123 73
167 146 87
166 146 88
171 151 91
173 152 93
162 138 82
167 148 90
169 151 93
173 153 93
164 142 84
169 148 89
157 132 76
169 146 87
172 150 89
176 157 96
162 142 85
172 151 91
167 144 86
170 150 91
170 149 90
171 150 91
172 151 91
164 144 87
159 138 82
165 143 85
164 142 85
163 142 85
163 146 90
157 133 79
163 146 90
171 153 94
167 146 88
169 149 90
166 147 90
159 137 81
159 140 85
163 141 84
167 145 86
146 124 72
164 146 90
158 134 78
158 133 78
164 143 86
171 152 93
158 136 81
145 121 67
178 160 98
159 143 88
164 144 87
163 139 82
149 129 77
166 143 84
162 141 84
168 149 91
152 134 82
160 140 84
170 151 91
168 151 93
157 140 85
171 153 94
158 138 84
154 134 81
145 124 74
159 140 85
162 145 90
149 130 79
149 127 76
160 145 90
150 131 79
161 144 88
158 136 81
146 125 74
172 152 91
152 130 76
161 140 83
154 133 79
160 139 83
155 130 76
173 152 91
170 148 89
164 138 81
156 132 78
161 132 76
158 132 78
163 142 85
169 146 87
171 146 86
160 139 84
166 141 84
161 134 78
151 122 69
170 148 88
162 136 81
167 145 87
158 136 82
160 137 82
170 147 88
153 126 72
168 147 90
168 146 87
163 139 82
168 147 88
161 135 79
167 145 88
163 140 83
155 130 76
159 133 78
161 135 79
161 138 82
167 144 85
156 133 79
166 142 83
166 141 82
170 147 88
172 149 89
174 185 202
172 183 199
151 162 176
155 166 180
165 176 192
170 181 197
166 177 193
162 173 188
171 183 199
159 170 185
160 170 185
160 171 186
163 174 190
152 163 177
174 186 202
150 160 174
173 185 201
159 169 184
181 194 211
166 178 193
166 177 193
164 175 191
171 183 199
165 176 192
164 176 191
169 180 196
167 178 194
159 170 185
162 172 188
171 183 199
173 185 201
164 176 191
174 186 202
166 177 193
164 175 191
171 182 198
163 174 189
156 167 181
177 189 205
162 173 189
162 173 189
156 166 181
164 176 191
166 177 194
140 150 164
149 159 174
172 184 201
163 174 190
166 178 194
160 171 186
163 174 190
153 164 179
162 173 189
157 168 183
151 162 177
170 182 198
171 183 199
156 167 182
161 172 187
168 179 195
165 176 192
146 156 170
169 181 197
166 178 194
165 177 192
155 165 180
166 178 193
160 171 185
166 178 193
162 173 189
169 181 197
169 180 197
167 179 195
166 178 193
165 176 191
180 192 210
162 173 189
166 177 191
166 178 194
159 170 185
168 180 196
169 181 196
166 178 192
161 173 187
170 182 197
164 176 190
174 186 201
160 172 186
161 172 186
162 173 187
171 183 197
177 190 206
159 171 184
157 168 180
171 183 199
166 178 192
164 176 188
173 186 202
159 170 183
167 179 195
168 179 195
171 183 198
168 180 195
167 179 193
165 177 190
175 187 204
169 181 197
162 173 188
168 180 195
165 176 192
169 181 197
174 186 203
171 183 199
171 183 199
131 123 97
127 121 97
68 81 98
66 80 109
58 74 108
64 77 99
56 73 102
58 75 104
67 80 93
59 71 89
68 83 100
53 67 94
76 90 119
63 77 105
76 89 111
56 67 89
58 73 95
66 77 99
65 77 106
62 74 96
62 74 96
76 87 110
72 81 100
65 74 86
51 63 83
64 73 87
55 66 89
69 79 99
60 66 78
65 71 82
58 65 81
67 73 84
59 63 73
115 124 140
127 139 156
41 65 103
35 56 81
32 51 76
39 63 101
42 67 111
35 55 80
44 69 108
39 62 92
37 60 91
45 70 107
43 68 93
47 75 121
37 59 88
45 71 116
40 64 101
38 60 94
40 63 91
44 70 103
41 64 100
39 62 89
36 59 85
44 70 108
48 76 122
42 66 107
37 59 99
43 67 111
46 73 118
44 69 112
47 74 115
38 60 85
46 73 112
47 74 119
48 76 123
47 74 119
40 63 92
42 66 103
43 68 105
43 68 100
42 66 99
48 76 107
39 62 91
49 77 125
40 64 93
45 71 115
52 82 124
46 72 105
43 67 96
40 64 100
50 79 123
44 69 103
42 66 104
47 74 109
36 58 83
46 73 121
47 74 112
41 64 104
47 74 119
48 75 117
39 62 89
48 76 119
45 71 116
40 65 105
41 66 92
39 62 95
46 72 109
45 71 111
50 77 128
45 72 104
48 75 107
36 56 84
44 69 106
40 64 84
39 61 82
44 69 107
50 77 113
44 71 117
42 66 98
41 64 105
43 67 95
40 63 101
44 69 105
41 64 98
44 69 106
49 77 126
42 65 94
41 64 94
42 66 89
44 69 94
40 62 102
41 64 102
45 70 102
46 70 111
40 63 96
42 66 100
43 65 95
43 67 98
44 67 102
42 66 94
40 61 80
41 62 87
38 57 68
33 50 69
124 110 79
120 98 57
74 40 13
58 32 9
59 35 20
58 34 19
75 45 20
47 34 22
62 39 15
56 41 28
64 43 22
67 47 25
82 54 28
67 46 27
71 50 28
75 52 32
78 54 29
68 50 29
79 57 27
65 50 33
74 50 26
72 54 32
79 54 31
60 51 37
70 49 30
57 46 29
67 50 37
60 47 30
78 55 33
57 49 40
72 55 37
72 52 33
70 50 32
114 99 58
127 104 57
168 148 89
177 156 93
168 145 86
169 143 83
167 142 83
164 139 81
181 160 97
161 138 82
167 144 84
174 152 91
168 147 88
179 158 94
166 146 87
176 154 93
162 137 81
169 145 86
175 155 94
168 146 87
161 139 84
166 143 84
172 152 94
169 151 93
176 156 95
161 138 82
164 143 87
171 150 91
166 142 84
162 138 81
155 129 76
153 128 76
153 131 77
171 151 91
155 135 82
159 137 82
156 134 81
154 130 76
150 123 69
161 133 76
155 130 76
158 134 78
163 142 85
159 140 84
172 151 90
159 138 82
163 142 85
166 145 87
152 130 77
157 137 82
152 131 77
153 131 77
166 145 87
160 138 82
155 135 82
155 137 84
153 132 79
153 134 81
160 142 87
166 145 87
155 135 81
149 127 76
167 147 90
165 148 91
150 128 76
155 132 78
162 140 84
168 148 90
142 121 72
153 134 82
158 134 78
157 139 84
166 144 86
148 130 80
151 128 76
166 145 86
160 136 79
173 153 92
164 139 81
161 136 79
164 142 85
160 134 78
171 146 86
172 149 90
163 136 78
164 137 79
168 145 86
173 152 93
170 149 90
168 145 86
164 136 78
162 138 82
171 145 84
165 139 81
175 155 94
156 135 82
168 146 88
160 136 82
159 135 81
167 141 82
168 145 87
161 141 85
157 132 76
158 135 81
158 134 78
162 135 79
161 136 79
168 146 88
170 144 85
165 139 81
156 131 77
153 128 74
167 142 84
161 133 76
163 133 73
168 140 81
163 174 189
167 178 194
164 175 190
162 173 188
158 168 183
173 185 201
159 169 184
166 178 193
166 177 192
165 176 191
155 165 179
168 179 195
169 181 196
163 174 190
159 170 184
152 162 176
168 179 195
170 181 197
166 177 193
160 171 186
164 175 190
172 183 199
162 172 187
171 183 199
160 171 186
167 178 193
163 174 189
163 174 189
168 179 194
169 181 196
162 173 188
176 187 204
168 179 195
161 172 187
170 182 197
160 171 185
164 174 190
165 176 192
165 176 192
160 171 187
169 181 197
176 188 204
169 180 196
172 183 199
166 177 193
157 168 183
162 173 188
158 168 183
161 172 188
166 177 192
163 174 189
159 169 184
168 179 195
157 168 182
164 175 190
144 153 168
157 168 182
159 170 185
161 172 187
169 181 197
177 189 205
166 177 193
175 186 203
156 166 181
158 169 183
167 178 194
170 182 198
158 169 183
160 171 187
159 170 185
161 171 187
152 163 177
167 178 193
171 183 200
166 177 193
153 163 177
167 178 193
158 168 183
163 174 189
166 177 193
158 169 184
168 179 195
168 179 194
170 182 198
166 177 192
171 183 199
172 183 199
160 170 184
168 180 194
167 179 193
168 179 195
174 185 201
159 170 184
162 173 187
166 177 192
165 177 192
171 182 198
168 179 195
164 175 190
165 176 192
165 176 191
175 187 203
168 180 195
170 182 198
162 173 188
173 184 200
161 172 187
162 172 187
168 180 195
166 177 193
177 188 205
166 177 192
168 179 195
165 173 186
131 124 103
114 107 90
67 82 104
57 70 90
58 74 96
56 71 93
64 77 99
62 78 109
57 73 97
60 73 88
73 88 104
62 72 94
73 83 97
55 67 77
55 70 99
64 79 109
64 75 95
62 76 102
55 66 82
61 74 94
59 68 81
71 79 94
71 84 106
66 74 90
80 88 100
57 65 78
67 77 96
57 66 86
61 68 78
67 74 90
47 54 70
64 70 80
61 66 79
106 115 130
101 111 129
32 51 85
33 52 83
36 57 96
40 64 103
38 61 106
41 65 102
38 61 90
37 59 95
41 66 92
47 74 118
42 67 97
45 71 105
44 69 114
45 72 105
43 69 90
46 72 111
46 72 115
43 69 102
45 71 104
40 63 101
42 66 107
40 62 100
40 63 90
43 69 106
44 69 113
45 71 107
45 71 108
46 73 105
50 78 120
42 67 94
46 72 115
45 71 110
47 74 122
45 70 100
45 70 98
46 72 96
46 73 115
45 70 113
50 79 127
48 76 102
44 69 100
46 72 113
42 66 101
41 64 88
40 63 96
47 73 110
45 71 109
41 65 110
45 71 104
40 63 91
43 68 111
41 66 90
39 63 96
44 70 107
48 75 110
36 58 86
49 77 116
48 76 114
42 67 107
44 69 94
50 79 130
46 72 116
45 72 102
50 80 116
42 67 100
49 77 117
41 66 86
44 69 119
42 66 109
49 77 118
37 58 83
45 70 104
41 63 103
48 75 112
42 66 85
43 69 102
50 78 119
43 68 108
43 68 101
40 63 91
47 74 111
43 66 105
40 63 88
41 64 94
45 70 107
36 57 85
42 65 90
45 70 107
41 65 89
41 64 92
39 61 90
43 67 98
43 66 96
43 66 98
39 59 92
37 57 88
45 69 110
40 63 104
38 57 70
40 63 93
35 53 74
38 57 92
112 99 65
115 89 49
70 36 6
61 32 12
44 23 13
59 29 8
70 40 14
64 42 21
56 37 18
54 36 19
67 43 23
62 41 17
71 44 17
69 47 25
62 46 22
77 49 19
61 45 28
66 52 31
55 40 16
70 47 21
57 46 33
58 46 35
68 56 38
72 52 33
65 54 43
71 56 34
57 44 26
56 51 33
67 56 37
62 48 32
60 48 32
62 49 37
67 56 38
113 96 56
129 108 61
160 136 79
171 147 87
173 151 90
178 157 96
172 148 88
167 144 86
181 162 99
180 160 98
173 148 87
169 144 84
157 128 72
161 138 81
173 153 93
173 151 90
175 156 95
175 155 94
170 144 84
164 141 85
176 153 91
166 143 85
168 148 90
173 151 91
175 155 93
173 150 90
172 149 88
166 140 82
163 139 82
170 147 87
169 148 90
166 139 81
168 145 87
160 136 81
170 149 90
155 132 78
156 129 74
169 147 88
165 143 86
162 137 79
157 134 79
161 139 84
166 146 87
162 137 78
152 129 76
162 142 85
161 140 84
174 153 91
168 147 89
155 135 81
168 146 87
158 136 81
164 140 81
158 137 82
167 149 91
162 140 84
157 135 81
167 149 91
168 147 88
162 141 85
161 142 86
158 138 82
154 135 82
154 135 82
146 122 72
155 136 82
152 137 85
164 144 87
157 141 87
149 131 79
144 123 72
159 139 84
155 134 79
160 136 81
169 149 90
159 136 79
160 140 84
161 142 87
170 147 88
159 133 75
164 138 81
162 136 79
165 138 81
163 134 78
156 130 76
158 135 81
171 148 88
160 132 76
164 136 78
153 127 74
163 135 78
167 139 79
169 143 83
163 135 76
171 147 87
166 144 87
161 134 79
157 131 79
149 128 77
171 148 88
171 149 90
161 137 81
161 136 81
168 145 86
159 134 78
153 127 74
169 147 88
163 139 82
159 134 78
166 143 85
158 134 79
173 152 93
169 147 88
164 137 78
165 138 79
169 146 87
157 168 182
179 190 206
169 180 195
169 180 196
162 172 187
157 167 181
168 179 194
171 182 197
166 177 192
149 159 172
162 172 187
170 181 197
165 176 191
177 188 204
154 164 177
165 176 191
167 177 192
160 171 185
159 170 184
163 174 189
157 168 182
173 184 200
172 183 198
174 185 201
160 170 185
159 169 184
162 172 187
164 175 190
161 172 187
166 177 192
169 180 195
174 186 201
160 170 185
168 178 193
178 189 205
169 180 195
173 184 199
164 175 190
165 175 190
173 184 200
166 176 192
174 185 201
162 173 187
170 181 196
163 173 188
170 181 197
154 164 179
149 159 173
161 172 187
170 181 197
168 179 194
162 172 187
159 170 185
163 174 189
163 174 189
165 176 192
150 160 173
165 176 192
169 180 196
165 176 191
166 177 192
156 166 181
162 172 187
155 165 179
177 189 205
167 177 193
169 180 196
161 171 186
171 182 198
167 178 193
154 164 179
162 173 189
146 155 169
176 188 205
165 176 191
161 171 186
156 166 180
162 173 188
171 182 198
169 180 196
174 185 201
159 170 184
158 169 183
172 183 199
170 181 197
169 180 196
167 178 193
170 181 196
166 177 192
173 184 200
163 174 188
171 182 197
171 182 197
177 188 204
166 176 191
170 181 196
171 182 198
176 187 203
174 186 201
173 184 200
171 182 198
166 176 192
171 182 198
175 187 203
167 177 193
171 182 198
170 181 197
176 187 203
172 183 198
170 181 197
168 179 194
160 170 184
180 191 207
158 162 169
133 118 87
127 117 89
66 78 101
64 78 97
76 90 113
60 75 97
78 91 116
62 79 108
62 75 99
64 76 99
71 82 92
65 80 109
69 81 102
62 77 108
76 87 103
71 82 99
53 64 78
77 88 103
54 68 96
71 81 96
76 85 104
75 86 108
65 75 94
62 71 87
71 79 89
57 66 80
52 61 81
62 70 89
61 70 93
71 77 90
50 57 68
56 61 72
65 70 77
93 101 115
124 134 149
37 58 86
36 58 91
32 51 75
40 63 95
40 63 88
42 67 98
37 58 85
43 69 90
43 68 114
45 71 110
44 69 110
45 72 118
43 68 106
39 62 99
48 75 116
45 71 112
42 67 86
45 71 96
42 66 100
44 69 105
47 73 123
47 74 108
46 74 108
48 76 126
46 72 112
44 69 104
44 70 99
43 68 101
45 72 92
38 60 83
40 63 102
47 74 103
45 71 110
38 60 102
43 68 113
42 66 108
40 65 92
47 74 118
48 75 112
48 75 113
42 66 100
42 66 103
48 76 113
45 71 111
38 59 90
49 77 118
40 63 95
45 70 100
47 74 109
46 73 101
41 65 97
43 68 99
52 82 117
47 73 121
50 79 127
47 74 104
39 62 86
41 64 88
46 72 112
48 76 117
44 71 102
45 71 106
40 63 95
45 70 107
39 62 100
44 69 97
42 67 96
40 63 96
44 70 109
42 67 101
42 66 101
49 76 118
43 68 106
41 66 101
43 67 102
44 69 105
49 77 119
38 61 87
42 67 100
41 64 88
45 69 95
50 78 121
41 66 103
40 63 102
47 74 118
44 68 98
41 65 92
44 70 93
41 64 92
40 61 84
39 61 73
40 62 87
42 64 90
35 54 75
38 59 88
38 59 87
42 65 100
42 64 90
38 58 93
39 60 88
36 54 79
35 51 74
127 116 92
98 73 41
76 39 8
55 30 10
52 27 11
74 40 7
64 39 18
78 49 17
64 38 17
54 40 24
65 42 23
66 44 17
75 50 25
78 50 21
64 47 31
64 43 28
60 41 17
61 45 26
69 50 31
74 48 23
67 44 25
70 51 25
72 52 35
71 46 24
70 52 35
69 52 35
63 54 40
79 59 40
57 45 30
66 54 37
64 53 37
67 53 35
54 51 41
119 100 58
129 107 62
165 140 81
174 152 91
169 141 80
171 147 87
178 154 92
174 151 91
161 137 81
170 146 86
180 157 94
173 151 91
167 143 85
175 153 91
173 147 86
165 143 85
165 144 86
166 143 84
173 148 88
179 160 98
174 152 91
173 151 91
168 142 84
166 142 85
164 138 81
169 144 85
166 142 84
172 150 90
172 151 91
163 138 81
168 145 87
166 137 78
167 143 85
162 137 81
182 161 98
167 147 88
156 129 74
160 137 81
160 131 74
152 128 74
165 140 82
165 141 84
161 140 84
171 150 90
175 153 92
162 143 87
165 143 84
163 143 85
161 138 81
167 145 87
172 148 87
165 141 83
167 144 86
158 137 82
158 135 79
140 115 65
165 144 86
158 137 82
138 119 72
160 140 84
144 124 74
158 136 81
152 132 81
152 128 76
164 144 87
153 133 81
156 136 82
170 149 90
172 152 93
152 130 76
164 143 86
152 125 71
152 131 78
141 117 69
162 140 83
155 130 76
173 152 90
154 131 76
168 143 84
166 145 87
158 131 76
158 130 76
164 140 82
159 133 78
164 142 85
170 145 84
166 142 84
169 143 84
163 136 78
165 138 79
169 144 85
170 143 83
162 139 82
161 134 76
159 136 79
169 146 87
162 140 84
148 122 72
163 141 85
163 139 84
159 132 77
160 134 78
156 133 79
166 142 84
161 137 81
161 138 81
168 143 84
171 147 87
173 149 87
167 145 87
163 138 81
169 142 82
164 136 78
169 145 86
156 128 72
172 149 89
167 178 193
174 185 201
162 172 186
172 183 198
174 185 200
148 158 170
161 171 185
163 173 188
165 175 190
166 176 191
168 179 194
160 171 185
167 177 192
171 182 197
157 167 181
168 179 194
152 162 176
162 173 187
159 169 183
155 165 179
166 176 191
163 173 187
175 186 202
171 182 197
161 171 185
172 182 198
170 181 196
177 188 203
175 186 201
160 170 185
168 179 194
166 176 191
166 177 192
161 171 186
171 182 197
162 173 187
156 166 180
170 181 196
164 175 189
172 183 199
157 167 181
171 182 198
172 183 198
164 175 190
155 165 178
164 175 190
159 169 184
163 173 188
158 169 183
169 180 195
154 164 178
157 167 181
159 169 184
153 163 177
173 184 199
168 179 195
170 181 196
154 164 177
148 158 171
160 170 184
150 160 173
180 191 207
156 165 179
170 181 196
167 177 192
160 170 184
170 181 196
159 169 183
167 178 193
156 166 180
167 178 192
163 174 188
173 184 200
158 168 181
166 176 191
162 173 187
176 187 202
172 183 197
174 185 200
162 172 186
172 183 199
169 180 194
166 177 191
168 179 193
167 178 191
173 184 199
163 174 187
173 184 199
168 178 192
175 186 201
182 193 209
178 189 205
171 182 196
167 177 192
176 187 201
168 179 193
170 180 195
179 190 206
175 186 201
167 177 192
174 185 199
161 171 185
178 189 204
170 180 195
160 170 185
168 178 193
168 179 194
171 182 197
167 177 192
165 176 190
171 182 197
170 181 196
168 179 194
174 183 193
124 108 72
99 93 80
68 82 96
63 76 104
62 77 98
46 67 92
56 72 94
64 79 97
58 74 94
59 71 85
70 84 101
59 72 84
59 75 102
79 90 107
79 91 113
72 84 100
56 69 90
57 72 87
64 75 93
74 83 95
56 67 80
64 77 94
65 75 96
69 77 91
77 87 104
66 74 88
72 81 94
71 79 94
77 84 96
63 70 80
61 70 85
63 68 80
54 61 73
111 119 130
121 131 147
33 52 74
35 56 86
37 59 85
31 50 77
37 59 91
44 70 110
39 62 96
35 56 85
41 66 89
41 65 104
37 58 81
44 69 106
41 66 97
41 66 96
40 65 98
41 65 96
41 65 92
47 74 119
46 73 120
44 70 97
42 66 85
39 62 89
41 65 97
44 70 105
45 71 111
46 71 105
49 77 117
43 68 105
44 69 103
41 65 100
40 64 94
49 76 126
49 78 113
41 65 103
45 71 113
44 69 100
44 69 97
41 65 101
44 70 107
46 72 116
43 68 102
41 66 101
44 69 104
45 71 101
42 67 99
37 58 98
48 75 119
48 76 118
45 70 107
48 75 118
44 70 91
39 62 98
45 71 106
38 61 96
45 71 111
48 75 109
47 74 119
46 71 92
41 64 92
45 72 104
47 73 105
44 69 104
44 68 100
48 76 109
45 72 112
42 66 103
42 67 98
46 72 107
50 78 118
48 75 106
46 73 114
44 69 105
42 67 94
37 58 92
44 69 104
49 77 107
38 60 88
47 74 113
44 68 109
45 71 96
49 77 113
44 70 108
43 68 100
42 66 91
43 69 106
41 65 94
48 74 113
43 67 114
46 71 116
40 61 92
43 68 99
41 65 103
44 68 101
37 56 66
42 65 92
40 62 99
40 63 102
36 56 93
40 59 93
33 52 67
38 57 79
37 57 76
120 108 85
114 88 49
69 35 8
59 28 5
65 33 5
65 36 13
65 39 17
63 38 8
57 38 21
63 41 21
66 45 27
87 54 15
68 46 22
73 51 22
73 47 15
61 44 26
55 43 24
56 45 29
56 43 26
62 45 30
70 51 31
72 53 29
77 47 25
68 45 28
63 49 37
66 54 36
61 52 41
56 48 24
62 54 37
63 52 31
59 57 44
71 56 38
71 53 35
107 91 37
120 100 44
168 141 81
164 138 79
177 155 93
172 148 88
177 155 93
169 144 84
175 152 90
169 143 84
169 144 84
170 146 87
172 147 87
167 141 81
164 138 79
179 159 97
177 154 92
169 142 84
167 145 87
181 161 98
168 144 85
172 148 88
177 156 94
168 142 82
179 157 95
169 147 88
172 149 89
167 142 84
174 150 89
166 138 79
175 151 90
169 144 84
162 138 82
157 132 77
161 140 84
155 129 73
169 146 87
165 144 85
149 123 70
174 150 89
171 150 90
164 143 87
163 140 82
160 138 82
171 148 88
174 150 89
164 140 81
165 141 82
166 144 86
174 153 93
152 130 77
170 147 87
161 139 82
158 134 78
166 143 84
148 124 72
155 134 81
161 141 85
152 131 78
156 136 81
169 149 90
167 146 88
153 132 79
164 140 82
155 136 82
160 141 85
168 150 91
168 149 91
158 138 84
159 137 81
163 143 87
155 135 81
161 140 83
165 147 88
156 135 81
156 132 78
158 135 79
155 132 78
165 141 83
156 128 74
170 144 84
169 144 84
170 144 84
167 141 81
158 131 77
171 142 81
149 123 72
170 145 86
179 157 94
158 134 79
167 143 85
167 143 85
158 130 74
172 152 93
175 154 93
159 139 84
178 156 94
166 144 87
170 150 91
167 144 87
163 137 81
144 117 67
164 140 82
162 139 82
155 129 76
167 143 85
171 150 90
167 141 82
167 143 84
159 130 74
153 128 74
167 142 83
167 141 82
165 141 84
171 149 90
179 156 92
164 174 188
160 170 184
177 188 204
168 178 193
169 179 194
168 179 193
159 169 183
169 180 195
172 183 198
166 177 192
176 187 202
166 177 192
168 179 194
158 167 182
163 173 187
173 184 199
164 174 189
163 173 188
164 174 189
156 166 179
165 175 190
167 177 191
173 184 199
176 187 202
171 182 196
164 174 189
163 173 187
153 163 176
173 184 199
170 181 196
171 182 197
170 180 195
171 182 197
176 187 202
170 181 195
160 170 184
161 170 184
154 163 176
169 180 195
172 183 199
165 175 189
157 168 182
179 190 205
158 168 181
172 183 198
165 176 191
165 175 189
167 177 191
148 157 170
158 167 181
171 182 197
161 171 185
166 176 191
154 164 179
168 179 194
158 167 181
168 178 193
161 171 184
154 164 177
162 172 186
171 181 195
162 172 186
160 169 182
178 189 203
178 189 204
173 184 198
143 152 163
174 185 200
166 176 190
163 173 186
160 171 183
159 169 179
165 175 189
177 188 203
172 182 196
169 179 192
157 167 180
170 181 195
167 177 190
153 163 175
172 182 195
174 184 199
165 175 187
171 182 195
165 175 188
160 170 182
173 184 197
164 174 188
164 175 187
162 172 185
167 177 190
178 189 204
175 186 199
159 168 181
164 174 187
155 164 175
167 177 189
162 172 185
166 177 190
174 184 198
175 186 199
172 182 196
165 175 188
169 180 194
174 184 198
166 177 189
160 170 182
176 187 202
163 174 186
172 183 196
170 180 194
169 179 193
170 181 195
175 185 199
116 112 81
94 91 66
60 77 106
65 80 100
54 70 94
52 69 95
60 77 107
73 86 108
71 84 107
69 82 103
70 83 100
60 70 82
72 83 104
68 79 99
65 78 97
56 70 94
62 72 76
63 74 88
65 79 106
76 85 102
71 80 93
77 88 97
72 82 89
51 61 78
84 92 107
60 68 72
62 69 75
55 62 79
72 79 86
68 74 85
65 71 86
70 76 85
65 72 85
122 130 141
130 142 160
36 58 80
35 56 85
40 63 101
45 70 109
46 73 117
41 66 86
41 65 92
40 63 96
47 74 120
40 64 86
42 66 89
40 63 94
40 64 99
41 65 95
42 67 100
42 65 108
39 63 94
45 71 111
46 73 120
45 71 103
41 66 103
42 68 100
40 63 92
37 60 91
45 70 103
43 68 97
47 74 114
40 64 89
41 65 98
43 68 100
45 71 95
40 63 89
48 75 123
45 72 103
43 67 99
38 60 86
47 74 96
45 71 105
48 75 117
44 68 107
46 72 109
46 72 100
49 77 121
45 71 103
48 76 112
45 71 112
43 69 109
41 65 103
43 68 95
43 69 105
40 63 96
43 67 99
41 66 88
44 69 102
44 68 109
43 68 98
45 70 106
43 68 99
44 70 101
45 70 103
47 74 102
43 68 102
49 77 110
46 73 113
50 78 112
42 67 109
44 71 110
48 76 111
41 63 93
44 70 112
48 76 106
40 64 96
44 70 113
49 78 120
46 72 112
41 65 91
42 67 102
44 69 101
50 78 113
45 70 106
45 70 105
45 69 105
41 64 90
41 63 94
44 68 111
41 66 89
45 70 105
45 70 109
46 72 111
43 67 111
41 64 85
44 68 95
37 57 82
42 65 100
41 63 87
40 62 91
43 66 97
38 59 95
40 61 93
37 55 87
32 48 57
31 46 64
113 99 74
114 90 51
54 24 5
55 28 3
53 29 7
62 32 7
68 38 12
70 42 23
61 37 11
59 42 22
71 46 21
76 51 25
74 47 17
70 43 18
62 43 20
66 46 23
59 41 26
55 45 33
68 49 27
68 44 19
61 44 29
76 54 35
71 49 20
67 54 39
67 53 31
66 49 33
57 47 29
59 52 38
72 55 34
73 52 26
61 51 38
60 55 39
63 53 37
101 88 32
107 89 27
171 145 85
178 154 90
163 138 79
180 156 93
167 141 81
161 134 77
167 144 85
170 147 87
178 155 92
171 147 86
170 147 87
167 141 82
174 154 93
172 147 86
176 155 93
180 157 93
168 145 87
175 154 93
174 152 91
173 152 91
161 137 81
162 138 81
170 147 88
163 138 81
174 151 90
171 147 87
171 147 87
164 138 81
165 140 82
168 143 84
164 138 81
164 140 82
148 124 72
159 137 81
167 146 87
172 150 90
168 146 87
163 138 81
173 148 87
148 124 72
156 133 78
146 127 76
158 137 82
154 133 79
164 142 84
162 139 81
159 137 79
159 138 82
172 150 90
170 146 86
160 135 79
161 137 79
170 151 91
159 138 82
165 142 84
153 134 81
156 133 78
153 132 79
156 134 79
167 148 90
163 144 87
143 123 72
160 137 81
160 142 87
173 152 91
151 128 76
168 146 87
147 129 77
166 146 88
175 156 95
141 122 72
162 142 85
161 140 84
156 133 78
162 140 84
158 133 78
157 136 82
154 128 76
162 137 81
163 137 81
159 132 76
169 142 83
153 122 67
161 132 76
156 130 76
153 124 71
172 145 84
164 140 82
168 141 82
158 132 76
170 142 81
164 137 78
166 141 83
152 129 77
170 148 90
157 132 79
156 133 79
165 139 81
179 159 97
153 127 74
160 137 82
165 139 82
171 149 90
161 134 79
160 134 77
179 156 94
152 124 71
162 134 78
164 140 84
165 138 79
160 135 79
165 137 79
165 137 78
171 146 87
162 172 187
174 185 200
170 181 196
165 175 189
166 176 191
174 185 200
168 178 193
161 171 186
168 178 192
167 177 191
165 175 190
167 177 192
162 172 186
159 169 183
175 186 201
171 181 196
174 184 199
157 166 180
171 181 196
156 166 180
155 165 178
176 187 202
170 180 195
176 186 201
174 184 199
168 178 192
176 187 202
173 183 198
165 175 188
169 179 193
168 178 192
177 188 203
166 176 190
170 180 194
170 180 195
172 183 197
170 180 194
159 168 182
165 175 189
165 175 189
169 179 194
164 174 188
167 177 192
168 178 192
156 165 179
149 158 171
154 164 177
162 172 184
175 186 200
166 176 189
162 172 185
139 147 157
153 163 176
160 170 182
151 161 172
165 175 189
147 157 166
165 175 188
155 164 175
162 172 183
156 165 175
170 180 194
172 183 194
173 184 197
184 195 210
172 183 196
179 190 204
163 172 184
168 179 192
170 180 194
172 182 196
171 181 193
164 174 186
177 188 202
162 172 186
173 183 197
161 171 183
167 177 189
163 173 186
162 172 178
162 172 182
162 173 175
163 173 180
167 178 180
166 177 181
165 176 186
162 174 166
166 178 173
169 180 184
163 174 175
165 177 173
151 162 150
152 164 151
146 157 154
158 169 164
165 177 166
154 165 164
155 166 155
163 175 169
158 170 150
162 174 169
158 171 150
140 152 132
147 160 134
154 166 145
149 161 143
152 165 142
148 160 149
154 167 145
157 170 143
147 160 131
152 163 150
144 158 106
140 151 132
118 116 78
100 92 73
44 62 86
83 95 113
61 76 94
63 80 105
61 75 96
70 84 101
61 74 95
62 75 90
65 77 96
61 71 82
74 88 106
59 70 87
58 69 94
71 83 107
84 94 111
62 75 87
67 76 84
58 71 88
65 76 89
67 79 95
62 71 87
68 81 99
61 71 87
57 65 78
60 69 81
57 66 80
85 95 107
68 74 83
59 65 74
62 68 75
58 64 70
138 147 160
134 145 162
30 48 66
33 54 77
37 59 94
43 67 101
43 67 100
36 57 93
34 55 82
35 57 81
44 70 102
37 60 93
45 71 108
39 63 99
42 66 94
49 77 122
45 71 106
47 74 115
46 72 107
42 66 93
44 69 104
38 61 104
44 71 114
46 73 107
41 64 92
43 68 91
38 61 102
38 59 87
43 67 95
40 64 103
41 65 95
36 56 78
46 72 110
46 73 107
43 68 103
46 72 107
46 72 107
45 70 93
50 78 123
39 63 86
42 67 102
44 69 107
41 65 97
45 71 104
42 67 90
41 65 98
44 69 95
39 61 95
46 73 111
47 73 110
43 68 102
48 76 117
44 70 110
45 70 98
49 78 126
41 65 93
46 73 113
42 66 100
44 70 112
44 70 106
47 74 116
43 67 103
43 68 97
40 64 94
43 68 96
40 63 87
46 73 106
44 70 102
40 63 74
47 74 110
37 59 83
40 62 95
38 59 81
39 63 83
37 59 74
45 71 110
44 71 98
40 63 92
45 70 110
48 75 108
45 72 116
38 60 91
39 62 88
42 66 102
43 67 92
49 76 122
41 64 90
40 62 87
40 64 98
43 67 88
43 67 104
46 72 111
40 62 91
39 61 85
43 67 95
41 63 94
42 65 94
37 55 78
40 61 90
38 57 78
36 55 72
33 50 73
40 61 84
33 51 77
111 96 71
111 86 51
71 37 9
70 35 12
59 33 17
55 24 5
67 44 22
66 39 13
74 42 15
78 47 8
61 41 15
76 51 26
65 45 22
64 44 27
64 47 27
64 43 25
55 41 21
67 49 27
64 42 21
71 46 21
65 44 25
56 43 24
65 48 30
76 53 30
75 49 17
62 45 24
51 44 24
63 49 33
72 54 32
58 51 33
56 50 32
68 58 38
68 49 27
110 94 22
115 96 31
151 129 56
152 135 58
147 126 51
151 131 51
141 122 46
139 117 46
154 131 66
166 148 72
155 135 68
152 133 58
158 138 68
157 136 74
155 133 69
166 146 72
162 141 65
158 136 70
157 136 70
156 134 65
154 135 68
162 144 76
154 132 70
168 148 79
166 143 77
151 126 67
161 142 77
161 141 79
147 119 62
172 148 86
160 137 77
167 145 84
155 132 69
165 142 81
162 138 78
166 141 81
170 149 87
163 136 76
168 146 87
172 148 87
167 144 86
159 137 81
160 138 81
168 142 82
170 148 88
160 140 84
174 150 89
170 149 88
171 149 89
177 156 94
162 139 82
160 135 79
166 142 84
156 137 82
156 134 79
155 136 82
161 142 85
163 143 87
151 130 77
169 151 93
168 149 90
155 136 82
156 136 81
157 137 82
160 139 84
156 134 79
163 143 85
166 143 85
163 146 90
155 134 79
158 133 75
152 131 79
163 142 85
175 154 94
163 141 84
165 140 81
158 133 76
169 147 87
158 131 76
165 139 81
159 130 74
178 156 94
174 149 87
171 146 87
153 125 72
178 153 90
167 139 79
166 142 84
164 135 76
167 138 78
167 140 82
169 140 79
176 153 91
165 142 85
173 149 88
159 136 81
153 128 76
169 145 87
171 149 90
170 147 87
165 141 84
165 144 87
163 141 84
168 145 87
163 137 79
175 152 90
145 116 65
160 133 77
171 147 87
162 137 79
153 125 72
151 122 69
159 134 76
173 149 89
176 149 86
163 137 79
177 187 202
161 171 185
173 183 198
163 173 187
165 175 189
178 188 203
174 184 199
169 179 193
171 181 195
170 181 195
167 177 191
162 172 186
161 171 184
159 169 183
156 166 179
165 175 189
179 189 204
159 168 182
172 182 196
168 178 192
172 183 197
164 174 187
176 186 201
175 186 200
169 179 193
173 183 198
174 185 199
165 174 188
175 186 200
165 175 189
173 184 198
166 176 190
165 175 189
172 182 196
158 167 180
166 176 189
169 179 193
161 171 184
170 179 194
166 176 189
167 177 190
158 168 180
173 184 196
158 168 179
160 170 182
158 168 175
163 174 181
169 179 188
160 170 177
134 143 143
157 167 168
158 168 168
150 161 155
141 152 143
149 159 154
148 158 156
158 170 158
149 161 147
143 154 139
161 173 161
148 159 143
131 143 122
132 145 101
144 158 116
130 141 121
134 147 103
144 157 123
140 154 105
138 151 103
135 150 100
129 143 78
129 143 92
138 152 98
133 147 98
120 134 75
124 138 71
125 139 86
124 138 82
129 146 62
130 146 67
123 139 55
119 134 43
132 148 65
126 141 49
131 145 76
129 144 72
130 145 76
136 152 85
133 149 62
130 145 66
126 142 80
121 135 79
118 133 50
129 145 77
123 137 74
127 141 86
130 145 62
116 129 70
131 145 73
128 145 53
129 144 64
130 146 71
124 139 63
125 139 78
132 147 78
125 140 62
132 147 73
130 147 62
127 143 67
125 140 71
121 133 82
129 145 48
131 147 77
124 138 77
120 128 57
104 100 64
80 90 96
60 72 83
56 71 94
75 90 114
67 80 97
48 64 78
58 72 95
74 88 114
67 81 100
60 75 93
63 73 82
71 82 89
66 78 93
64 77 100
70 81 97
69 84 108
71 82 101
65 78 97
60 70 86
77 88 103
64 73 91
72 82 99
64 75 101
69 76 86
81 88 101
72 79 89
58 66 76
52 58 67
77 84 96
71 77 84
67 76 92
143 152 164
123 133 148
37 59 87
38 59 96
42 67 101
36 56 88
43 68 107
38 61 83
40 63 95
42 66 96
44 70 105
40 63 88
40 64 92
43 68 109
38 61 85
43 68 105
45 71 116
35 55 67
46 73 97
45 70 96
40 64 100
39 62 95
37 59 84
36 58 86
40 63 81
44 69 101
45 71 108
42 66 91
47 74 113
43 68 100
41 65 102
47 73 107
40 63 91
45 71 112
38 60 86
43 67 103
44 69 106
45 71 107
46 73 110
39 61 94
47 75 116
45 70 100
43 69 114
41 65 95
44 69 96
45 70 115
41 64 107
46 73 109
43 68 103
39 61 84
46 72 114
45 70 113
37 59 78
42 67 105
43 69 100
42 67 98
48 75 110
42 67 86
44 70 109
48 75 112
42 67 101
43 68 82
42 67 93
47 73 118
45 70 109
41 65 94
47 73 111
46 73 106
41 64 95
42 67 93
44 69 103
44 69 98
46 73 117
41 65 97
41 64 104
43 68 104
42 65 101
38 59 98
48 75 113
48 75 101
45 70 109
41 65 88
43 68 96
49 77 115
41 65 95
40 64 94
41 64 98
38 60 81
43 67 102
41 65 94
46 72 111
42 66 102
37 58 87
43 68 105
41 64 83
43 65 93
38 58 86
41 64 99
44 68 91
39 60 81
36 52 73
45 69 105
35 53 80
33 48 70
144 127 88
138 116 69
65 31 6
62 33 12
67 36 13
64 32 9
63 38 16
74 43 17
62 40 6
66 47 27
66 42 14
51 35 19
80 53 25
70 46 15
65 47 26
64 42 14
49 33 19
68 48 22
66 48 30
58 45 28
68 49 27
66 49 26
76 55 28
73 53 35
64 52 39
68 55 33
52 43 28
77 55 24
56 48 29
42 38 30
65 52 28
52 49 34
58 50 35
110 86 15
122 106 12
135 124 3
134 119 4
127 113 2
131 112 3
129 113 3
136 125 3
127 114 3
118 103 3
131 115 4
127 111 3
137 122 4
130 113 3
127 111 3
125 112 3
134 118 3
125 110 3
134 121 3
134 122 3
126 111 3
123 109 3
130 116 3
131 115 3
127 113 3
124 113 2
132 122 2
141 129 2
126 112 3
128 113 3
130 109 4
128 113 2
115 97 3
136 122 3
130 116 3
127 114 2
129 111 4
127 116 2
121 104 3
121 107 3
131 115 23
118 102 16
129 109 23
127 110 28
133 119 40
125 108 32
145 133 58
130 112 36
133 114 40
137 116 43
127 113 39
137 116 48
137 120 42
136 119 48
142 129 56
136 120 53
134 119 48
146 130 64
144 126 54
138 121 49
141 122 60
153 134 67
141 126 64
140 121 65
151 133 74
141 121 61
152 133 70
151 132 72
145 128 70
146 130 77
158 139 84
166 147 86
165 147 90
169 148 90
156 135 81
156 134 79
155 134 79
179 156 93
160 131 76
160 132 75
166 138 79
172 146 84
169 141 80
166 139 81
163 138 81
164 135 78
176 150 87
161 134 78
165 142 85
160 130 74
161 132 76
167 142 83
168 143 84
159 132 76
166 143 85
161 139 84
165 142 85
166 139 81
159 137 82
173 149 88
164 138 81
162 137 81
160 136 79
163 139 81
164 141 84
166 144 87
169 147 88
149 118 65
177 152 90
173 150 90
157 132 77
172 145 83
165 137 79
165 138 79
174 148 87
172 147 86
177 188 202
183 194 209
171 181 196
171 181 196
170 180 194
175 185 200
172 182 197
162 172 185
167 177 191
157 166 179
159 169 183
156 165 178
161 171 184
173 183 198
169 179 193
166 176 190
171 181 195
171 181 195
158 168 181
161 171 184
169 179 192
155 164 176
173 183 193
158 169 168
173 184 185
163 174 171
153 163 161
159 170 165
167 179 177
155 167 144
153 164 154
150 162 146
140 152 131
152 165 144
158 171 155
145 156 139
129 143 87
134 147 102
126 138 102
127 140 86
124 139 77
132 146 57
126 141 64
123 138 50
120 136 26
125 140 41
118 132 43
110 125 57
111 126 44
119 134 56
118 132 54
126 141 48
114 128 51
98 110 62
126 142 25
114 129 43
117 130 63
128 144 76
120 134 35
136 152 75
127 143 60
121 135 51
125 140 42
120 136 56
130 145 65
118 132 37
129 144 56
117 131 61
126 142 66
119 133 68
118 133 49
131 147 52
120 135 58
128 143 63
120 137 42
118 131 73
129 144 58
127 143 42
122 136 76
131 148 64
122 137 74
124 139 52
124 140 44
133 150 59
125 139 81
134 151 66
130 145 80
134 150 74
118 130 87
123 138 67
126 141 65
131 147 63
121 134 67
126 140 74
124 137 92
123 139 63
136 153 60
131 146 71
127 141 63
117 130 59
124 139 52
127 139 80
125 140 50
129 144 71
128 142 69
128 143 73
125 140 67
123 137 72
132 147 78
130 146 59
129 144 73
128 143 78
131 146 70
128 142 82
133 148 68
102 102 64
76 81 88
69 82 102
67 81 99
62 77 96
65 80 108
69 83 108
58 72 91
60 75 92
55 68 82
68 79 92
66 80 102
49 61 63
76 88 104
69 81 98
68 80 97
60 72 95
70 81 96
62 72 84
59 70 88
67 78 97
79 90 105
70 81 97
74 82 94
63 71 79
57 66 79
60 70 86
64 72 82
57 64 74
57 64 72
72 77 84
66 74 85
159 169 178
140 150 167
34 54 82
36 57 82
36 57 85
40 64 93
35 56 89
39 63 92
36 57 89
37 58 90
40 63 84
36 58 77
44 69 102
50 78 125
42 67 104
41 65 91
42 66 111
43 67 101
40 63 97
44 70 115
41 64 112
45 70 100
44 70 107
44 69 98
40 63 97
41 64 98
39 61 86
45 70 110
45 70 109
38 61 97
40 63 91
45 70 110
43 68 90
42 66 87
46 73 122
43 68 93
49 76 112
47 73 124
51 80 123
38 60 93
46 72 106
45 72 105
42 66 88
44 70 102
44 69 102
45 72 115
41 65 71
45 70 95
41 65 92
43 67 108
43 68 108
49 77 120
48 76 109
45 71 115
38 59 88
39 62 83
42 66 95
48 75 111
48 75 120
43 68 117
43 67 100
40 63 92
44 69 96
44 70 97
48 75 120
46 72 119
41 64 91
44 69 88
42 66 95
37 59 83
43 70 101
47 73 113
43 68 98
38 61 75
50 78 115
46 74 104
41 64 90
44 70 108
45 70 104
46 71 111
47 73 114
47 74 105
43 67 94
40 64 94
48 74 108
48 76 116
44 67 105
44 69 103
45 70 105
40 63 102
50 79 119
35 55 79
42 66 97
41 64 92
48 75 118
40 63 94
41 64 91
41 62 91
39 61 88
46 71 106
38 57 64
38 58 73
42 64 96
29 41 61
134 119 80
154 133 79
68 32 3
58 32 12
52 28 12
71 41 10
66 36 10
67 43 14
58 32 14
64 35 6
70 45 18
58 35 9
76 48 19
74 50 23
62 47 25
65 47 24
78 54 32
57 46 32
68 44 21
69 48 30
74 54 29
66 49 27
62 50 36
58 41 19
68 54 27
73 47 27
67 51 29
61 49 32
56 51 36
62 48 25
58 51 37
65 52 35
76 57 33
97 83 22
130 117 3
134 119 3
127 110 4
126 110 3
134 119 3
134 122 3
135 121 3
131 115 4
135 123 3
135 124 3
119 102 3
131 118 3
124 107 3
128 116 2
128 115 3
126 112 3
125 109 3
133 118 3
121 107 3
125 111 2
124 111 3
132 117 3
130 117 3
127 113 3
138 122 3
132 121 2
134 117 3
125 102 4
123 104 3
126 112 3
120 102 3
120 103 3
122 112 2
130 114 3
129 116 3
133 117 4
131 115 3
126 114 2
111 96 2
126 115 2
123 108 3
130 112 4
124 113 3
130 114 4
116 102 2
125 107 4
117 106 3
116 95 4
136 123 4
111 98 2
122 107 3
121 110 2
120 104 4
116 107 2
115 102 2
121 107 3
124 114 2
115 100 2
132 122 2
123 114 1
128 117 2
125 116 2
115 101 2
122 109 3
114 104 2
115 103 3
117 105 2
126 114 2
121 112 2
112 97 3
114 102 2
126 115 3
121 108 16
119 106 28
131 120 16
137 119 45
130 112 39
134 119 43
134 113 43
139 117 46
148 128 48
146 129 46
139 116 46
149 126 58
150 134 58
153 128 65
149 123 58
150 128 65
150 127 63
161 137 74
158 131 72
163 137 70
170 146 82
160 133 77
157 134 79
169 144 85
162 136 79
159 128 72
156 123 69
170 148 88
157 129 72
168 143 83
163 140 82
159 132 76
165 138 81
170 145 86
162 135 79
173 147 87
168 144 85
172 148 88
170 144 84
168 141 81
154 122 65
174 147 84
166 138 79
169 178 192
167 177 191
170 180 194
168 178 190
169 180 188
161 172 177
159 171 169
162 173 172
151 162 153
150 160 160
158 170 153
129 141 119
142 152 143
142 156 117
148 160 144
131 143 96
148 161 133
133 145 101
117 131 78
126 141 73
125 141 63
123 135 79
122 137 66
124 138 62
129 145 75
122 137 71
136 152 66
122 135 69
131 145 80
139 157 56
128 143 67
129 144 63
124 138 71
135 149 78
126 142 60
123 137 58
125 140 62
126 140 70
121 136 43
116 130 51
125 140 50
119 133 53
123 138 51
118 133 39
118 134 42
120 135 52
112 126 62
110 124 57
110 124 22
118 133 37
110 123 55
120 133 69
112 126 45
119 134 54
117 129 60
119 133 53
121 136 46
115 129 60
124 139 56
118 133 64
124 139 49
122 136 35
116 130 58
116 130 53
119 135 58
122 135 56
120 135 54
116 129 55
119 135 40
124 139 50
126 143 49
117 131 69
128 144 47
125 139 76
128 144 72
129 145 49
130 146 76
119 132 77
129 144 65
128 143 64
131 147 57
122 135 83
119 132 77
124 139 43
125 141 43
128 144 65
118 133 55
108 121 58
121 133 92
131 147 59
133 148 70
124 138 68
141 157 76
121 135 74
131 145 77
134 148 73
131 146 71
123 138 49
131 147 60
124 141 45
117 131 68
123 138 58
115 130 63
129 143 78
127 141 64
123 138 70
127 142 90
123 138 47
130 145 63
120 135 50
126 140 77
135 152 60
119 131 73
118 131 68
128 146 42
114 124 60
87 91 73
63 78 91
57 73 87
69 81 100
46 62 84
59 72 88
73 85 93
65 78 85
67 81 98
63 74 83
65 77 93
70 82 101
57 70 92
61 71 86
68 81 104
67 79 97
52 65 84
56 69 93
65 78 98
69 78 94
48 60 62
60 69 86
77 86 105
69 77 84
49 58 69
64 71 81
82 91 100
52 58 69
44 50 60
74 82 90
65 74 79
138 151 111
147 157 173
35 56 70
34 54 87
32 52 68
33 52 81
40 62 95
34 54 81
40 62 95
40 63 95
40 64 89
41 65 97
45 71 118
38 60 94
43 68 106
38 61 97
45 72 114
45 71 100
47 73 116
44 70 96
44 70 95
39 62 83
43 69 106
47 74 102
44 68 109
40 64 101
42 65 94
41 65 105
42 65 105
39 62 95
44 69 104
41 66 92
37 58 93
47 74 109
41 65 85
42 66 103
41 64 97
47 75 114
50 79 117
42 65 105
43 69 102
39 61 93
49 78 113
47 74 120
45 70 114
44 70 90
42 68 95
45 71 100
47 74 106
45 71 107
44 70 94
41 64 92
46 72 96
35 56 82
47 74 105
47 74 112
49 76 110
45 71 108
42 66 91
43 69 97
39 62 88
40 64 78
39 62 79
43 67 114
37 58 80
42 67 97
42 66 105
43 68 111
43 66 102
49 77 119
45 71 99
45 71 107
44 70 91
43 68 108
41 64 87
46 73 111
39 61 84
41 64 88
49 76 125
42 66 99
42 66 93
41 64 100
44 68 91
42 66 83
39 60 102
42 67 89
42 65 99
38 60 84
42 66 105
42 65 91
46 71 107
44 68 96
43 66 93
45 71 104
46 71 94
45 70 103
43 67 101
42 64 101
37 57 88
44 68 95
40 63 80
40 61 91
35 53 74
33 48 59
149 132 99
134 114 39
76 57 2
72 35 2
60 31 8
52 30 5
57 31 8
74 44 7
69 37 6
68 43 18
57 36 13
67 47 27
80 50 16
75 48 19
65 45 22
52 43 21
56 36 24
64 41 23
62 46 29
61 41 22
68 52 22
70 47 14
65 45 28
73 58 38
69 51 28
63 55 28
57 44 20
55 48 30
54 50 34
68 55 35
67 52 29
69 49 29
79 66 24
122 107 13
129 113 3
132 114 4
132 113 5
127 113 3
124 112 3
132 118 3
122 102 4
128 113 3
124 110 3
122 109 3
127 113 2
130 110 4
117 106 2
128 115 3
130 116 2
128 111 4
120 108 2
129 116 3
127 117 1
126 112 2
128 111 2
129 114 3
130 116 2
125 114 2
131 118 3
126 108 4
120 103 2
131 116 3
130 111 3
129 114 3
127 112 3
124 106 3
129 115 3
123 110 3
131 118 2
131 113 3
133 118 3
127 111 3
115 95 3
125 106 4
127 113 2
128 112 3
129 112 3
137 124 4
110 96 3
118 106 2
120 108 2
127 107 4
117 103 3
118 110 2
125 110 3
118 107 2
130 113 4
127 114 3
119 110 1
123 113 2
105 96 1
116 102 3
107 100 1
116 102 3
121 111 1
127 117 2
119 109 2
128 118 2
119 108 2
120 107 3
121 111 2
105 92 2
110 98 3
116 101 3
118 108 2
111 99 2
118 107 3
118 104 3
112 99 1
123 109 2
124 111 2
133 121 2
128 109 4
129 112 4
127 110 2
128 117 2
129 106 4
128 107 3
130 119 0
125 106 4
135 117 3
115 95 3
131 107 4
122 103 3
125 107 3
133 113 4
125 107 3
125 108 3
121 102 4
124 108 2
132 116 16
122 101 28
144 126 39
141 119 45
134 114 39
130 106 39
140 116 49
147 124 58
129 108 39
145 123 63
158 137 74
159 133 70
153 129 63
163 140 77
157 130 63
171 141 80
164 136 78
174 146 84
165 137 78
132 146 103
136 149 108
134 149 76
138 154 75
125 139 91
128 143 87
126 139 99
133 149 51
131 144 99
132 146 83
128 142 77
129 144 73
134 148 73
122 135 69
135 149 78
123 137 79
130 144 75
129 143 92
134 149 71
124 138 82
132 147 79
130 144 96
124 138 65
130 145 71
129 144 61
134 151 56
132 148 58
132 147 59
132 148 65
124 138 75
132 148 49
120 133 76
127 142 56
125 141 53
136 154 40
129 145 73
129 145 46
121 135 78
123 138 64
124 138 45
114 128 28
126 141 67
122 138 48
135 150 62
125 141 44
113 126 54
123 137 46
120 136 47
118 133 38
116 132 59
128 144 42
131 146 57
116 130 50
119 133 57
119 133 31
125 140 63
127 142 63
121 135 62
122 138 53
117 132 48
119 132 66
121 137 56
116 131 46
129 144 65
120 136 52
131 148 53
125 140 42
127 142 71
132 148 64
128 144 57
133 149 66
130 145 65
130 145 68
121 136 70
120 134 75
134 151 68
122 135 76
118 133 58
126 142 73
125 141 64
125 140 65
124 139 58
119 133 67
126 143 50
128 144 60
131 147 79
124 138 81
131 147 82
130 145 68
122 136 62
133 147 70
134 151 54
124 138 70
128 142 76
130 147 53
123 139 66
117 132 69
126 139 81
127 142 61
132 147 80
135 152 57
117 132 54
122 137 60
128 144 74
136 150 68
122 135 64
127 140 64
124 138 80
124 139 72
127 139 78
117 128 71
122 135 71
133 147 76
127 139 82
128 142 70
119 130 46
101 114 62
52 70 89
65 79 98
47 59 56
55 72 98
61 74 87
63 74 80
60 75 89
67 79 86
69 83 103
74 84 98
64 74 91
55 66 83
69 82 97
64 74 91
55 68 86
60 69 81
63 73 82
72 83 101
69 78 94
77 85 100
58 68 82
59 69 79
60 67 75
74 83 94
65 72 83
68 76 86
54 62 69
50 56 66
79 86 94
88 98 75
119 131 80
165 175 187
32 51 82
37 59 89
39 63 88
37 59 91
39 62 91
39 62 85
39 61 92
36 56 90
38 60 80
43 68 90
42 66 100
41 66 86
41 64 92
43 68 97
41 64 92
43 66 101
39 62 87
42 66 96
40 63 91
44 69 101
41 64 93
42 66 99
45 71 107
47 74 121
37 59 92
47 74 113
45 71 104
39 61 89
42 67 109
47 73 109
41 65 104
39 62 91
42 66 104
50 79 111
37 60 90
40 64 91
39 62 83
49 78 119
43 68 98
43 68 98
44 70 102
41 65 94
37 58 84
41 65 107
45 71 113
42 67 102
49 76 115
41 65 92
46 72 113
41 65 92
51 79 129
47 74 110
45 70 97
42 67 87
46 73 110
47 73 112
44 69 99
50 78 114
42 66 97
47 74 97
45 71 103
43 67 93
40 64 97
42 66 90
42 66 89
40 64 96
41 64 101
46 73 109
43 68 96
43 68 94
46 72 104
44 70 100
39 61 87
37 59 82
47 73 113
41 65 101
39 61 79
40 63 92
42 65 101
43 68 105
44 69 104
40 64 86
42 66 92
45 70 106
45 70 109
42 66 94
45 70 101
49 76 126
42 65 90
45 70 112
46 71 99
44 67 99
45 70 109
40 62 88
45 71 106
39 61 72
43 67 94
41 63 84
34 53 72
42 65 86
39 59 68
30 44 59
162 147 119
119 107 2
98 82 4
72 35 6
59 31 6
52 29 5
68 39 9
66 43 21
52 28 7
59 33 6
66 38 13
58 42 21
56 37 21
69 45 17
64 43 18
75 51 24
67 48 24
58 49 27
58 44 25
63 49 27
71 50 20
63 46 25
59 45 25
71 51 31
63 49 29
60 46 28
55 49 38
68 53 29
56 46 33
54 48 29
63 48 24
68 55 35
106 94 13
124 105 3
117 99 3
131 109 4
130 114 3
125 110 3
124 109 2
117 106 2
122 109 3
127 114 2
115 95 4
134 122 2
127 117 2
128 110 4
133 120 3
115 105 2
112 94 3
116 104 2
123 108 3
127 115 2
130 117 3
128 113 3
134 120 3
129 114 3
125 114 3
128 118 2
133 121 3
137 121 3
127 114 3
128 108 4
126 113 2
131 116 4
125 105 4
127 113 2
109 87 3
123 109 2
128 108 4
124 107 3
127 109 3
128 106 4
132 111 4
131 116 3
127 109 3
130 110 4
127 102 4
127 108 4
120 102 4
129 115 3
117 103 3
120 111 1
126 114 3
130 122 2
126 116 2
129 114 3
105 92 2
118 109 2
127 117 2
114 102 2
115 104 1
125 115 3
128 115 3
117 107 2
121 110 3
111 97 2
119 109 2
123 115 2
117 109 2
129 118 3
117 110 1
122 113 1
127 120 2
122 112 1
119 108 2
122 110 2
123 104 3
118 102 3
119 109 1
125 113 2
119 103 3
121 107 3
124 110 2
128 112 3
128 108 4
125 103 4
127 111 3
121 100 4
130 113 3
125 109 2
129 112 3
123 109 1
131 112 3
135 122 3
130 112 3
127 112 3
125 106 3
122 106 3
126 111 2
123 103 2
125 104 3
123 101 4
134 111 4
127 113 3
132 114 3
134 112 4
136 111 5
126 108 3
131 113 3
129 112 4
129 111 4
131 111 4
130 115 3
130 113 3
132 112 3
125 105 4
127 113 2
129 106 16
137 113 23
133 147 77
123 138 75
126 142 67
133 148 81
129 144 93
123 138 70
125 141 59
126 140 79
127 142 68
123 136 73
130 144 72
134 151 67
131 146 71
125 139 81
128 143 64
117 129 83
137 153 78
128 142 78
124 137 90
127 142 74
126 141 73
120 133 81
118 131 78
126 141 67
131 144 88
129 142 83
132 147 65
127 142 48
130 145 66
122 135 61
123 137 78
132 147 70
136 151 70
124 137 59
122 136 63
128 142 52
131 146 67
125 139 80
118 131 64
136 153 28
113 127 63
123 137 62
117 131 51
110 122 62
119 134 53
126 142 56
124 140 48
122 137 54
109 124 51
120 134 62
115 129 49
112 127 62
119 132 51
118 134 36
123 139 55
121 137 32
119 135 52
114 129 65
113 129 40
122 138 42
110 124 38
117 133 52
123 140 52
130 146 73
124 140 62
119 132 43
130 146 54
127 144 41
122 136 57
114 127 62
133 148 63
128 143 67
133 148 79
132 146 83
128 143 70
133 149 63
130 144 82
131 148 57
135 152 71
129 144 57
126 142 59
122 136 74
127 142 48
130 146 69
120 134 68
132 147 84
127 142 80
125 140 51
124 139 63
128 143 85
120 136 45
132 148 54
119 134 64
119 133 71
120 135 51
114 128 63
127 143 57
129 145 57
127 141 67
120 134 64
124 138 56
125 141 48
123 138 49
125 140 61
123 135 78
136 150 73
128 141 61
122 134 58
122 137 68
126 139 63
115 128 70
122 133 69
132 145 80
121 133 56
123 133 69
120 129 65
108 114 73
59 72 93
63 79 99
60 73 89
58 73 91
54 69 74
64 77 88
61 74 79
65 78 84
58 72 82
73 86 97
62 73 86
67 76 85
51 65 83
76 87 98
56 68 84
64 75 85
67 77 87
71 81 91
70 79 91
65 75 83
79 88 101
70 79 88
67 75 85
56 66 84
73 79 89
59 66 73
58 66 74
51 58 67
65 73 83
114 127 87
128 142 81
198 210 220
95 109 130
32 51 74
40 64 87
36 57 81
40 63 82
37 59 75
40 62 93
39 62 97
41 66 99
44 69 101
45 72 116
41 64 97
38 60 89
41 65 94
42 67 93
48 75 107
41 65 89
43 68 99
38 61 79
47 75 108
42 67 102
45 71 108
45 71 93
39 62 80
48 75 124
43 68 93
50 79 110
46 74 97
46 73 110
43 68 102
39 61 86
36 58 82
46 72 110
44 70 104
48 76 119
43 68 103
46 72 104
31 49 70
47 74 105
45 71 107
42 66 94
45 71 107
41 66 90
41 65 94
50 78 110
43 68 92
44 69 94
41 65 106
44 69 113
39 61 80
43 67 100
37 60 83
47 75 110
32 50 64
45 70 101
43 68 90
37 59 84
43 69 106
45 71 112
46 72 116
43 68 99
47 74 104
45 70 99
38 61 60
42 66 94
42 67 92
45 71 102
42 68 99
46 74 99
44 70 84
49 77 109
46 71 97
48 74 115
43 67 105
42 66 103
40 62 91
43 68 108
46 73 106
47 74 101
40 62 94
42 66 101
49 76 108
46 72 116
41 65 108
45 72 100
46 71 102
42 66 90
41 64 99
40 61 92
38 59 83
44 69 102
39 60 85
40 62 97
44 69 89
38 58 78
41 63 74
36 55 86
34 51 70
35 51 73
33 49 66
36 53 69
77 87 93
183 183 182
128 112 2
102 86 2
69 35 7
61 31 8
66 33 4
62 34 18
84 51 14
60 36 8
60 35 11
71 51 19
59 41 20
60 41 20
69 46 29
65 47 28
57 44 23
58 43 23
63 47 22
73 51 24
71 51 28
53 47 32
58 45 28
75 53 29
80 53 24
77 52 24
64 48 32
64 45 20
67 50 25
68 55 27
54 44 27
47 48 31
57 46 28
107 94 3
121 108 2
129 113 3
126 114 3
121 102 4
122 107 3
125 112 3
122 103 4
126 112 3
117 98 3
125 113 3
125 108 3
121 104 4
118 104 3
114 102 2
126 114 2
121 108 3
126 114 1
123 107 3
119 100 3
116 103 3
131 111 4
123 108 3
133 125 3
119 108 2
132 122 2
126 112 2
128 107 4
127 111 4
120 104 2
120 102 3
129 107 4
128 108 4
127 110 3
121 106 3
129 113 3
117 101 2
118 98 3
119 93 4
127 111 3
120 93 4
129 114 3
121 103 3
127 114 2
126 111 3
125 110 3
122 101 5
113 99 3
115 96 3
125 112 3
120 105 3
126 112 3
129 117 3
123 107 3
127 115 3
118 105 3
121 108 2
127 119 2
114 102 3
122 111 3
115 105 1
123 109 2
121 109 2
113 103 0
118 103 3
129 113 3
113 98 3
118 112 1
113 98 3
115 108 1
115 100 3
118 105 3
121 108 3
121 106 3
129 123 0
129 116 3
127 113 3
127 116 0
122 103 3
131 117 3
124 108 3
127 110 3
136 119 3
126 110 2
123 106 3
134 118 4
128 108 4
118 100 3
128 114 2
119 103 3
124 105 3
124 107 3
123 106 2
132 116 3
126 107 3
129 112 3
123 102 4
122 104 2
130 111 4
132 110 4
125 108 2
124 109 3
122 107 3
128 107 4
119 96 3
125 105 4
127 108 4
121 99 4
131 115 3
129 105 4
127 103 4
127 105 3
131 119 2
134 119 3
126 107 3
133 115 4
122 99 4
130 144 85
133 148 71
126 140 74
130 145 60
129 143 87
123 138 73
131 146 81
134 149 83
127 142 73
138 154 75
131 148 65
122 135 69
127 142 76
123 136 79
128 143 60
125 140 62
130 146 60
130 145 81
129 143 90
117 130 82
123 136 93
123 138 65
127 141 89
131 145 77
132 145 71
124 140 50
122 136 67
126 142 62
126 142 54
120 135 47
127 142 67
116 129 65
122 136 66
120 136 49
121 135 60
134 148 72
129 145 58
126 140 78
127 142 71
133 149 55
121 136 47
126 141 52
120 136 44
124 139 57
114 129 49
122 138 45
122 138 47
128 144 48
132 149 40
122 137 52
120 137 37
123 138 37
123 137 64
116 131 61
119 134 58
118 132 47
134 150 49
124 141 43
129 145 47
124 139 65
117 132 54
123 138 47
120 134 64
122 136 71
117 132 36
127 141 60
124 136 66
127 143 56
127 141 59
123 139 67
122 137 66
121 136 72
122 137 70
128 145 68
126 141 69
126 141 69
120 135 47
129 145 70
116 131 41
127 142 77
120 135 69
123 138 69
129 145 67
126 142 63
135 151 52
130 146 69
122 137 82
134 149 78
120 133 81
129 143 85
132 147 80
132 148 66
121 135 63
120 133 69
125 139 53
124 139 59
130 145 64
121 136 64
125 139 43
124 140 56
121 134 59
121 135 66
126 143 42
115 128 61
122 134 66
124 137 81
108 118 72
124 138 65
127 139 80
123 137 64
123 134 53
129 141 66
123 134 62
126 139 64
112 121 36
123 131 71
106 111 66
67 79 83
57 72 99
55 73 99
57 72 90
61 75 92
56 75 92
64 78 93
66 81 104
70 81 95
64 75 93
61 75 93
69 80 94
57 70 83
74 84 101
73 85 104
64 74 88
61 73 82
69 79 93
68 77 85
64 73 84
77 86 90
60 68 77
61 70 83
70 78 91
65 74 89
67 75 84
59 66 75
58 66 76
78 86 90
117 131 67
128 143 65
210 223 237
100 112 128
35 56 86
35 56 82
34 53 72
38 60 78
40 63 91
33 51 81
42 67 99
40 64 91
46 72 110
39 62 97
36 57 85
40 62 92
45 72 115
42 66 104
38 60 86
45 71 96
43 68 83
43 68 105
42 67 97
43 68 103
38 61 86
45 71 100
39 61 95
44 70 100
46 72 103
40 64 94
41 65 93
47 75 104
45 71 110
43 67 104
43 68 95
46 71 103
46 72 100
42 67 108
41 65 106
40 63 93
40 63 95
40 63 93
48 75 104
45 71 107
42 67 82
45 72 106
43 68 96
41 65 94
44 70 110
40 64 82
44 69 92
41 65 95
42 65 107
45 72 97
35 55 92
45 72 91
42 66 97
44 69 103
40 63 92
42 66 98
37 59 90
48 75 114
44 69 104
45 72 102
41 66 89
39 61 85
43 67 104
48 76 118
40 63 96
42 68 90
38 60 77
45 71 106
47 74 111
38 60 87
40 63 101
42 66 105
42 66 96
43 67 94
40 63 89
42 67 81
47 74 113
39 62 87
44 70 105
46 71 100
39 62 83
41 65 94
44 69 84
45 71 105
37 58 85
40 62 87
42 66 102
41 65 87
45 70 97
41 63 90
40 61 86
42 66 96
35 56 67
37 57 86
41 63 84
41 63 91
37 56 87
39 61 87
41 63 92
33 48 60
113 123 134
204 210 210
122 108 2
127 112 3
77 50 8
54 29 3
66 35 3
60 36 14
63 36 14
71 42 13
61 37 6
66 41 9
66 43 12
62 46 24
70 49 24
66 43 12
81 57 30
68 50 23
72 49 26
70 48 17
68 46 17
67 51 31
56 46 26
62 48 25
56 50 35
72 51 28
55 44 25
72 51 25
67 52 29
58 48 26
63 52 36
54 43 12
88 65 12
114 100 3
100 91 2
113 98 3
114 101 3
113 98 3
119 103 3
122 108 3
123 110 3
119 101 3
116 100 3
125 107 4
126 112 3
121 108 2
116 102 2
112 97 3
128 119 2
128 114 3
125 117 2
125 113 3
123 109 3
123 111 2
122 107 3
126 114 3
123 110 2
121 105 3
124 107 3
123 110 2
128 115 2
126 111 3
127 110 3
124 109 2
137 123 3
125 111 3
130 118 2
120 99 3
127 110 3
130 114 3
124 108 3
118 101 3
126 104 4
124 103 4
126 111 3
137 128 2
124 105 3
125 111 3
124 110 3
128 111 3
125 108 3
122 109 3
120 110 2
119 103 4
118 106 2
115 101 3
120 109 2
119 109 2
116 105 2
114 98 3
120 108 2
102 89 1
120 111 2
128 114 2
126 118 2
120 108 2
120 111 2
126 120 1
123 109 3
108 90 3
103 93 2
110 99 2
116 103 2
120 103 3
119 106 2
105 94 2
115 106 1
116 104 2
118 106 2
112 98 1
109 94 1
130 114 3
126 109 3
133 125 2
134 121 3
130 118 2
134 119 3
118 99 3
129 110 4
128 111 3
132 117 3
129 116 3
136 123 1
128 107 4
132 118 2
125 108 3
131 117 2
126 106 3
121 103 3
117 101 3
130 111 3
125 106 3
134 112 4
127 115 2
118 99 3
120 104 2
125 107 4
125 107 2
126 111 3
127 111 3
131 118 3
123 102 4
126 106 3
127 110 3
136 118 4
133 113 4
131 112 4
131 112 3
119 102 3
133 116 4
126 139 77
126 140 84
125 141 79
129 146 58
130 145 68
133 148 94
125 138 73
133 148 65
118 132 75
128 144 70
129 142 94
126 140 71
130 144 68
120 133 65
132 147 61
120 133 81
129 145 67
133 148 82
126 139 73
124 139 57
128 143 73
123 136 74
122 136 74
132 147 82
117 131 69
134 149 77
129 145 71
127 143 69
132 147 61
129 145 67
124 139 53
128 144 57
125 141 59
129 146 50
132 148 58
121 136 54
131 146 70
130 147 61
127 141 55
124 138 68
131 147 52
125 140 66
117 131 55
129 144 54
122 138 43
118 133 63
123 138 64
114 129 43
118 132 54
113 127 46
126 141 60
119 134 67
127 143 47
126 141 58
125 141 55
126 140 46
118 133 61
123 139 45
113 127 37
128 143 62
120 135 57
122 137 61
122 136 55
133 150 54
123 137 55
136 151 54
116 131 60
127 143 61
125 140 69
129 145 53
125 140 63
129 145 77
130 145 77
124 140 61
132 148 59
134 149 85
132 147 64
126 141 62
123 138 58
119 133 65
124 140 33
131 147 70
118 132 66
130 145 83
123 137 62
131 146 75
126 144 70
127 142 66
121 136 71
123 138 58
122 136 54
132 148 63
125 138 58
121 138 54
115 127 65
122 138 35
121 135 78
119 132 39
127 142 57
123 136 60
136 152 70
121 136 64
118 133 32
119 132 59
119 132 77
115 127 54
111 120 78
118 132 71
123 137 65
117 128 68
111 117 80
113 125 78
107 115 71
111 124 65
120 130 62
101 106 47
106 113 77
86 93 71
58 70 76
50 65 79
63 76 93
54 72 82
56 71 74
54 66 71
64 79 92
53 64 76
55 67 77
62 78 93
69 82 103
71 83 100
63 74 90
66 78 88
82 92 103
76 85 96
63 73 80
58 66 74
69 77 84
65 76 93
70 77 87
59 68 80
66 75 90
68 76 82
61 67 71
58 65 72
69 77 79
97 108 82
125 138 90
123 136 86
223 236 253
162 173 187
35 54 65
37 58 75
36 57 88
40 62 89
32 51 60
34 53 91
38 60 85
41 65 91
40 62 90
40 63 96
38 61 95
45 71 108
40 64 97
45 71 102
43 68 83
46 73 107
44 70 105
40 63 82
43 67 111
47 75 106
41 66 95
41 65 91
46 72 114
41 65 96
43 68 110
40 63 87
42 67 99
41 65 108
42 67 91
41 65 90
45 71 100
37 59 92
42 68 95
45 71 95
44 70 103
42 67 101
43 68 104
50 80 115
44 69 105
43 67 91
44 69 102
46 71 108
38 60 87
45 71 110
45 70 104
47 75 108
48 76 119
44 70 106
47 73 113
43 69 109
45 71 104
42 66 97
39 62 94
38 60 87
45 72 102
44 69 100
44 70 96
44 68 98
36 58 86
40 63 98
44 70 97
46 72 101
40 64 94
45 72 89
42 67 87
45 71 98
46 72 101
45 71 108
49 78 121
44 70 109
39 62 91
42 67 85
47 74 116
43 66 98
40 62 92
38 59 77
41 65 92
41 64 94
45 70 106
39 61 82
44 70 103
39 61 85
49 77 118
48 76 102
37 58 93
40 63 91
43 67 94
40 61 77
42 66 101
39 61 98
42 64 86
42 65 87
41 64 91
47 73 110
41 61 78
41 64 72
36 56 85
42 64 80
42 65 96
33 50 61
154 165 176
222 235 253
128 108 3
122 106 3
104 90 16
78 44 4
56 32 12
57 32 4
61 32 7
65 39 6
68 44 14
63 43 18
62 40 20
67 44 21
68 51 27
72 46 13
73 49 28
68 40 9
55 41 24
52 37 21
44 44 32
56 43 27
72 50 28
71 51 19
59 45 27
57 45 24
62 49 27
58 47 33
63 55 43
62 53 33
65 49 26
62 50 33
95 78 20
103 86 2
110 89 4
107 90 3
112 94 3
109 99 2
123 107 3
121 105 4
113 95 4
121 110 2
120 104 3
120 109 2
131 114 3
120 102 3
119 104 3
124 112 2
123 106 3
113 98 3
117 104 2
110 99 1
115 97 3
124 110 3
126 117 1
120 105 3
127 110 3
133 114 4
127 114 2
127 113 3
130 114 4
125 113 2
132 118 3
121 107 3
126 111 3
127 112 3
125 107 3
134 116 3
123 105 3
123 112 2
119 103 3
121 102 3
121 106 3
123 107 3
126 115 2
121 105 3
128 113 2
121 107 2
130 109 4
119 100 3
122 105 3
127 113 3
131 125 1
122 111 3
118 105 2
118 104 3
124 112 3
116 97 4
125 114 2
103 93 1
113 105 2
116 105 3
117 108 2
122 112 2
117 106 1
117 102 3
124 114 2
120 108 2
110 99 2
115 102 3
122 113 1
113 102 1
120 104 2
120 110 2
120 107 3
124 112 2
107 96 2
128 117 2
114 98 3
117 102 3
120 108 1
128 115 2
129 116 2
128 110 3
120 100 3
127 106 4
126 109 3
123 111 2
126 111 3
133 118 4
117 104 2
130 110 4
127 112 2
137 119 4
125 111 3
124 110 1
126 106 3
116 94 3
125 106 3
126 110 3
125 107 2
132 116 3
120 95 4
123 103 4
118 98 4
124 105 3
129 108 4
121 103 3
127 106 4
131 111 4
123 103 4
129 114 3
124 106 3
130 117 2
124 107 3
139 127 3
125 107 3
130 114 3
128 108 4
123 107 3
124 139 72
133 149 78
120 133 82
137 154 84
125 139 63
132 149 61
124 139 64
129 143 70
129 143 82
119 133 82
127 141 93
120 133 70
136 151 79
128 143 80
127 140 90
128 145 63
124 139 68
127 141 87
129 143 76
124 138 67
121 134 77
128 143 62
120 135 69
128 143 75
128 142 80
124 140 59
124 139 64
127 142 60
116 129 51
117 133 27
117 132 64
132 147 67
116 129 61
126 142 60
115 129 53
125 141 67
129 146 39
122 135 75
124 139 51
122 137 50
129 143 58
120 134 53
124 138 65
125 141 49
125 140 37
129 146 47
110 125 45
126 141 59
122 137 50
121 136 52
122 135 46
103 116 49
121 136 60
124 140 49
121 136 61
122 137 49
116 130 66
122 136 67
119 134 48
128 143 65
119 133 55
121 136 49
119 134 45
118 133 55
124 140 53
119 134 51
122 138 72
125 140 62
127 141 87
128 145 57
131 146 74
124 138 65
131 148 74
119 133 74
127 141 66
126 140 67
128 145 60
124 138 66
121 136 71
114 129 77
124 139 71
123 139 70
114 128 66
127 142 70
130 146 59
118 132 63
124 139 66
126 140 79
129 144 81
130 144 79
118 133 55
117 130 78
123 137 64
122 138 70
122 136 74
123 140 64
127 141 60
115 128 79
120 134 62
126 141 47
117 131 56
126 140 57
116 127 52
118 131 58
122 136 69
116 130 53
118 130 75
132 148 77
118 133 57
117 131 44
121 132 61
117 125 65
116 127 57
120 131 84
106 117 75
116 126 68
108 117 63
110 119 55
56 73 91
60 77 107
55 69 82
63 78 96
48 63 69
56 69 84
52 69 80
61 72 82
76 89 102
62 73 84
66 82 98
66 78 88
68 77 86
71 81 89
64 73 82
64 76 85
62 72 80
69 78 85
60 70 78
71 79 83
73 82 85
65 73 78
54 63 68
69 78 85
50 59 61
60 67 73
75 85 89
114 127 79
133 147 77
141 154 117
218 231 240
155 168 171
30 48 43
37 60 77
42 66 110
29 47 66
40 63 83
43 69 104
39 62 86
42 66 95
41 65 80
38 60 79
44 69 110
43 68 94
41 65 91
36 57 86
38 60 88
44 69 99
43 67 98
43 68 103
45 71 97
45 71 108
42 66 98
45 71 103
39 61 90
38 60 76
42 66 97
43 68 96
40 63 99
40 62 97
42 67 95
44 69 97
42 67 95
40 63 89
42 66 91
37 59 85
47 74 117
37 58 88
48 75 113
42 66 100
48 75 118
44 69 105
43 68 98
42 66 97
44 70 109
46 73 113
44 69 100
45 72 94
43 68 94
50 78 125
47 74 107
40 62 79
44 70 101
39 61 94
42 66 96
43 67 101
46 73 119
43 69 94
47 74 106
44 69 99
37 58 85
41 65 90
47 73 108
38 60 78
43 68 98
45 70 93
41 63 91
43 68 97
48 75 109
43 69 102
46 72 107
41 64 91
41 65 111
42 65 88
40 63 96
44 69 106
45 72 111
49 76 110
44 69 102
43 68 98
45 70 105
44 70 92
43 68 101
40 63 102
42 66 82
40 64 84
39 62 92
45 71 108
42 65 90
40 61 83
39 60 95
42 63 101
45 69 97
44 68 98
40 63 92
44 68 76
40 61 66
36 54 63
43 66 93
37 58 85
40 59 71
34 48 49
168 179 185
209 223 220
140 132 72
122 108 3
123 110 2
64 44 14
52 26 5
56 29 1
66 37 12
73 44 20
63 39 11
68 41 18
54 35 21
61 44 22
64 43 23
58 40 20
64 43 15
68 47 18
76 52 24
58 41 21
68 46 19
71 46 18
64 46 27
70 50 21
64 46 26
67 47 24
64 46 29
49 48 35
44 38 24
65 46 13
58 51 35
62 47 29
100 86 3
119 106 3
117 101 2
121 105 3
109 93 2
113 98 2
119 106 3
114 99 3
110 91 4
113 99 3
117 98 3
116 95 3
121 110 2
122 102 4
123 112 2
117 102 3
119 105 2
114 103 2
125 110 3
120 110 2
131 118 3
124 112 2
130 116 2
125 114 2
133 123 2
118 103 3
126 109 3
125 110 3
122 105 3
127 108 4
121 104 3
126 113 3
118 99 3
122 105 4
117 95 3
127 108 4
127 109 3
120 98 3
133 121 2
119 104 2
133 118 3
133 114 4
124 106 3
120 103 3
128 110 4
126 111 3
128 109 4
134 118 4
124 107 2
125 103 4
127 114 2
126 110 3
123 114 2
121 108 3
113 99 3
117 109 0
119 109 2
112 100 3
112 100 3
108 92 3
117 108 2
133 121 3
122 114 1
122 113 2
106 95 1
128 116 3
110 103 2
115 106 2
124 114 2
114 100 3
115 104 2
117 102 2
116 106 2
130 116 2
120 105 1
124 110 2
130 115 2
126 115 2
126 112 2
123 106 3
126 105 4
118 102 3
130 114 3
120 103 3
117 100 3
117 101 3
119 95 4
123 104 3
132 113 4
128 110 4
133 114 3
126 111 3
120 99 2
125 105 4
134 115 4
132 112 4
123 103 3
127 112 3
129 113 3
123 103 4
130 110 3
124 103 4
117 100 3
127 108 4
120 97 3
129 113 3
124 105 3
127 107 4
122 100 3
119 94 4
120 103 4
126 105 4
122 102 4
125 103 3
125 108 3
130 114 3
122 107 3
124 102 4
123 138 71
132 148 72
120 133 70
125 139 74
121 135 81
138 153 67
127 141 76
128 143 86
125 139 71
131 145 84
126 141 76
132 147 80
128 143 87
125 137 89
125 139 85
115 129 72
130 146 65
131 146 77
133 148 69
127 139 97
125 139 72
124 137 83
128 143 74
132 146 91
124 138 86
127 143 67
120 136 48
120 133 60
130 145 64
130 145 66
116 130 65
123 138 57
123 138 65
115 128 56
125 139 49
121 135 47
126 139 69
128 143 48
128 145 54
126 141 63
127 142 61
124 139 57
124 138 61
113 127 40
119 134 52
116 130 53
116 131 43
123 137 63
122 138 55
123 138 74
113 127 36
123 139 55
126 140 63
113 129 53
126 142 44
122 138 56
121 135 41
118 131 70
119 134 51
120 134 61
120 133 52
123 141 50
112 127 44
115 130 57
125 138 78
125 141 73
129 146 65
129 145 66
125 142 56
126 140 57
124 140 76
132 149 75
129 145 72
125 139 87
124 139 71
125 140 69
131 150 53
116 130 63
116 130 59
121 135 59
127 143 77
127 142 73
130 146 59
122 135 81
130 146 83
126 140 80
120 133 68
127 142 68
128 145 75
120 133 82
120 134 64
119 132 72
122 138 73
120 135 66
130 146 63
125 140 62
131 146 65
118 131 65
122 137 63
129 144 72
115 128 65
126 142 68
122 136 67
121 135 78
126 140 68
118 131 65
115 128 59
128 142 73
119 133 66
106 118 65
123 136 57
108 117 76
123 136 62
111 121 81
110 122 72
107 116 57
100 109 84
114 126 65
83 88 64
60 73 76
59 73 86
48 60 76
67 81 85
58 72 79
69 80 82
71 82 87
60 73 75
50 63 71
66 76 84
68 82 95
68 79 92
67 79 78
54 66 67
64 75 70
72 81 92
60 70 66
65 79 89
51 61 63
54 61 63
53 63 66
58 68 71
42 50 49
67 73 76
63 72 73
100 111 66
110 122 60
126 141 53
140 157 41
163 186 0
160 180 6
31 50 75
33 52 62
32 50 70
40 64 96
37 59 82
42 66 97
35 56 78
41 66 91
40 63 87
43 69 102
40 63 82
39 62 84
35 56 76
39 62 80
46 72 107
44 70 100
46 72 109
46 72 107
43 68 104
43 66 106
45 70 104
38 61 81
36 57 80
45 71 115
41 66 101
44 70 100
39 61 84
44 69 104
43 67 100
40 63 93
45 70 94
44 69 85
44 70 104
45 72 115
45 72 99
43 67 100
46 72 107
44 68 102
40 63 93
39 61 91
46 72 89
43 68 100
38 60 88
43 67 100
43 68 90
42 66 84
43 69 77
41 65 99
44 70 104
48 75 123
42 67 106
40 63 90
44 69 103
45 70 98
43 68 109
44 70 92
40 63 85
40 64 88
45 70 107
42 67 94
43 69 107
44 69 107
45 71 96
42 66 88
45 71 105
44 68 107
39 61 89
45 71 97
44 69 109
42 65 101
45 70 105
39 62 97
40 62 100
37 60 86
40 62 93
43 68 94
37 59 70
46 73 117
42 66 101
44 68 97
43 68 88
42 67 84
44 69 98
39 61 80
40 61 86
44 68 107
41 64 75
45 68 93
36 56 85
37 57 86
39 60 81
39 60 71
39 60 78
43 65 83
36 56 84
35 52 61
41 62 83
39 58 71
34 50 71
33 48 54
148 169 25
165 187 0
155 167 0
115 101 0
110 95 1
92 77 4
64 37 13
63 32 12
55 30 7
71 42 17
66 40 6
51 31 7
57 43 7
67 44 21
57 40 18
61 39 9
61 42 19
66 48 20
71 48 22
66 43 13
65 49 21
75 51 28
61 44 23
66 51 18
58 51 32
62 51 33
62 45 21
64 52 31
58 46 26
51 39 20
47 45 29
84 69 31
109 94 2
110 98 2
103 84 3
107 96 3
111 94 3
116 101 3
108 91 3
122 104 4
119 103 3
117 99 3
120 111 2
123 102 4
116 100 3
111 94 3
133 121 3
119 104 2
111 99 1
123 111 3
119 109 1
119 106 2
126 114 2
116 99 3
124 111 2
112 99 1
122 112 2
114 96 3
126 114 3
126 113 2
129 115 3
120 105 3
128 111 4
133 121 3
124 107 3
122 107 3
115 101 2
121 105 3
126 108 3
116 97 3
123 108 2
131 113 3
124 104 4
128 111 4
130 110 4
126 105 4
125 110 3
124 105 4
129 113 3
127 113 3
123 103 3
126 109 3
121 104 2
133 115 3
130 115 3
129 112 3
111 98 2
115 101 3
131 121 2
109 96 2
115 107 2
109 92 3
104 94 1
115 106 2
119 108 2
114 101 2
118 109 0
135 127 2
112 104 2
114 100 3
119 107 2
114 98 3
125 114 2
110 90 2
120 105 2
120 105 2
119 106 3
113 98 2
126 106 4
120 105 2
129 112 3
114 96 2
134 120 3
130 111 4
133 121 2
115 96 3
120 107 2
123 107 3
124 109 3
126 108 3
127 114 2
124 109 1
127 114 2
125 109 3
123 107 3
131 110 4
129 113 3
132 117 3
126 111 3
116 99 2
127 108 4
133 113 4
129 113 3
127 109 4
122 102 4
128 109 5
122 103 3
124 106 3
133 118 3
122 104 3
127 112 2
125 101 4
124 107 4
133 117 4
128 105 4
128 114 3
124 102 4
130 112 4
124 104 3
121 104 3
133 149 71
127 142 73
133 147 78
136 153 78
125 139 71
129 144 75
125 138 95
130 145 70
128 142 86
128 143 77
133 148 73
131 144 75
128 143 82
131 146 83
128 142 97
121 135 82
123 137 67
126 140 75
124 138 76
129 143 87
120 134 69
117 131 74
123 137 77
128 142 78
127 142 78
131 146 77
133 149 70
129 145 58
127 142 67
124 139 53
118 132 61
123 139 58
119 133 62
130 146 46
127 143 72
117 131 63
126 141 61
131 146 70
124 139 56
117 129 69
122 136 73
129 143 75
128 143 70
122 137 48
116 129 73
125 141 50
118 134 49
129 146 59
124 139 64
124 138 88
120 134 67
122 137 50
119 135 54
121 137 37
118 132 63
123 137 65
114 128 67
128 143 61
118 133 62
123 137 68
121 135 80
127 143 69
127 142 62
126 141 69
127 143 56
127 143 76
132 146 67
125 139 83
121 135 68
126 142 67
119 134 58
130 145 70
132 148 78
129 145 68
129 144 57
122 135 76
131 147 58
125 143 51
121 136 68
123 137 48
124 139 79
125 139 61
123 134 88
120 135 65
121 137 73
129 145 76
125 140 75
127 141 65
119 134 71
123 136 72
125 140 69
117 132 65
124 140 64
116 131 58
126 141 66
121 135 77
126 139 76
127 141 78
120 134 58
116 128 65
123 140 60
113 125 64
112 125 44
121 135 70
118 131 68
108 120 58
111 123 76
134 150 70
106 117 67
110 119 71
123 137 73
114 127 71
112 124 61
106 117 63
105 116 52
112 126 43
103 115 57
108 119 51
99 109 45
49 59 48
56 71 66
42 58 74
50 65 65
62 75 73
61 73 59
59 71 68
55 68 72
68 81 79
58 71 56
54 63 57
50 62 67
43 55 50
67 80 79
57 67 66
50 60 42
56 67 62
53 64 59
58 68 55
50 57 61
51 60 55
51 62 71
51 59 54
61 69 65
73 85 68
109 122 70
107 121 54
120 133 55
156 176 23
160 181 0
166 189 0
64 80 66
33 53 72
36 58 79
39 60 86
38 59 89
44 69 109
40 62 90
36 57 84
37 58 78
40 63 90
38 61 80
41 65 77
42 67 93
39 62 91
40 63 74
41 66 103
41 64 97
40 64 92
41 65 89
44 70 99
43 67 89
41 66 102
44 70 105
46 72 103
39 61 89
45 70 105
39 62 87
45 71 97
39 63 88
45 70 99
42 66 98
43 68 97
43 68 97
42 67 107
41 64 99
45 71 104
41 65 99
41 64 97
39 61 90
46 72 104
42 67 95
41 64 94
39 61 90
44 70 104
39 62 79
46 73 108
46 72 103
43 69 102
46 72 100
45 70 102
32 51 66
38 60 97
38 61 86
43 67 91
42 65 97
45 70 106
44 70 101
49 76 110
46 73 99
50 78 113
45 71 96
43 67 83
44 70 91
36 57 76
39 61 83
43 69 93
39 61 96
35 56 85
42 65 92
45 71 107
47 72 114
47 73 96
42 66 86
46 71 99
40 64 87
50 78 119
44 69 103
43 68 102
38 59 96
39 61 92
40 63 93
39 61 80
40 62 77
41 64 101
41 64 83
43 66 97
41 64 94
41 64 92
37 60 76
36 55 65
43 67 106
36 54 71
47 73 109
32 49 57
43 67 89
38 60 83
37 57 56
39 58 83
35 51 63
69 85 49
165 187 0
156 177 0
155 171 0
132 119 1
119 108 1
113 100 1
65 51 5
52 30 2
56 34 10
59 34 4
58 35 11
47 31 13
50 35 20
52 39 21
56 37 12
54 36 13
65 42 4
56 45 26
64 44 24
60 43 20
62 48 22
45 37 21
58 44 14
59 48 26
52 44 26
49 43 24
53 45 21
67 52 23
62 44 13
46 39 23
59 52 26
107 92 3
91 81 1
112 100 2
107 91 2
105 90 1
103 87 2
107 90 3
99 83 2
114 95 3
112 97 3
116 98 3
123 108 3
117 103 2
118 102 3
113 96 3
123 108 3
118 106 2
113 100 2
121 107 3
129 114 3
114 95 3
121 110 2
132 118 3
115 97 3
121 103 3
117 102 2
127 111 2
124 106 4
134 118 4
124 116 2
123 107 3
120 114 0
114 97 3
118 99 4
122 107 3
121 99 4
128 111 4
125 113 2
130 113 3
125 110 3
120 101 4
121 104 3
123 106 3
118 97 3
125 109 2
120 102 3
128 109 4
118 104 2
127 110 3
117 92 3
121 106 3
119 100 2
130 112 4
123 110 2
131 117 3
135 123 3
124 111 1
133 119 3
124 116 1
123 105 4
116 103 2
120 105 3
109 97 2
122 110 3
122 106 3
119 104 3
112 98 3
119 110 1
129 118 2
118 100 3
117 101 2
122 108 2
123 111 3
115 101 3
125 113 2
117 103 2
123 102 4
129 112 4
124 111 2
128 113 2
130 116 2
128 112 3
115 97 3
115 98 2
123 106 3
119 104 3
124 108 3
123 104 3
118 106 2
129 110 3
124 108 3
136 117 3
128 113 3
124 102 4
124 104 4
118 100 3
123 105 4
124 105 4
126 109 3
123 107 3
123 98 3
129 111 4
128 113 3
135 115 3
132 117 3
122 101 3
121 103 3
133 117 4
119 94 4
128 108 4
126 113 3
118 100 3
128 112 3
125 109 3
132 114 4
125 108 3
127 109 3
132 113 4
127 110 4
129 146 67
122 136 77
128 142 84
124 138 85
127 141 86
129 143 70
134 149 83
122 137 60
128 143 84
121 134 88
132 146 90
126 140 88
123 137 76
126 142 68
120 133 80
127 141 94
121 135 69
116 130 65
124 139 72
131 144 90
121 135 80
123 136 77
125 140 82
122 136 68
127 140 74
128 143 76
136 152 73
130 146 49
129 146 62
126 141 71
125 139 83
127 143 47
130 146 43
117 129 64
125 140 68
121 136 50
115 128 70
128 144 57
121 135 37
123 138 26
131 145 53
124 138 60
129 144 77
125 140 63
122 137 52
124 139 61
130 146 49
124 140 36
115 130 58
125 139 66
125 141 54
118 132 69
127 144 54
131 148 67
131 147 65
127 141 77
120 135 66
129 145 57
133 149 76
126 142 65
122 137 69
123 138 72
121 135 59
132 149 45
128 143 66
124 138 69
120 134 71
125 140 63
129 145 62
125 139 72
126 141 73
123 138 67
125 140 69
125 140 74
130 146 63
120 133 75
120 136 78
125 142 58
123 139 67
124 137 77
129 145 65
121 137 64
130 147 70
130 145 88
129 145 73
123 138 75
116 128 76
113 127 66
129 144 81
122 137 63
128 143 76
124 140 83
123 138 66
120 136 56
117 132 55
116 130 66
123 135 23
110 125 61
123 137 58
113 127 47
116 131 60
118 132 46
116 131 50
117 132 39
117 134 45
107 122 51
114 127 40
110 122 52
103 118 45
105 116 42
117 131 39
101 115 56
100 113 46
109 117 35
94 107 38
106 118 50
105 119 47
96 105 39
88 98 29
75 87 45
54 65 57
51 64 48
56 71 73
61 73 71
58 73 69
62 73 73
61 76 73
63 76 73
55 67 58
57 69 61
54 67 70
57 71 51
55 67 73
61 75 71
61 70 56
57 67 61
58 68 58
57 66 71
58 67 55
51 60 56
68 78 83
62 72 79
65 74 82
98 111 69
116 130 50
120 134 43
130 146 54
164 187 0
157 177 0
161 183 0
100 117 56
35 57 84
37 59 88
39 61 83
44 69 93
39 61 97
36 57 83
43 67 89
42 66 98
40 64 78
41 65 93
47 74 105
44 69 78
37 59 87
45 69 110
45 71 108
39 62 83
44 68 113
44 70 100
40 64 87
43 69 95
42 66 97
43 68 98
43 68 100
47 75 102
47 74 115
45 72 97
38 61 83
49 76 117
50 79 113
43 67 100
39 61 89
42 66 100
47 75 105
42 67 95
46 71 107
46 73 103
40 64 82
41 65 95
42 67 96
40 63 102
44 68 99
37 59 77
49 77 107
44 69 94
45 72 104
47 74 107
43 68 107
44 69 101
43 68 90
45 71 101
44 70 105
43 69 98
43 67 95
39 61 97
42 68 84
43 69 90
45 71 104
41 64 93
35 56 77
45 72 99
40 63 84
45 70 108
47 72 108
41 64 97
44 69 101
47 74 111
45 71 107
47 72 111
40 62 96
42 64 101
45 71 101
48 75 106
43 69 106
41 65 98
46 72 108
37 59 75
44 67 94
39 61 86
40 64 90
44 68 108
41 64 95
47 73 104
43 67 96
39 62 86
40 63 91
43 65 83
41 65 94
44 69 103
37 57 78
43 67 88
39 61 90
47 72 104
38 58 68
45 70 98
41 64 90
36 55 75
34 52 67
38 59 82
107 123 28
157 178 0
170 193 0
163 185 0
132 124 1
115 103 0
115 103 0
106 94 11
49 30 17
55 28 5
52 32 7
66 39 5
61 42 18
73 44 8
58 41 23
67 48 28
58 43 24
55 41 20
60 43 14
50 41 5
60 47 29
59 42 22
56 46 26
53 38 14
57 42 20
57 45 26
63 47 20
58 46 20
52 46 31
51 44 23
49 44 35
84 72 17
90 75 1
107 92 0
106 92 1
101 87 1
99 87 0
98 81 1
106 96 0
110 94 0
115 103 0
110 98 0
115 101 1
118 109 1
113 104 0
114 100 1
123 113 1
107 95 1
117 110 1
109 90 1
109 92 2
118 104 2
122 108 2
120 110 2
115 102 2
113 102 2
124 116 2
120 111 1
117 103 3
127 115 2
114 100 3
124 110 3
123 105 3
126 110 3
117 100 3
108 89 3
117 96 4
131 110 5
123 100 5
118 99 3
121 105 3
131 116 2
123 110 2
123 104 3
128 110 3
123 103 4
122 102 4
130 109 4
125 111 3
126 101 4
125 105 4
127 111 3
128 113 3
116 99 3
120 100 3
125 108 3
130 110 4
126 112 2
125 110 3
118 106 1
123 112 2
120 105 2
119 104 2
119 106 2
115 98 3
122 105 2
125 112 2
123 108 2
121 107 2
108 89 3
124 110 3
116 101 3
125 114 2
115 99 2
117 106 2
125 115 2
124 104 4
127 112 2
125 112 3
121 105 2
130 115 3
124 108 3
115 97 3
125 112 2
116 103 2
113 91 3
123 106 3
113 94 3
120 100 4
128 113 3
124 108 3
124 104 3
128 111 3
121 102 3
124 103 4
122 92 5
126 109 2
131 119 3
126 109 3
131 114 3
136 120 4
124 110 2
123 99 4
133 111 5
128 105 4
116 94 3
123 110 3
123 103 3
127 106 4
119 101 3
130 115 4
134 116 4
137 120 4
130 118 3
127 101 5
127 106 4
127 109 3
123 101 4
119 101 4
127 117 1
131 117 3
123 137 69
119 132 76
120 133 80
122 137 66
135 149 103
129 143 79
120 133 88
127 140 81
126 142 70
125 141 84
125 139 86
131 145 91
123 138 79
127 141 81
130 145 81
123 138 70
126 142 71
125 140 69
129 142 86
127 143 72
134 150 65
127 143 76
127 142 75
125 140 74
120 134 83
127 141 93
135 150 74
131 146 84
121 136 60
123 137 68
119 132 76
119 134 55
128 143 66
122 136 76
122 137 54
119 133 57
125 142 48
118 133 60
122 139 32
115 129 65
121 137 47
118 132 39
128 143 51
127 144 63
129 145 50
127 142 54
127 142 70
127 142 63
117 130 56
117 132 76
120 136 58
125 141 52
118 132 53
124 138 62
124 138 67
129 144 56
123 138 64
121 135 71
122 137 74
119 134 64
124 139 64
122 137 72
123 138 61
123 138 64
122 138 57
125 141 67
119 133 71
126 142 57
123 138 53
123 139 65
126 141 63
118 132 76
122 138 49
121 137 59
113 127 69
126 141 64
128 143 70
130 145 73
132 146 66
125 139 60
128 143 78
128 143 75
118 132 60
125 141 59
122 138 66
125 141 59
110 125 65
116 131 62
122 137 45
131 148 58
112 126 46
116 131 46
116 131 42
119 136 47
121 136 25
114 129 38
108 122 48
112 126 59
109 123 41
112 126 24
117 133 39
115 130 32
111 125 54
119 136 31
119 133 46
111 126 57
110 122 38
109 123 43
108 122 55
107 122 40
116 130 51
105 119 45
105 117 20
102 115 41
109 124 30
99 109 52
93 103 30
92 104 45
96 107 36
89 99 51
65 75 51
53 68 61
52 68 54
53 67 53
56 69 73
56 70 78
58 70 80
52 66 61
57 70 65
63 78 92
48 62 66
55 65 63
62 74 61
58 70 69
63 74 59
62 72 73
47 57 55
55 66 70
62 75 82
57 65 70
53 64 59
52 61 65
101 113 76
116 130 68
128 144 55
109 122 43
143 161 43
167 188 0
164 185 0
162 183 0
130 148 44
29 46 64
41 65 96
42 66 100
35 56 82
41 64 89
38 60 74
49 77 118
40 63 98
35 54 83
38 60 81
41 65 88
34 54 80
38 60 85
42 67 89
43 67 94
42 67 96
42 66 98
39 62 92
46 72 111
43 67 99
47 75 109
43 67 97
47 74 99
45 70 102
41 66 79
41 65 101
41 66 95
44 70 93
41 64 89
41 65 94
43 68 99
42 66 82
53 84 127
39 62 95
42 67 100
41 64 107
43 67 98
43 68 104
38 61 81
45 72 110
42 66 93
45 71 105
36 57 78
40 64 73
47 72 104
45 71 104
41 65 91
44 69 111
49 77 109
41 65 83
47 72 116
36 58 74
47 74 104
42 67 97
42 66 108
37 58 73
40 63 88
49 77 113
42 67 91
40 63 85
46 72 100
40 63 83
39 62 88
38 60 79
41 64 85
39 61 86
45 70 109
43 67 90
43 67 96
39 62 99
39 62 87
44 69 91
42 66 103
43 69 92
43 66 88
42 66 90
42 66 93
46 71 109
43 68 84
43 67 92
44 68 97
33 52 73
38 60 79
38 58 84
41 64 90
38 58 71
46 71 94
33 50 69
38 59 81
42 65 96
40 62 90
40 62 92
38 58 82
41 63 77
40 62 85
28 43 53
36 53 78
32 48 45
126 142 18
163 184 0
164 187 0
165 186 0
146 153 0
118 103 0
118 106 1
126 108 2
94 77 4
54 35 20
57 31 6
57 35 4
62 38 7
59 34 5
45 34 8
43 37 20
63 47 5
60 40 5
51 41 21
61 41 18
59 44 17
54 39 22
66 43 12
52 42 18
58 43 16
62 49 20
61 46 28
56 43 20
54 38 17
62 47 23
65 54 17
102 89 1
101 92 0
105 97 0
107 93 0
108 92 1
116 102 1
112 99 1
95 78 0
114 103 1
107 98 1
116 103 0
101 90 0
116 108 1
121 111 1
104 89 1
105 89 1
119 110 0
101 92 0
118 109 0
114 101 0
110 97 1
117 101 0
119 109 0
119 108 0
125 115 0
116 107 1
116 104 0
116 103 0
115 104 1
116 103 2
120 107 0
123 114 1
118 105 1
115 102 2
121 105 3
120 104 2
114 104 1
126 110 3
130 114 3
127 107 3
117 107 2
126 107 4
125 107 4
124 105 4
119 103 2
124 104 3
118 100 4
118 90 4
122 106 3
124 109 3
119 106 2
115 99 2
121 105 3
123 109 3
117 99 4
121 101 4
124 110 2
122 107 3
116 98 3
113 98 2
119 104 3
124 111 2
128 112 3
127 111 3
126 111 3
121 100 3
122 107 3
118 105 2
121 106 3
116 103 2
116 106 1
122 107 2
126 105 4
113 93 3
122 109 2
124 106 4
126 109 3
129 113 4
118 103 2
119 97 3
126 111 3
122 104 3
116 99 3
123 107 3
129 113 4
127 110 3
130 115 3
118 97 4
126 113 2
115 105 1
121 106 2
123 107 3
131 110 4
124 107 3
130 108 4
122 101 4
127 104 5
121 102 3
128 112 4
119 106 3
132 114 4
129 109 3
132 116 3
130 107 5
126 113 3
130 114 4
127 104 4
127 104 5
132 114 4
131 114 3
126 108 3
126 108 4
134 114 4
128 109 4
118 104 2
127 107 4
125 108 4
130 112 4
122 106 3
129 114 3
118 133 71
123 137 79
128 141 85
126 142 59
119 134 59
122 136 78
126 141 71
127 141 77
137 153 72
123 138 85
132 149 69
133 149 75
130 145 79
115 127 83
129 143 69
124 138 71
120 134 79
134 150 78
129 144 72
123 137 87
125 138 83
123 139 71
125 140 66
122 136 78
119 133 67
129 143 81
126 140 89
123 137 69
126 140 86
129 143 78
124 140 55
125 140 53
120 133 61
124 140 47
125 138 71
125 140 56
125 139 60
129 145 50
125 140 60
124 138 55
129 145 54
115 129 61
136 154 55
124 139 71
123 139 63
131 147 62
128 143 72
127 141 73
122 138 53
117 132 57
124 140 68
118 132 77
120 135 63
122 136 53
124 139 67
118 134 67
117 130 76
117 131 69
125 141 74
115 129 60
131 148 55
119 132 74
127 143 49
117 132 73
130 146 60
124 141 47
121 136 59
130 146 65
122 137 56
120 134 56
132 148 63
115 132 58
120 135 50
119 136 54
121 138 46
114 129 58
125 141 32
118 132 55
127 144 28
122 139 47
122 139 46
113 126 60
123 139 54
123 140 57
112 126 32
124 139 51
118 134 39
114 129 51
111 127 58
112 126 56
118 133 45
122 139 58
114 130 53
110 123 36
105 119 38
116 131 52
115 131 31
106 118 46
110 124 23
106 119 50
107 119 34
114 130 47
112 125 50
108 122 39
114 128 20
115 133 34
107 120 37
103 117 49
114 129 60
106 120 26
113 127 53
105 118 51
110 125 54
108 121 41
94 105 20
113 127 40
80 89 41
92 104 41
103 114 25
91 101 36
80 89 39
69 81 56
55 73 83
55 67 53
58 72 75
54 67 48
62 74 63
58 69 60
50 62 66
59 73 65
52 66 69
42 55 69
62 73 73
48 60 52
59 70 63
54 64 61
64 75 74
71 81 71
58 66 69
50 61 53
53 64 64
86 98 39
107 120 73
114 127 66
122 138 49
112 126 50
157 177 13
154 174 0
165 187 0
167 189 0
158 180 22
51 69 74
37 58 87
31 50 66
30 47 61
36 58 72
36 57 84
40 62 89
33 53 63
39 61 86
44 69 103
44 69 110
41 65 101
41 65 85
43 68 108
40 63 94
36 57 73
40 62 90
42 65 86
46 72 107
46 73 92
41 66 75
46 73 108
39 62 82
40 63 98
45 71 98
42 65 93
38 60 91
43 67 94
40 63 88
44 68 105
40 63 93
48 75 111
42 67 100
40 62 84
36 57 83
48 75 110
47 73 110
41 66 80
39 61 91
39 61 90
44 69 104
43 67 93
39 62 69
41 65 89
42 66 97
43 67 105
44 69 111
43 68 101
43 69 92
40 62 90
44 67 109
47 74 96
42 66 109
42 66 102
45 71 100
38 61 87
44 70 100
44 70 90
41 66 101
47 74 111
47 74 107
47 72 106
44 69 105
43 66 95
42 67 90
45 71 99
45 70 110
38 60 72
38 61 95
47 72 103
37 58 78
44 70 95
45 70 91
43 68 105
40 64 83
48 77 93
44 69 101
42 65 75
45 70 100
44 68 96
48 75 111
40 62 80
41 62 93
37 58 60
48 76 111
44 69 94
42 65 92
36 56 74
43 67 113
39 59 78
40 61 85
39 60 81
38 58 84
41 62 85
34 52 66
40 62 83
42 64 76
44 54 33
155 177 0
170 193 0
163 184 0
161 182 0
160 180 0
120 105 1
119 102 1
119 103 1
126 113 1
84 67 13
54 32 5
53 31 10
52 36 17
48 33 17
59 36 3
57 38 13
64 46 21
68 45 18
57 44 23
55 42 26
55 39 23
55 41 19
36 30 6
53 44 26
59 42 23
65 48 23
54 40 18
55 42 26
63 51 30
70 59 30
85 75 0
80 68 1
95 82 1
98 85 0
96 84 0
96 84 0
101 92 0
104 92 1
98 83 1
111 97 0
108 94 1
106 89 1
101 91 0
104 92 0
115 102 0
115 105 1
100 88 1
119 106 1
113 100 0
102 92 0
101 89 0
113 103 0
112 103 1
115 104 1
115 105 0
110 95 0
121 112 0
111 99 1
118 109 0
121 108 0
111 100 1
113 97 1
118 111 1
113 104 1
108 98 0
112 101 1
117 105 1
117 98 1
117 101 1
115 100 0
108 94 1
115 101 1
129 113 1
124 109 1
115 96 2
119 102 3
125 114 1
129 115 2
122 103 3
119 108 1
111 98 1
130 110 4
119 104 3
115 100 1
130 112 3
123 104 3
124 113 1
123 104 4
114 101 2
123 110 2
118 99 3
119 104 2
118 103 3
120 104 2
120 104 3
121 106 2
124 110 2
124 111 3
124 111 3
122 108 2
114 95 2
126 111 3
116 91 4
126 110 3
117 98 3
126 106 3
124 105 4
128 109 3
130 116 4
111 94 3
134 123 3
126 110 3
118 103 2
123 111 3
124 110 2
119 103 3
121 102 4
124 110 2
117 99 3
125 116 2
122 105 2
125 111 3
120 102 4
125 106 3
119 100 4
119 99 3
121 106 2
115 99 2
128 103 4
127 107 4
120 101 3
121 107 1
127 99 5
131 116 4
128 110 4
133 114 4
127 108 4
125 107 3
127 104 4
117 92 4
125 112 3
125 110 3
126 111 2
123 104 4
118 94 3
130 112 3
123 104 4
131 112 5
122 102 4
128 113 3
127 115 3
122 136 81
127 141 88
132 146 82
125 140 73
128 142 73
125 139 51
122 135 84
127 142 65
133 148 81
133 148 86
132 148 82
128 140 91
127 142 63
116 130 81
127 143 58
124 137 84
114 129 74
125 139 65
120 133 77
130 144 77
129 145 77
123 137 69
125 138 74
127 139 80
129 143 78
128 143 73
122 135 91
126 140 63
122 137 79
125 140 85
116 129 83
124 140 52
124 139 69
125 140 63
121 135 63
111 126 49
124 140 52
113 126 59
125 141 48
120 134 49
123 139 42
118 132 46
123 137 64
132 148 55
123 138 57
126 141 58
130 146 64
134 151 63
127 142 66
121 137 58
121 136 66
130 145 52
127 143 65
111 125 60
125 140 62
115 129 71
120 134 59
131 147 58
126 142 59
120 134 68
126 143 52
116 129 66
129 145 52
120 135 40
122 136 45
127 144 46
118 134 42
124 139 44
109 122 52
111 126 37
119 134 39
123 140 43
127 144 45
126 144 28
124 141 30
115 129 36
116 133 31
115 129 39
125 141 58
111 125 45
119 136 63
120 137 60
109 123 57
125 141 38
118 133 53
119 135 48
110 124 35
124 140 45
109 122 44
107 121 49
125 143 47
120 136 38
121 137 52
121 136 33
118 134 37
112 127 44
107 121 48
115 132 33
116 131 29
103 117 37
115 130 41
114 128 26
113 129 39
116 132 22
119 135 34
97 109 41
111 125 38
106 121 56
104 119 59
112 124 36
102 117 57
98 111 41
89 100 50
107 119 47
110 125 34
91 101 25
97 110 20
101 114 46
99 111 39
91 102 35
93 106 47
74 84 33
60 70 45
60 72 66
53 64 72
58 71 66
65 76 69
50 63 56
53 66 72
56 70 62
52 66 68
57 70 62
57 73 62
62 73 62
52 67 74
59 70 62
59 68 56
54 63 58
63 73 81
47 59 45
91 104 74
106 120 57
109 122 69
108 121 64
114 129 47
129 146 49
164 187 0
166 189 0
158 179 0
161 183 0
163 185 0
101 119 53
32 50 65
35 55 79
43 66 88
33 53 70
34 55 80
39 62 94
36 58 57
42 66 99
46 71 103
42 66 103
37 58 80
43 67 94
42 67 96
37 58 80
39 61 89
42 66 89
42 66 98
39 62 83
42 66 86
45 70 88
41 64 87
39 63 93
40 63 86
42 68 92
33 53 61
44 70 94
40 63 86
38 60 77
40 64 85
42 66 100
46 73 98
37 60 88
41 64 88
48 76 118
44 69 99
42 66 85
42 67 97
49 76 102
41 65 90
43 68 84
42 67 99
39 60 90
38 60 92
44 70 100
40 62 101
41 65 91
42 66 90
39 62 84
44 70 88
36 57 76
40 63 90
43 67 102
39 62 76
41 65 105
36 56 72
43 67 98
38 60 80
41 65 94
42 66 83
42 67 101
45 70 94
40 63 88
40 62 95
44 70 91
42 66 98
38 60 92
45 69 106
44 68 104
47 73 113
41 65 87
38 60 84
45 70 90
44 68 90
44 69 99
40 63 100
40 63 78
39 60 81
40 63 96
44 69 86
37 57 83
40 62 77
40 62 81
37 56 86
46 72 101
34 53 77
38 58 78
38 61 76
43 66 94
39 60 70
37 55 62
30 48 59
36 54 77
37 58 77
35 52 71
41 62 78
27 43 45
97 112 48
168 190 0
161 181 0
164 186 0
158 180 0
157 178 0
132 131 0
113 102 0
114 96 0
112 95 1
94 77 1
83 64 11
57 36 13
63 38 8
56 41 8
51 39 21
48 34 5
41 32 13
60 39 14
52 37 13
52 43 17
65 45 16
67 45 20
53 44 24
54 45 24
62 46 23
61 43 16
55 45 23
56 49 34
52 41 12
93 79 0
93 80 1
86 77 1
96 80 1
92 82 0
104 92 0
93 80 1
97 80 1
102 93 0
100 89 1
107 95 1
101 92 0
108 95 1
105 91 0
113 103 1
104 89 1
119 109 1
110 100 0
110 100 0
127 120 0
102 92 0
115 104 1
116 106 0
108 95 0
105 94 0
113 99 0
117 102 0
112 100 0
119 105 1
114 99 1
111 97 1
121 109 1
119 110 0
109 97 1
116 103 1
121 108 1
114 95 2
114 105 0
123 115 0
118 105 1
112 96 1
113 99 1
105 89 1
121 106 1
123 112 0
117 105 1
115 103 0
114 100 1
105 87 0
115 101 0
114 100 1
130 121 0
117 104 1
122 108 0
115 100 0
117 104 0
128 117 0
122 109 2
121 109 2
117 106 0
127 116 1
118 102 2
118 104 1
132 119 1
120 103 3
119 106 1
121 105 2
126 109 3
116 105 2
115 96 3
121 102 3
117 101 3
127 113 2
123 107 3
116 98 3
128 108 5
125 105 3
123 110 2
127 112 4
123 110 2
122 103 3
105 83 3
126 103 4
121 100 4
122 104 3
117 100 3
119 102 3
126 112 3
131 114 3
130 112 3
114 96 1
129 113 3
130 111 4
130 108 4
132 113 4
125 106 4
121 100 3
127 103 4
130 109 3
126 107 3
132 107 5
121 108 3
132 111 5
139 125 3
125 111 3
121 102 4
128 107 4
128 112 3
130 110 4
133 116 4
128 110 3
121 110 2
121 103 3
122 106 3
123 105 3
122 105 4
120 101 3
133 115 3
130 113 4
123 104 3
133 118 4
127 111 3
122 136 75
122 136 77
135 152 60
122 136 80
131 148 62
133 148 74
130 146 75
126 140 79
127 141 82
127 141 75
135 151 85
126 139 72
132 146 78
130 144 71
123 137 88
116 129 87
130 145 81
135 152 68
132 149 66
126 141 62
122 135 84
129 144 77
124 137 95
124 138 83
122 137 84
127 142 74
132 148 76
124 139 83
126 140 90
124 136 98
122 135 80
128 144 58
114 129 50
123 138 50
119 133 47
123 138 58
118 132 35
121 137 43
118 132 56
130 146 59
128 143 55
127 141 54
114 129 57
118 132 59
127 143 49
126 143 51
126 142 32
121 137 52
124 139 71
117 132 57
129 145 52
119 134 51
126 143 41
116 131 33
119 134 48
119 134 53
117 130 51
123 138 41
129 145 52
122 137 33
120 135 62
120 135 64
119 136 34
129 146 39
129 145 44
122 137 38
123 138 44
132 149 39
124 141 37
113 128 42
121 135 32
117 133 35
120 135 52
115 130 22
124 142 43
114 129 47
118 133 36
122 138 41
121 135 56
115 131 50
122 138 54
119 135 56
116 131 39
103 117 36
112 127 48
116 130 62
108 123 37
122 137 44
108 121 55
124 141 51
125 142 35
118 134 35
119 134 55
127 145 38
116 130 35
116 132 33
115 131 30
110 123 34
117 132 29
120 135 54
111 126 29
107 123 39
111 125 40
97 109 51
110 126 53
117 134 43
105 119 35
110 126 49
100 113 16
108 123 38
102 115 57
104 119 43
101 114 39
94 105 38
106 121 38
103 116 35
103 116 22
105 118 26
86 98 39
91 103 41
82 93 38
76 87 26
83 94 45
62 71 54
50 60 37
55 67 52
55 67 33
50 64 63
61 74 56
63 77 67
62 76 88
53 66 63
46 58 61
57 71 68
58 69 65
65 75 75
62 73 70
56 66 60
54 67 62
81 92 50
102 115 58
109 122 63
109 122 70
112 126 57
110 124 65
149 168 31
165 187 0
159 180 0
164 185 0
164 184 0
163 185 0
131 151 44
31 49 70
34 54 54
39 62 78
40 62 81
34 55 70
35 56 77
40 63 101
41 63 102
37 59 89
39 62 82
44 69 93
39 61 79
43 68 96
40 64 96
40 62 95
45 71 107
47 73 114
42 66 87
38 60 77
46 73 97
37 59 81
42 65 94
41 65 95
38 60 79
33 52 63
36 58 84
48 76 114
44 69 111
46 72 103
42 66 89
45 70 99
44 68 100
41 65 79
44 70 103
41 65 95
45 70 112
38 59 84
44 70 98
44 68 97
47 74 106
41 65 85
41 64 91
40 63 87
43 67 101
42 66 89
45 72 96
41 64 95
39 61 87
36 57 80
44 67 90
43 68 94
46 73 103
42 66 91
36 56 84
40 63 99
45 71 101
37 57 71
42 67 89
42 65 95
42 66 91
42 66 102
47 75 100
41 64 94
43 66 95
40 64 79
45 70 103
41 64 84
42 66 102
34 54 70
43 68 99
41 64 91
39 60 81
45 72 103
37 59 80
46 72 105
46 72 110
44 70 97
39 62 95
45 69 110
41 64 106
45 71 96
38 60 79
40 63 68
45 69 102
43 67 93
38 60 77
44 68 90
42 65 96
40 63 90
38 61 76
41 62 81
37 57 74
37 57 72
29 45 61
36 55 59
31 47 56
148 168 26
166 188 0
163 186 0
165 188 0
161 183 0
166 189 0
149 161 0
114 99 1
106 96 0
111 98 1
113 96 1
93 83 0
88 77 16
64 43 4
58 36 12
59 37 8
61 38 2
58 43 18
66 43 3
76 50 11
59 42 20
52 40 17
62 47 17
52 40 21
49 37 5
63 45 12
47 37 11
55 40 23
52 48 20
85 70 1
88 69 1
80 68 0
90 77 1
91 79 0
95 83 0
97 86 1
86 76 0
91 75 0
101 89 0
98 84 0
111 99 1
92 79 0
108 95 0
102 89 1
103 90 1
109 99 0
116 107 0
120 109 0
105 90 1
108 95 1
119 109 0
112 101 0
111 100 0
115 104 1
119 108 0
118 108 0
117 110 0
114 99 1
113 101 1
110 99 1
115 103 1
120 109 1
112 102 0
124 111 1
119 106 1
111 94 1
123 110 0
110 94 1
115 102 1
104 87 1
112 99 1
112 96 1
115 103 0
122 110 1
118 106 1
109 91 1
112 95 0
128 115 1
120 104 1
118 105 0
118 104 1
119 104 1
116 103 0
121 105 1
125 114 1
122 112 0
120 106 1
120 106 1
119 101 2
111 97 1
120 109 0
119 105 1
116 100 1
116 103 1
123 111 1
106 89 1
122 106 1
118 103 0
117 105 1
107 96 0
119 102 1
116 104 0
115 98 1
121 106 2
121 108 2
120 102 3
125 112 2
126 114 2
127 118 0
122 108 3
124 107 3
117 99 3
127 114 3
123 101 4
128 114 2
115 97 3
130 114 3
127 112 3
121 109 2
119 105 3
132 116 4
122 105 3
124 106 3
122 100 4
121 94 5
130 115 3
121 105 2
123 105 3
135 119 3
128 113 3
132 115 3
119 96 3
125 102 4
121 108 3
125 106 4
134 120 3
132 115 3
128 110 4
128 113 3
126 106 4
110 91 3
127 112 3
121 101 4
121 103 3
132 116 3
131 113 4
133 109 5
132 115 4
127 113 3
129 111 3
125 107 4
121 102 4
122 137 71
124 139 65
120 136 53
130 144 87
118 132 71
119 133 66
119 132 90
122 135 70
125 138 86
127 140 98
127 142 70
126 141 77
134 148 78
126 140 74
124 139 86
135 153 78
123 137 86
123 137 69
124 140 63
106 120 76
132 147 84
136 151 69
123 138 71
119 133 74
121 135 86
122 136 86
131 145 73
125 138 67
118 131 93
120 133 76
124 139 71
139 157 54
128 143 61
113 128 75
123 139 30
125 142 56
122 137 39
120 135 37
122 137 41
126 142 34
125 141 39
121 136 25
122 138 22
118 134 21
125 142 0
115 131 46
124 140 29
112 125 14
116 131 21
116 129 44
113 127 24
119 134 43
109 124 39
125 140 30
124 139 34
117 131 58
127 143 43
122 137 44
108 123 52
112 126 35
120 135 42
117 131 50
107 121 28
111 126 54
115 131 41
118 133 37
120 135 57
110 124 48
127 143 24
118 132 38
115 131 49
123 140 46
116 132 35
123 141 63
104 118 42
114 128 59
113 127 37
120 135 54
116 131 54
118 136 44
120 136 64
118 135 46
118 132 44
116 132 53
108 123 39
109 123 34
118 133 45
112 128 51
114 128 53
125 141 49
113 128 42
119 135 39
121 138 40
114 129 37
108 123 58
112 127 30
113 125 33
115 131 45
108 122 47
112 125 38
105 120 37
112 128 29
104 116 42
110 123 55
109 122 34
107 121 45
100 114 46
115 130 44
117 134 45
99 111 51
103 117 39
92 104 35
104 117 48
96 108 39
99 112 32
94 105 34
93 105 30
101 113 40
92 102 37
85 96 44
75 85 43
69 78 27
69 77 35
71 80 46
76 86 44
57 68 66
59 70 67
59 70 59
61 71 58
61 75 62
55 67 48
56 69 63
57 68 66
51 60 54
60 70 55
55 67 63
53 60 61
68 79 68
87 96 64
93 106 48
93 103 79
115 129 49
112 127 62
121 135 49
123 138 35
170 194 0
164 186 0
160 183 0
163 186 0
161 183 0
156 177 0
162 184 0
60 75 35
36 57 80
38 59 75
38 60 74
40 63 87
36 57 78
34 54 86
42 66 85
43 67 91
41 65 93
43 67 91
41 64 87
39 61 90
36 58 78
40 63 97
47 72 98
44 69 107
45 70 103
43 68 99
42 65 100
43 68 97
43 68 100
38 59 84
44 68 90
38 60 87
40 64 87
43 67 91
41 64 93
37 59 86
42 66 94
46 71 99
38 60 88
40 63 91
39 62 87
42 67 98
47 74 103
43 68 108
46 73 103
43 68 90
41 65 93
45 71 111
45 70 105
39 62 83
39 61 79
43 68 98
42 66 90
46 72 107
43 68 108
38 59 78
40 63 99
40 62 84
45 71 107
45 71 69
48 75 109
44 69 101
43 68 93
49 77 112
44 69 97
43 67 97
33 53 71
48 76 110
43 67 98
48 75 109
43 67 95
46 73 99
43 67 87
45 70 114
39 59 72
40 63 87
40 64 89
40 64 74
40 62 82
38 59 84
40 62 89
40 61 75
47 73 97
44 70 99
34 53 74
46 71 110
40 62 90
42 65 91
41 64 90
34 53 74
43 67 98
39 60 77
39 61 79
38 60 81
48 73 111
30 45 55
44 68 81
36 56 78
33 52 69
38 56 77
41 63 92
30 44 53
59 71 37
159 181 9
158 179 0
165 187 0
158 180 0
167 190 0
157 178 0
168 189 0
129 128 0
114 100 0
115 97 1
124 113 1
92 79 1
101 86 0
98 81 16
72 52 12
68 33 3
63 39 3
54 35 12
57 43 20
62 38 16
59 44 20
55 42 13
55 41 18
61 39 6
63 43 14
61 43 16
64 45 17
62 46 1
74 62 0
80 60 1
80 69 0
80 69 1
92 76 1
83 76 0
90 77 1
78 63 0
91 83 0
107 96 0
95 82 1
89 72 1
106 92 1
99 85 0
104 88 1
104 92 0
108 95 1
86 75 1
106 94 0
114 107 0
115 105 1
110 102 0
109 100 1
118 107 0
119 111 1
106 91 0
119 106 1
116 105 0
116 106 0
116 101 1
116 104 0
121 108 0
116 104 1
110 101 0
121 110 1
122 112 1
111 97 1
105 87 1
111 92 1
112 98 1
112 97 1
121 109 0
121 104 1
119 102 1
120 107 1
116 103 1
117 97 2
113 95 1
125 112 0
116 99 0
121 108 0
113 102 0
117 105 1
120 106 1
117 104 1
119 106 1
122 106 1
113 101 1
124 114 0
121 108 0
113 99 1
121 111 0
121 102 1
113 97 1
121 109 1
118 103 0
115 100 1
122 106 1
125 114 1
113 99 1
123 111 0
115 97 0
120 103 0
117 105 0
117 101 1
120 107 1
129 117 1
119 104 0
115 100 0
115 101 0
118 105 0
129 116 0
120 105 0
115 102 0
115 104 0
114 99 1
124 107 2
121 109 1
127 115 1
120 105 2
129 118 2
123 107 3
113 92 3
127 117 2
132 115 4
128 106 4
128 114 3
123 100 4
130 113 3
130 114 3
119 102 3
129 110 4
120 101 3
133 116 4
128 118 1
125 107 4
127 108 3
124 106 3
127 109 3
120 97 4
132 113 4
123 109 3
123 103 4
122 100 4
119 104 3
127 113 3
129 111 3
116 95 4
114 98 3
126 109 4
126 110 3
123 104 4
125 104 4
130 108 5
118 132 71
116 129 85
124 139 84
128 143 79
123 136 78
132 148 65
130 145 80
127 141 76
129 143 76
133 150 61
139 156 62
133 149 74
120 135 57
129 144 81
133 148 86
126 140 70
129 142 85
123 139 54
121 135 87
126 142 66
113 126 76
121 135 65
120 135 61
125 140 64
123 138 57
122 137 49
125 139 63
128 144 62
124 139 66
129 145 58
124 141 49
116 131 53
120 135 51
117 133 46
117 132 64
114 127 32
120 136 34
124 141 8
121 137 29
121 137 32
111 126 15
114 128 28
119 134 0
126 143 38
125 142 26
127 144 33
124 140 14
121 138 35
118 133 34
126 143 35
124 139 34
121 137 43
116 132 39
106 119 34
119 135 39
107 120 57
115 131 26
120 135 54
131 147 47
113 128 56
121 138 55
129 146 30
122 138 52
119 133 39
116 131 57
123 139 45
112 126 45
106 119 51
119 134 41
124 141 47
121 138 38
125 141 37
121 137 54
125 142 52
122 136 50
120 136 57
107 122 57
115 129 60
118 133 59
116 132 42
117 132 52
118 133 34
119 134 33
118 134 40
110 125 44
105 120 54
120 136 36
124 141 47
117 133 46
105 117 37
116 132 55
102 115 55
121 136 55
112 127 47
116 131 50
104 118 37
102 116 51
109 123 28
108 123 42
112 127 37
114 128 32
112 127 45
109 123 55
104 117 54
108 122 58
107 122 57
105 119 59
100 114 54
113 126 32
106 120 48
98 112 45
95 107 45
103 116 40
101 116 41
94 108 32
101 115 20
89 102 18
97 109 0
105 119 20
86 97 61
80 90 26
91 101 61
80 88 40
74 83 44
92 103 39
71 80 46
57 67 53
58 71 56
55 68 61
55 67 56
57 68 53
44 53 43
44 53 40
52 61 55
57 66 57
73 83 59
84 95 47
96 107 66
102 115 48
99 111 63
106 118 58
119 133 59
112 126 56
121 137 53
146 165 29
166 189 0
161 181 0
163 184 0
164 185 0
167 189 0
158 180 0
158 181 0
112 130 25
37 57 80
37 59 81
37 58 88
36 57 79
37 58 73
42 67 95
33 52 65
37 59 91
42 66 98
35 56 68
40 63 93
41 65 86
43 68 101
35 56 68
40 62 93
33 53 64
37 59 88
45 71 107
43 69 106
47 75 110
41 64 91
43 68 87
42 66 81
36 56 77
41 64 91
42 65 94
39 61 80
41 65 98
42 67 87
38 60 76
38 60 77
43 67 98
45 70 99
36 58 72
38 59 84
44 70 90
45 70 106
46 72 115
38 61 74
45 69 103
39 61 93
45 70 107
43 68 104
40 62 81
39 62 78
45 70 107
46 72 116
43 68 92
43 68 93
43 67 86
41 65 70
46 72 104
39 62 80
46 73 102
41 64 78
45 70 106
38 61 88
42 66 87
45 71 91
44 70 99
44 69 96
42 64 96
38 61 91
46 73 116
45 71 109
39 61 84
45 70 113
41 66 84
46 72 95
42 66 85
42 67 91
41 65 102
42 65 90
45 72 94
42 66 93
41 64 89
45 71 103
39 61 75
45 71 90
38 60 84
43 66 95
40 62 87
39 61 82
35 55 79
40 62 94
39 60 91
37 56 85
34 53 60
33 50 57
34 52 68
40 63 79
36 56 70
41 62 77
29 43 54
108 127 51
165 187 0
161 183 0
161 181 0
161 182 0
166 188 0
159 179 0
156 176 0
149 161 0
114 101 0
110 93 1
96 80 1
96 79 1
103 91 0
108 90 1
99 79 1
78 65 2
57 44 12
50 35 17
57 37 13
54 40 13
48 35 5
55 40 17
59 41 12
56 40 2
55 41 12
48 38 5
59 48 4
63 45 1
84 69 0
69 54 0
75 64 0
89 77 0
79 68 0
83 70 0
87 72 1
82 69 0
103 95 0
96 85 0
92 78 1
97 87 0
102 87 1
104 90 1
102 89 1
111 98 1
99 87 0
106 92 1
107 94 0
113 97 1
109 96 0
110 97 1
100 87 1
106 95 0
118 103 1
117 107 0
109 95 1
112 100 0
115 104 1
121 110 1
108 94 1
110 98 1
114 101 1
115 102 0
114 103 0
115 103 1
112 100 0
117 106 1
115 99 1
117 100 1
111 97 1
117 105 0
104 87 1
111 95 0
116 101 1
116 103 1
116 99 1
108 89 2
110 93 1
115 98 1
113 98 1
121 111 1
118 103 1
116 99 0
119 105 0
117 106 0
110 93 0
116 99 1
108 94 0
115 94 1
125 113 1
116 105 1
117 103 1
110 93 1
109 92 1
116 98 1
121 110 0
117 104 1
121 109 1
118 101 1
123 113 1
119 103 1
108 97 0
114 102 0
114 102 0
115 103 0
122 107 0
121 108 1
120 107 0
116 103 0
116 103 0
121 108 0
117 100 0
119 109 0
114 102 0
110 95 0
112 94 0
125 110 0
114 101 1
119 105 0
123 111 1
120 109 1
119 101 1
120 105 1
118 104 1
129 118 1
117 99 1
127 112 2
126 112 1
135 122 2
129 116 2
125 106 3
124 104 3
121 104 3
122 112 2
116 95 2
123 96 4
122 106 2
128 110 3
125 111 2
122 108 2
128 110 3
126 106 4
122 106 4
130 114 3
125 107 4
128 107 4
128 112 4
126 112 3
127 115 3
118 100 3
124 104 3
121 107 3
129 115 4
122 135 85
118 132 58
119 132 89
119 133 75
119 131 85
124 136 80
119 132 77
127 142 76
119 134 65
126 142 81
126 140 86
117 131 70
122 137 81
118 134 68
121 138 50
112 127 45
117 131 47
118 134 37
111 125 46
125 141 43
120 137 47
123 138 38
119 136 49
125 141 58
118 134 45
120 135 44
117 131 52
126 142 46
111 125 50
121 136 51
114 128 68
119 134 36
115 131 49
110 126 50
113 128 39
127 143 43
120 135 50
123 139 31
118 135 18
106 121 23
125 141 13
113 129 27
120 135 28
115 130 11
124 140 22
122 138 24
117 133 39
118 132 35
116 133 14
125 141 25
116 130 39
108 122 44
107 121 55
116 130 53
124 142 38
114 128 50
114 129 47
115 130 41
132 149 50
118 133 24
128 145 34
113 126 27
117 132 47
129 146 42
117 133 57
123 140 41
120 137 34
120 136 26
126 144 32
112 128 44
116 131 53
114 129 52
112 127 46
113 127 64
109 124 54
121 137 52
116 132 59
115 130 51
114 130 61
106 118 56
113 128 66
106 120 61
121 137 54
112 126 48
120 137 50
117 132 40
122 138 51
106 121 44
127 144 30
106 121 50
120 135 49
117 133 40
111 126 42
118 133 49
106 121 32
94 107 55
124 141 28
112 126 32
110 127 30
111 127 33
118 132 41
111 124 32
105 120 33
98 112 38
123 138 55
102 115 39
103 116 46
104 116 35
113 130 29
98 112 33
90 102 40
98 110 42
105 117 45
100 114 25
100 114 36
91 103 48
97 108 43
89 100 41
97 110 58
87 98 44
90 101 49
84 94 38
79 89 36
75 85 51
80 90 45
83 94 57
70 78 41
73 81 42
62 71 46
63 73 48
64 73 59
72 83 46
77 86 52
66 74 36
90 100 54
73 83 46
93 105 56
88 99 58
89 99 65
107 120 56
112 125 71
108 120 70
111 123 56
116 132 45
164 187 0
158 180 0
160 181 0
162 185 0
163 184 0
159 180 0
162 184 0
158 179 0
142 163 36
45 60 58
33 51 65
33 51 66
43 67 94
40 63 96
41 64 91
35 55 74
39 61 88
40 63 79
40 62 78
33 52 66
36 56 77
42 66 93
38 61 66
44 68 93
37 59 71
39 60 85
47 73 104
40 65 83
38 59 85
42 67 91
41 65 89
45 71 100
44 69 91
38 60 82
51 80 116
42 66 85
45 71 103
37 58 80
40 63 94
43 67 94
46 71 109
42 67 92
40 62 90
42 67 87
40 63 86
42 66 91
41 63 93
42 66 104
44 69 101
36 57 69
42 66 96
42 66 93
40 62 94
47 74 96
42 67 83
45 71 97
37 59 86
40 63 89
44 71 84
34 55 61
39 61 92
43 67 97
38 59 75
38 60 85
43 68 94
42 66 93
45 71 104
46 72 107
42 65 95
43 67 98
40 62 95
44 68 97
37 59 79
41 65 88
40 62 97
44 69 104
46 71 105
49 76 109
37 58 76
43 68 95
40 64 75
44 70 103
45 71 84
37 58 59
44 69 96
37 58 88
35 55 80
45 70 101
42 65 98
45 70 111
37 58 80
40 62 72
40 62 87
38 57 73
37 57 61
36 56 76
35 54 70
44 67 95
34 53 66
35 52 72
34 51 67
36 56 69
43 59 53
145 163 26
162 182 0
152 171 0
162 184 0
161 182 0
166 188 0
166 187 0
158 179 0
167 189 0
119 110 1
119 105 1
114 99 1
100 83 1
113 102 1
95 84 1
89 70 1
81 64 1
88 75 0
71 63 0
62 47 0
67 55 12
71 52 11
65 45 11
72 50 2
72 55 3
62 46 1
84 64 0
82 61 1
76 57 1
81 59 1
77 61 0
78 65 0
84 68 1
86 69 0
81 68 1
98 88 1
87 72 0
95 81 1
93 80 0
109 95 0
101 87 1
102 90 1
103 91 1
100 87 0
108 96 0
93 78 1
120 109 1
109 94 1
109 97 0
117 102 0
105 93 0
98 82 1
109 98 0
112 100 0
113 104 0
119 113 0
107 93 1
110 99 0
117 106 0
115 103 1
122 106 1
113 102 1
108 95 1
120 110 1
121 111 0
103 87 0
124 108 1
108 94 1
121 109 1
119 102 2
110 94 1
115 98 1
123 108 1
114 100 1
111 96 1
123 109 1
121 107 1
107 94 0
112 93 1
116 101 1
114 100 1
121 108 1
124 111 0
112 98 1
116 102 0
115 99 1
114 102 1
113 100 0
114 97 1
121 107 1
117 105 0
119 103 0
117 105 1
115 99 1
111 97 1
118 107 0
109 94 1
118 105 1
112 97 1
109 97 0
121 111 0
115 102 0
117 103 0
110 96 0
97 83 0
119 104 1
115 103 0
121 108 1
125 114 0
124 110 0
116 103 0
116 100 0
115 104 0
118 108 0
113 99 1
119 105 0
123 111 0
119 101 1
120 108 1
115 104 1
121 106 1
128 115 1
115 100 1
117 105 0
113 100 0
122 110 0
122 106 1
124 115 1
123 109 0
126 111 1
125 110 1
121 105 1
122 106 1
119 101 1
125 113 1
114 99 1
123 108 1
120 97 2
114 98 1
116 98 2
130 119 3
130 112 3
119 109 1
128 110 2
128 112 3
123 110 2
125 109 4
114 95 3
126 108 4
119 102 3
126 113 3
118 101 4
129 113 4
129 146 57
118 132 47
116 129 59
120 134 62
121 136 38
108 121 61
117 131 38
108 123 32
118 133 44
114 128 67
127 143 45
119 134 44
118 134 29
111 126 49
118 134 45
117 132 50
118 135 38
110 125 62
118 132 45
125 141 47
116 130 47
124 139 62
118 134 65
115 130 54
121 137 56
109 122 46
124 138 58
113 127 42
128 144 55
130 145 59
114 130 48
111 125 52
116 130 63
121 137 53
122 137 57
119 133 34
114 128 45
104 119 54
115 128 39
116 131 37
117 133 21
118 134 31
123 137 37
119 135 27
122 137 10
124 141 14
120 137 29
119 135 25
111 126 29
122 138 42
125 142 36
113 127 20
114 127 29
122 139 37
114 129 41
116 130 42
116 131 36
120 136 47
115 130 43
128 145 39
117 133 44
122 138 40
125 142 51
124 140 44
128 145 33
125 140 50
111 126 53
113 126 49
118 135 45
122 138 54
106 119 46
118 134 43
122 139 66
118 135 65
118 134 68
112 128 45
112 127 63
123 139 42
115 131 27
114 131 49
123 139 49
107 121 58
118 135 51
113 127 42
107 122 39
115 130 49
113 129 43
111 125 53
123 139 46
109 122 48
111 127 56
104 116 58
106 121 40
117 133 52
104 117 55
113 128 37
107 120 56
100 114 61
106 120 67
98 110 33
100 113 26
112 128 60
111 126 46
111 128 33
100 112 31
96 110 37
103 116 43
112 127 35
105 120 33
103 117 53
106 120 20
91 105 41
91 103 38
104 117 26
103 117 38
101 115 31
92 104 25
100 111 29
100 112 49
83 92 38
97 108 50
93 104 58
87 97 49
67 77 58
74 83 57
85 95 57
77 88 47
66 74 23
60 68 45
58 66 31
69 78 47
94 104 63
76 85 67
78 87 62
82 93 60
84 95 42
96 108 81
100 112 49
96 108 57
101 114 53
100 112 56
111 125 58
110 124 55
145 165 31
158 180 0
170 192 0
162 184 0
160 180 0
158 181 0
167 188 0
163 185 0
167 189 0
162 183 0
116 134 41
36 56 73
35 55 75
35 54 63
34 54 79
35 55 76
30 48 71
35 55 75
42 66 96
45 71 102
30 48 59
36 58 55
37 59 77
43 66 98
40 64 74
37 58 69
42 66 91
42 66 89
42 67 88
40 63 93
42 65 90
40 63 82
45 71 98
44 70 93
41 64 90
40 63 92
44 68 106
44 69 99
46 73 109
45 70 105
45 71 101
41 65 96
40 63 80
39 61 97
40 64 83
43 68 94
37 59 75
39 62 91
43 68 93
42 66 87
43 68 89
41 65 89
39 61 79
38 60 80
45 72 86
37 59 90
43 68 99
43 69 101
44 68 106
46 73 85
43 67 91
43 67 81
45 70 101
42 66 83
38 60 86
45 72 86
43 68 87
44 69 81
35 54 65
45 71 98
44 70 98
45 71 100
50 79 114
46 71 114
41 65 86
43 68 93
40 63 80
44 69 87
43 67 89
43 67 89
43 68 98
41 65 98
42 66 96
41 65 91
39 60 86
40 63 95
40 64 85
41 64 78
38 58 48
40 63 85
31 48 57
42 65 78
32 49 61
39 62 80
39 60 83
43 65 88
42 64 99
40 62 92
32 49 54
38 58 67
34 52 53
38 59 68
37 54 62
109 126 36
169 191 0
160 183 0
149 169 0
154 173 0
156 178 0
160 180 0
159 180 0
168 191 0
164 187 0
155 167 0
114 92 1
109 98 0
108 92 1
96 83 0
100 88 1
101 89 0
105 87 1
91 76 1
83 65 1
68 49 0
70 51 1
80 64 1
78 62 1
68 56 0
73 62 0
75 56 1
80 62 1
85 69 1
95 79 1
89 78 0
84 68 1
94 83 1
91 76 1
90 78 0
87 74 0
94 79 1
93 77 1
109 100 1
95 82 1
99 86 0
103 91 0
92 81 1
103 91 0
99 85 0
106 96 0
124 113 0
106 97 0
108 94 1
115 103 0
120 109 0
113 101 0
112 101 0
113 100 1
116 104 0
110 100 0
107 96 1
103 85 1
127 117 0
109 96 0
113 101 0
101 87 0
120 111 1
118 102 1
113 101 1
110 93 1
112 102 1
115 102 1
111 97 0
115 100 0
109 96 1
120 106 1
118 107 1
111 95 1
111 95 1
114 98 1
118 106 1
100 79 0
122 107 1
119 107 0
108 90 1
117 105 1
121 105 1
119 106 1
117 104 1
120 110 0
120 104 1
120 107 1
113 101 0
120 107 0
120 107 1
116 104 1
120 106 1
114 103 0
118 102 1
121 110 1
114 101 0
126 110 1
107 93 0
114 100 1
122 114 0
109 98 0
113 100 0
121 111 0
114 103 0
121 110 0
116 106 0
124 112 0
118 100 1
108 90 0
123 110 0
126 113 0
115 103 0
121 112 0
117 101 0
120 106 1
118 108 1
122 103 1
115 99 1
125 115 0
120 104 1
117 105 0
117 104 1
116 96 1
131 121 0
110 92 1
118 103 1
119 103 1
119 98 0
120 102 1
112 97 0
117 99 1
121 108 0
110 95 1
118 104 0
109 97 0
117 103 1
124 110 1
114 96 1
113 96 1
123 111 1
116 100 1
114 100 1
113 96 1
119 105 1
124 111 1
116 98 1
116 101 1
126 113 1
115 97 2
115 98 2
122 100 3
119 107 1
130 117 2
116 131 42
116 133 48
125 142 46
118 133 37
128 145 55
116 132 45
119 134 46
107 121 47
119 135 55
110 125 37
118 132 50
119 136 43
105 120 53
115 132 39
123 139 34
121 137 42
130 146 33
117 133 45
116 130 72
122 139 47
118 132 50
120 134 48
116 130 60
125 141 47
117 132 52
118 133 39
119 134 50
121 135 60
113 127 57
112 126 64
124 140 63
129 145 44
126 142 66
110 125 55
111 126 57
123 140 39
114 129 45
129 145 46
111 127 26
113 127 29
120 135 18
109 124 25
118 134 43
113 126 46
114 128 34
123 140 26
121 136 20
119 135 28
122 138 28
118 134 35
120 134 31
121 137 24
122 139 30
119 136 21
116 131 42
117 133 35
112 125 35
114 129 60
129 145 48
114 128 62
112 127 41
117 132 32
122 138 55
128 145 31
121 138 49
118 134 52
124 140 62
121 138 46
122 138 48
114 131 58
120 137 58
114 128 59
119 135 45
116 131 47
122 139 65
118 134 55
124 141 53
107 120 44
117 133 37
121 135 38
110 124 41
118 134 56
113 127 43
110 125 62
108 122 55
113 128 53
107 121 44
112 127 50
112 127 56
103 116 44
110 124 49
113 128 50
117 133 59
113 129 34
118 133 57
108 123 35
110 124 49
102 115 62
104 120 36
106 121 56
104 118 45
110 125 29
116 131 51
100 113 44
106 119 26
101 115 19
106 122 39
96 109 48
104 119 32
99 112 33
92 105 50
98 111 50
93 105 39
97 110 13
100 114 25
102 116 37
97 108 39
91 104 37
82 93 51
102 115 64
98 110 34
90 99 45
83 94 51
94 106 47
86 97 43
77 84 49
58 66 34
83 93 44
86 96 53
72 81 32
80 88 52
77 86 44
82 91 63
78 88 53
90 101 48
87 98 42
100 113 63
92 103 55
112 125 56
105 117 81
96 109 62
115 128 61
113 126 60
156 179 0
162 184 0
160 182 0
152 173 0
159 180 0
162 184 0
157 178 0
163 184 0
155 176 0
159 178 0
153 174 1
35 56 67
37 59 70
36 57 82
38 60 76
40 63 96
42 67 88
34 55 67
35 56 87
38 60 80
44 69 104
39 62 80
38 60 86
47 73 116
41 64 98
37 59 64
42 65 100
39 61 92
44 69 105
40 63 87
38 60 74
43 67 87
41 65 93
37 58 91
37 58 75
43 67 97
42 66 86
44 69 104
45 71 100
35 56 77
39 62 80
43 67 90
43 67 92
38 61 81
37 58 75
44 69 94
41 65 88
44 70 90
40 62 88
40 64 78
42 66 96
42 66 88
44 67 107
40 63 90
43 68 100
44 69 112
41 65 87
39 62 79
36 57 71
41 65 98
40 63 95
34 53 85
46 71 107
45 70 93
50 77 117
43 68 98
45 71 94
41 64 79
42 66 89
42 67 91
41 65 91
41 65 91
40 62 88
40 63 88
39 62 87
37 59 70
41 63 90
38 60 85
46 72 103
42 67 90
42 67 97
43 67 104
38 60 78
44 69 95
46 71 109
41 65 94
37 58 85
40 63 69
42 65 98
44 68 85
41 63 87
38 58 79
36 54 67
38 59 78
43 66 93
42 65 73
44 68 94
37 57 81
34 52 60
29 44 56
30 45 59
35 53 50
39 57 70
140 161 9
160 181 0
168 189 0
160 182 0
162 183 0
159 180 0
165 187 0
159 181 0
161 183 0
164 184 0
153 174 0
133 133 0
113 102 0
95 79 1
108 89 1
99 85 1
89 74 0
100 82 1
82 64 1
77 58 1
84 71 0
79 62 1
75 64 0
83 58 1
86 66 1
84 75 0
66 46 1
78 64 0
87 74 0
98 80 1
92 75 0
80 63 0
91 78 1
86 71 1
111 93 1
97 79 1
95 79 1
104 88 1
98 87 1
91 77 0
100 88 0
104 91 0
105 94 1
108 96 1
92 74 0
91 81 1
99 88 0
102 95 0
107 98 1
117 104 1
111 100 0
120 109 1
106 91 1
102 90 0
111 96 1
114 102 1
118 106 1
108 96 0
117 105 0
111 102 0
105 87 0
119 107 0
119 110 1
112 99 0
121 107 1
123 112 0
111 97 0
110 99 0
112 94 1
113 99 0
116 100 1
107 89 1
120 106 1
119 105 1
120 108 1
121 104 0
119 106 1
107 94 1
107 96 0
118 105 1
126 115 1
115 97 1
121 108 1
119 109 0
110 93 1
121 106 1
121 109 1
117 98 1
119 108 1
115 102 0
118 106 0
122 107 1
116 103 0
122 111 0
115 99 1
110 90 1
126 113 1
117 101 1
113 101 0
106 95 1
119 108 0
118 105 0
115 106 0
124 111 0
118 104 0
118 106 0
117 109 0
118 103 0
108 93 0
121 109 0
124 114 0
118 106 0
120 109 0
111 101 0
116 102 0
118 97 1
118 103 1
115 96 1
111 97 1
120 107 1
120 103 2
109 90 1
123 110 1
125 113 1
122 105 1
116 100 1
118 100 1
127 112 1
123 110 1
126 112 0
123 112 0
114 98 1
118 107 0
125 106 1
116 101 1
118 101 1
116 104 0
109 92 1
121 107 1
120 107 0
113 101 0
112 97 1
119 109 1
115 100 1
111 97 1
124 114 0
115 102 1
115 106 0
105 88 1
120 107 1
117 97 1
102 86 0
111 95 1
116 104 0
122 138 31
120 136 31
126 142 32
113 128 48
115 129 52
129 145 46
120 135 44
120 136 38
108 123 34
120 134 57
121 136 51
118 133 40
129 146 44
112 125 61
109 123 50
124 139 39
105 120 26
119 134 33
116 131 46
123 138 35
121 136 39
119 135 28
121 137 48
115 128 69
118 133 55
124 139 57
119 134 57
126 141 57
123 139 67
110 124 60
123 138 55
123 139 53
117 130 60
129 145 67
116 131 32
128 145 56
116 132 38
119 134 47
111 125 56
120 135 55
123 141 45
117 132 32
115 129 35
113 127 44
118 135 26
110 125 52
113 127 36
116 131 23
128 143 37
123 139 39
124 141 36
131 149 18
117 133 43
117 131 32
114 130 24
113 128 48
117 133 24
123 139 51
109 124 48
122 137 41
125 141 43
117 132 54
113 127 53
120 135 56
123 141 49
119 134 48
111 124 45
119 135 31
119 134 46
115 130 54
117 132 51
116 132 44
122 140 56
119 134 68
118 132 54
127 145 40
122 139 55
118 133 56
115 130 47
116 131 44
107 121 49
109 124 61
116 130 41
124 140 49
103 117 59
119 136 67
114 128 68
103 117 65
120 134 43
110 125 39
111 126 39
98 111 56
113 129 48
113 127 46
102 115 52
101 114 55
110 125 31
103 118 42
110 125 50
106 120 57
107 120 60
109 124 33
96 109 53
112 127 20
107 123 38
105 119 29
110 124 31
97 111 42
103 117 47
100 113 36
107 122 38
95 108 37
102 115 33
92 104 26
101 113 31
100 113 42
88 99 37
102 115 46
97 110 53
94 107 42
100 112 66
95 106 69
76 85 43
83 95 60
95 107 65
86 95 33
91 101 37
77 86 53
81 91 47
83 94 48
88 98 61
81 89 42
77 87 59
72 81 59
87 98 71
83 93 46
98 110 52
123 138 76
123 137 81
115 129 61
105 120 47
115 129 54
147 167 13
159 183 0
156 177 0
157 177 0
154 175 0
158 180 0
164 186 0
154 173 0
156 179 0
161 184 0
167 189 0
161 183 0
108 125 58
31 50 74
35 56 63
36 57 57
38 59 73
40 63 89
37 59 78
40 62 92
30 47 69
43 68 95
41 65 91
48 75 115
36 57 75
35 57 76
38 61 85
37 60 83
41 64 96
46 72 101
44 69 110
39 62 83
40 64 89
42 65 83
42 66 94
38 60 79
42 66 80
39 61 75
45 71 105
42 66 95
41 66 96
44 69 108
47 74 108
41 64 87
41 64 95
40 64 83
43 68 100
52 81 116
38 61 76
44 68 100
41 64 94
41 64 94
40 63 98
34 53 65
37 57 88
41 63 90
40 63 86
45 70 97
41 64 73
45 71 105
41 64 87
42 66 87
45 71 105
43 66 101
38 60 85
40 64 86
37 59 86
49 77 95
42 67 99
38 60 77
42 66 90
45 71 97
42 65 97
36 58 67
44 68 108
39 61 73
34 54 62
45 69 100
43 67 101
40 63 73
43 68 90
40 62 83
38 60 80
40 61 79
44 68 92
40 63 91
44 69 98
40 64 84
40 62 86
42 66 97
40 62 92
38 61 70
44 69 88
41 64 94
44 67 70
40 62 79
37 58 87
33 50 63
39 59 77
37 55 73
35 55 82
44 67 86
34 53 65
99 114 43
161 180 0
158 179 0
154 175 0
161 182 0
150 172 0
157 176 0
160 183 0
160 180 0
164 186 0
164 187 0
160 181 0
151 165 0
119 109 1
109 96 0
107 96 0
102 86 1
89 75 1
94 77 1
82 71 1
91 73 1
85 65 1
75 63 0
77 62 0
79 66 1
83 64 1
84 61 1
76 56 1
93 73 1
87 73 0
88 71 1
86 68 1
86 69 0
97 83 1
84 71 0
91 73 1
93 75 1
94 74 1
97 80 1
101 85 0
99 91 0
104 92 0
107 94 1
94 79 1
95 77 1
95 84 1
106 94 1
108 98 0
88 70 1
102 93 0
112 104 0
100 88 0
95 80 1
102 89 1
102 83 1
106 92 1
107 97 1
107 96 1
109 96 1
110 99 0
119 106 1
125 115 1
110 98 1
112 101 1
122 108 1
116 102 1
110 95 0
114 99 1
115 100 0
105 87 1
109 88 1
109 96 0
109 89 0
119 107 1
110 94 1
118 105 1
121 112 1
117 101 1
108 91 1
118 105 1
111 94 1
119 103 1
114 101 0
117 106 0
122 109 0
114 99 0
120 101 1
111 96 1
116 101 1
114 98 1
112 96 1
115 99 1
113 92 1
113 100 1
115 100 1
118 105 1
118 100 1
121 109 1
103 90 0
125 116 0
119 110 0
111 96 0
119 104 0
130 119 1
110 95 1
118 107 0
116 106 0
114 98 0
111 98 1
109 94 0
118 107 0
122 109 0
112 97 0
108 97 0
121 107 1
113 98 1
113 95 1
116 102 1
118 102 1
115 101 1
113 97 0
117 97 1
120 104 1
119 103 1
123 110 1
116 100 1
119 100 1
122 108 0
115 100 1
128 113 0
120 103 1
122 109 0
113 94 1
118 102 1
127 115 1
115 101 1
116 103 1
121 107 1
114 99 1
105 87 1
124 116 0
121 107 1
116 104 1
120 106 1
116 103 1
116 97 1
108 91 0
113 97 0
112 93 1
112 96 1
124 112 1
116 100 1
115 101 1
112 98 1
126 113 0
117 132 55
113 127 37
109 123 26
109 123 51
124 141 44
127 143 31
123 137 36
114 129 41
120 136 36
134 151 29
120 135 49
124 139 69
120 135 42
114 128 47
122 138 51
114 128 57
120 134 48
115 130 44
115 130 44
118 133 53
121 136 46
112 126 37
115 129 50
119 134 63
120 134 49
121 137 58
119 133 52
120 135 40
117 131 62
125 141 50
117 133 45
113 127 63
122 139 51
111 125 54
123 138 61
123 138 51
124 140 46
122 138 46
113 128 61
123 138 46
123 138 46
113 126 66
108 123 46
111 126 30
115 130 27
123 138 41
115 131 42
119 135 45
117 132 25
115 130 27
113 129 32
113 128 38
116 132 46
125 141 22
122 139 14
108 123 22
115 130 35
121 135 52
119 135 51
114 128 49
103 116 72
122 138 56
118 134 54
117 134 43
115 129 55
113 127 45
105 120 56
120 135 54
125 142 58
121 137 63
117 132 54
123 139 58
119 134 43
116 132 58
118 134 48
112 127 59
116 132 55
115 130 43
127 144 45
116 132 54
109 125 45
113 129 59
124 140 37
121 137 46
119 136 52
117 132 50
109 122 41
118 134 33
120 137 39
117 134 52
113 126 43
102 116 52
105 118 32
115 131 44
110 123 48
103 118 67
109 124 46
114 129 69
104 116 60
109 124 55
115 131 48
108 122 46
107 122 32
111 124 32
101 115 25
113 129 33
109 123 34
109 125 49
108 123 54
97 111 42
107 120 34
97 111 31
100 112 48
94 108 29
99 111 35
96 108 34
107 120 34
97 108 45
100 112 52
101 114 50
90 102 49
102 114 45
93 104 29
90 101 53
80 90 57
77 87 37
90 101 55
78 89 61
89 99 60
84 94 50
76 86 52
82 91 56
75 85 62
75 87 58
84 94 47
95 107 58
91 102 54
85 96 66
94 106 58
107 122 48
99 111 50
142 160 23
155 176 0
157 178 0
164 187 0
153 171 0
163 186 0
149 171 0
157 178 0
155 177 0
163 184 0
161 183 0
156 177 0
153 173 0
147 167 24
43 62 56
33 52 62
36 57 80
36 57 79
33 52 76
35 55 76
39 62 70
34 54 68
38 61 57
41 65 93
42 67 93
40 64 78
41 64 89
38 61 80
42 65 84
38 61 84
38 60 83
43 69 96
41 65 86
40 63 88
44 70 88
41 65 79
40 64 74
35 57 73
42 66 86
42 65 84
44 69 97
36 58 60
45 71 100
44 68 84
37 59 74
41 64 91
42 66 61
43 67 91
39 63 74
38 61 82
37 58 85
38 61 87
41 63 93
38 61 75
42 66 81
43 67 93
42 65 86
36 58 71
39 62 74
42 67 90
40 62 73
41 64 94
41 65 86
44 70 86
41 64 92
44 69 94
44 70 101
39 62 82
44 68 113
44 68 88
39 61 71
41 64 87
39 62 92
44 70 92
37 59 80
47 73 115
42 66 97
45 70 106
41 64 94
43 67 100
41 66 88
40 61 84
38 59 83
39 60 80
45 71 109
38 59 78
40 63 79
42 66 85
34 54 59
42 64 84
40 63 77
43 67 96
41 64 82
44 67 100
34 52 67
42 64 74
37 57 70
33 50 65
37 59 71
35 53 75
34 51 64
34 52 71
29 44 66
41 51 18
141 162 25
167 190 0
160 179 0
164 185 0
155 175 0
158 177 0
159 180 0
158 178 0
154 173 0
162 185 0
157 179 0
157 178 0
165 187 0
131 130 0
112 97 1
101 85 1
109 97 1
102 81 1
104 89 1
93 76 0
92 78 1
94 72 1
90 70 1
79 58 1
90 78 0
86 65 1
82 64 1
86 73 0
95 77 1
102 81 1
75 55 1
88 71 0
98 81 1
90 73 1
95 81 0
97 83 1
98 84 1
90 75 1
95 79 0
84 68 0
87 69 1
108 100 0
107 94 0
97 84 0
104 88 1
104 93 0
106 93 1
106 96 0
117 107 0
97 88 0
116 106 0
105 93 0
105 95 0
109 93 1
99 85 1
105 95 1
116 103 1
113 102 1
101 87 1
109 96 1
110 94 0
117 103 1
125 110 1
113 102 1
113 97 1
113 102 0
125 114 0
110 93 1
108 96 1
110 95 1
123 109 1
104 88 1
112 97 1
105 92 1
123 110 1
107 89 1
118 108 0
111 95 1
113 95 1
119 104 1
112 101 0
119 108 1
112 95 1
122 106 1
119 111 1
116 100 1
113 96 1
118 104 1
120 107 1
114 101 0
113 98 1
124 112 1
121 107 1
115 100 1
115 97 1
120 106 1
118 108 1
116 105 1
110 96 0
104 87 0
110 98 1
105 91 1
113 100 1
122 109 1
111 99 0
124 114 0
115 101 1
116 102 1
109 95 0
115 99 1
117 101 0
118 107 1
119 104 0
116 104 1
122 108 1
112 95 1
117 101 1
119 107 1
119 105 1
114 98 1
122 109 1
123 105 1
122 109 1
113 96 1
117 103 0
110 96 1
124 110 1
106 82 1
121 108 0
126 117 0
115 100 1
109 92 1
118 110 0
127 116 1
119 109 1
108 91 1
113 96 1
118 107 1
119 107 1
121 110 1
123 107 1
114 104 0
126 114 1
121 109 0
112 95 1
108 90 1
123 110 1
121 109 1
120 108 1
121 108 0
111 96 1
113 98 0
113 101 1
116 106 0
114 98 1
112 127 34
122 138 40
111 125 48
114 128 38
116 130 37
118 133 33
124 141 32
116 131 52
116 131 43
119 133 38
123 141 28
120 136 46
117 132 60
119 135 42
121 136 59
108 123 57
117 132 45
129 147 29
108 122 55
120 135 36
119 135 67
110 126 60
122 137 43
115 130 60
122 139 51
118 133 59
116 130 44
110 125 46
126 142 48
125 141 50
105 118 48
113 128 51
117 132 63
120 135 53
122 137 55
117 132 39
126 143 53
120 135 51
118 135 49
119 134 56
115 131 55
117 133 38
116 131 25
116 131 39
120 136 39
118 133 47
122 139 39
124 141 45
114 129 44
119 134 33
113 128 32
110 123 32
113 129 22
118 134 32
115 130 25
106 120 47
114 129 33
106 119 52
118 133 61
118 133 20
124 140 33
114 129 46
116 132 51
108 123 34
103 116 43
108 123 53
110 125 72
124 140 48
116 131 58
127 143 35
110 125 67
109 123 43
113 129 63
118 135 54
105 118 49
116 132 63
113 128 55
111 124 50
113 126 53
125 142 47
115 129 36
108 122 58
109 125 57
110 124 36
118 135 50
125 141 51
109 123 55
111 124 44
113 129 61
111 126 41
111 125 55
108 122 41
110 124 60
111 125 33
107 122 59
115 130 29
99 112 45
108 123 68
112 127 45
105 120 35
97 110 35
116 131 40
108 121 44
99 114 30
105 120 44
93 106 41
104 118 42
86 98 16
109 122 36
106 121 32
103 119 36
100 114 30
100 114 32
102 115 44
94 107 38
93 104 52
93 105 35
102 116 58
91 104 51
94 106 54
82 93 40
95 106 51
107 120 40
98 110 70
87 98 63
93 104 59
82 93 50
83 92 41
98 109 66
68 76 41
93 105 58
84 93 65
66 76 45
84 95 65
92 104 80
92 103 61
103 115 58
113 126 72
103 115 60
108 120 47
118 134 55
158 180 7
162 184 0
164 184 0
159 181 0
157 178 0
157 179 0
150 172 0
155 176 0
164 187 0
162 184 0
159 180 0
160 181 0
155 177 0
151 172 0
106 122 42
31 50 62
32 51 71
39 62 64
35 55 74
37 59 74
38 61 71
42 67 97
45 71 97
37 58 76
36 57 91
43 69 98
34 54 48
40 63 92
39 62 85
39 61 86
45 72 107
39 61 85
42 67 96
39 61 94
39 61 81
46 72 100
39 62 78
38 60 81
43 68 90
43 68 100
43 67 86
42 66 92
41 65 88
35 55 67
46 72 101
45 71 89
40 63 87
48 74 124
39 62 79
43 66 93
44 70 105
46 71 102
40 63 99
42 66 93
41 64 95
42 65 89
40 63 83
45 71 90
41 64 91
46 73 97
36 58 88
43 68 99
44 68 96
36 58 69
48 75 106
35 55 74
44 70 94
38 59 73
39 61 89
46 71 102
37 59 85
47 73 101
39 62 91
42 65 93
39 61 79
39 62 86
46 71 100
37 60 69
39 62 81
45 70 94
38 61 72
45 70 87
37 59 71
36 56 77
45 71 91
44 68 104
34 53 72
37 58 86
38 58 71
41 64 87
37 57 70
43 68 86
39 61 75
43 66 87
41 64 73
37 58 74
35 55 72
35 55 65
36 54 69
35 55 55
38 59 68
37 57 76
36 54 79
117 133 29
150 170 0
154 176 0
159 180 0
146 166 0
155 177 0
158 179 0
149 168 0
159 181 0
153 174 0
154 174 0
160 181 0
152 172 0
159 179 0
153 173 0
96 85 0
103 84 1
106 94 1
110 98 1
105 89 1
89 75 1
88 66 1
87 70 1
89 69 1
86 70 0
80 62 0
75 58 1
95 81 1
90 71 1
88 69 1
90 70 1
82 64 1
90 74 1
73 58 1
98 86 0
84 67 1
98 83 1
99 89 1
77 64 0
87 68 0
101 84 1
103 89 0
92 76 1
94 81 0
98 87 0
94 80 0
102 91 1
104 90 1
109 98 0
106 94 1
100 82 1
105 90 1
109 93 1
111 99 0
111 97 0
121 112 0
96 82 1
109 95 1
98 84 1
115 101 0
108 94 0
108 91 0
111 101 1
99 87 1
120 108 1
114 98 1
102 84 1
116 99 1
112 101 1
107 91 1
119 104 1
113 103 1
112 98 1
112 98 1
122 110 1
103 85 1
116 100 1
113 99 1
116 103 1
121 110 1
115 101 1
121 108 1
112 93 1
117 98 1
105 86 1
111 100 0
118 104 1
113 96 1
113 100 1
115 100 1
116 101 1
114 101 1
111 98 1
116 106 0
114 98 1
119 105 1
106 90 1
116 105 1
111 101 0
110 97 1
109 99 0
106 97 0
116 107 1
117 101 0
114 105 0
124 115 1
117 106 0
109 94 0
120 111 0
115 101 1
112 102 0
111 100 0
119 108 1
108 95 1
131 118 1
110 97 0
123 107 1
115 95 1
118 103 1
125 115 1
120 104 0
118 102 1
111 94 1
121 103 0
109 90 1
120 105 1
120 103 1
113 97 0
116 95 0
121 109 0
123 103 1
116 100 1
117 101 1
123 111 0
114 100 1
117 107 0
123 113 1
109 92 1
116 103 0
113 101 0
112 92 1
117 104 1
120 106 1
111 96 1
109 98 1
115 93 1
117 104 1
108 92 1
110 97 0
124 112 1
124 113 0
116 100 1
107 91 0
125 115 0
113 99 0
117 103 1
117 132 45
118 133 62
130 147 35
110 124 31
118 134 45
115 130 39
115 131 42
114 127 61
114 129 50
122 138 30
122 138 63
128 144 45
113 127 44
119 134 44
126 143 42
124 141 59
119 134 52
109 123 52
116 130 51
117 131 43
106 120 60
119 134 26
125 142 34
113 129 44
125 141 49
128 144 53
108 122 53
122 138 36
117 132 47
122 137 45
121 138 42
113 127 58
123 139 41
117 133 57
108 121 47
115 128 53
127 142 57
123 140 35
110 125 57
120 135 48
121 138 49
122 136 42
124 141 54
116 131 51
113 129 55
121 137 37
114 129 24
112 127 32
117 132 45
113 128 47
110 125 34
106 119 30
110 124 47
110 124 35
104 118 51
123 140 20
121 136 16
120 138 0
111 125 42
120 136 34
106 121 53
119 133 37
115 129 52
108 123 42
108 124 41
111 126 54
117 133 46
118 134 53
116 132 36
110 125 57
118 134 54
116 131 68
116 131 48
109 123 39
105 120 49
116 132 39
116 130 51
106 119 56
103 116 45
116 130 37
112 127 32
116 130 55
122 139 53
108 122 51
115 130 44
117 132 42
111 123 47
114 130 39
116 133 47
114 129 54
104 118 32
112 129 51
110 124 34
117 131 44
108 123 37
106 122 54
108 124 40
108 123 35
108 123 42
105 119 43
108 124 44
106 118 13
112 126 42
102 115 31
97 112 38
94 107 42
91 101 54
81 93 45
98 111 46
96 109 41
97 109 39
100 113 45
88 100 29
94 106 46
99 112 41
90 102 33
94 106 47
89 102 56
89 102 46
91 102 30
99 112 49
91 103 66
101 112 58
80 90 51
107 119 69
85 96 59
87 98 31
92 103 40
100 110 55
82 93 56
87 98 39
89 100 66
90 100 59
81 91 55
99 109 73
96 109 64
93 103 58
95 107 49
106 119 59
116 130 41
146 165 15
152 173 0
154 176 0
162 182 0
158 180 0
153 175 0
162 184 0
142 163 0
162 184 0
155 176 0
153 174 0
148 167 0
157 179 0
145 165 0
151 172 0
135 153 22
60 74 41
35 54 62
37 59 73
32 51 55
31 48 57
41 63 87
33 53 63
40 63 71
40 64 83
42 65 83
39 62 83
40 62 86
40 63 81
39 62 80
44 69 97
40 64 93
39 61 70
39 62 77
41 65 97
38 60 87
46 72 88
45 71 96
43 68 82
36 58 73
43 68 91
47 75 107
46 72 96
43 67 92
44 68 98
41 64 82
34 53 75
38 60 69
45 71 95
43 67 97
42 66 85
38 60 84
38 61 72
41 65 93
43 69 86
45 72 91
37 60 56
40 63 78
41 65 83
36 56 76
47 73 89
41 64 87
47 74 100
42 66 85
45 70 112
39 60 80
45 71 94
50 78 106
40 63 82
43 67 101
39 61 75
41 65 73
39 62 82
41 64 93
40 64 87
40 63 93
40 62 78
41 64 72
38 60 83
38 60 81
43 66 95
45 69 98
40 64 79
43 67 98
41 65 89
44 69 90
42 64 88
31 49 62
39 59 76
42 64 77
40 61 92
37 58 83
35 54 71
41 63 82
32 48 49
40 62 71
39 61 80
39 60 71
40 61 81
37 57 77
43 66 88
33 50 58
31 46 62
57 73 55
148 167 0
164 185 0
156 177 0
161 182 0
159 180 0
161 181 0
155 176 0
165 187 0
160 181 0
163 185 0
149 170 0
155 174 0
159 180 0
159 179 0
158 179 0
150 164 0
111 99 0
99 88 0
101 83 1
95 73 1
92 77 1
89 71 1
72 53 1
71 54 0
85 66 1
83 66 1
84 64 1
79 63 1
89 72 1
80 65 1
95 77 1
94 72 1
88 74 1
79 63 1
97 77 1
96 75 1
106 89 1
87 74 1
98 80 1
89 64 1
111 98 1
99 85 1
102 88 1
111 99 0
96 79 0
97 84 1
112 96 1
103 91 0
94 81 0
119 107 1
109 90 1
110 98 1
109 99 0
108 93 0
96 83 1
114 104 1
100 86 1
104 91 1
110 95 1
115 103 1
107 96 1
117 105 1
109 97 0
119 108 0
112 95 1
118 105 0
115 103 1
109 95 1
115 99 1
110 95 1
114 98 1
113 96 1
112 95 0
108 96 1
118 105 1
113 100 1
117 101 1
111 97 1
119 104 1
119 101 1
117 99 2
115 99 1
107 91 1
121 110 1
103 92 0
122 111 0
119 105 1
113 97 1
111 96 0
109 90 1
112 99 1
117 104 1
114 100 1
120 107 1
105 90 1
117 105 1
114 100 1
109 95 1
113 96 1
116 106 0
104 92 0
113 100 1
114 103 0
111 101 0
104 91 1
109 96 1
108 92 1
111 98 0
112 98 0
107 90 1
119 106 1
120 106 1
114 98 1
115 101 1
110 95 0
116 102 1
113 97 1
122 109 0
122 102 1
118 102 1
117 100 1
117 101 1
119 103 1
118 102 1
112 96 1
109 94 0
122 104 1
119 103 1
112 94 1
124 113 1
120 104 1
119 102 1
126 115 0
123 114 1
110 91 1
126 112 1
126 112 1
115 101 1
107 91 0
107 95 1
114 100 1
121 111 0
111 98 1
119 105 0
117 108 0
119 107 0
111 95 1
100 82 1
116 101 1
120 105 0
114 102 1
129 116 0
120 105 0
120 104 0
115 104 1
115 99 1
119 134 54
117 133 41
118 134 47
120 135 49
123 139 34
118 132 43
120 135 26
124 141 45
121 137 43
115 131 45
126 143 27
115 130 50
117 131 30
112 128 48
113 127 40
119 134 54
118 133 32
122 138 45
114 130 41
111 127 50
114 128 41
120 136 48
119 135 42
108 123 45
113 127 41
124 140 43
117 132 46
123 138 64
123 139 46
126 142 55
128 145 48
124 140 53
119 135 45
121 136 60
114 128 39
112 127 49
120 135 63
122 137 44
114 130 57
110 125 35
108 122 68
123 139 48
117 132 33
124 140 38
127 144 35
118 133 35
114 128 34
116 131 38
112 127 41
121 138 50
113 127 21
106 120 29
108 122 41
119 134 45
111 126 35
116 131 14
118 134 47
113 128 40
113 128 53
110 125 42
114 130 49
109 124 32
119 134 51
117 132 47
110 125 54
105 118 26
117 134 56
119 135 40
123 139 52
119 135 42
123 139 45
122 138 58
116 131 36
104 118 42
121 135 46
110 125 31
115 130 55
125 142 42
117 133 60
115 128 46
115 129 33
116 131 53
116 131 55
115 130 52
116 132 51
108 121 26
111 127 50
111 126 36
116 131 54
114 128 45
110 125 46
115 130 31
104 118 47
115 131 37
106 121 39
111 126 39
111 126 30
114 130 39
107 122 53
105 120 44
91 104 24
114 130 47
106 120 36
113 128 64
99 114 61
107 121 22
101 116 59
107 121 53
101 115 41
102 116 49
90 102 43
103 115 56
106 121 59
97 109 52
85 96 41
103 116 55
108 122 41
93 106 47
92 104 55
91 103 67
97 110 51
104 117 70
88 100 37
89 100 53
85 95 53
85 96 51
90 100 54
89 100 54
80 91 67
78 87 39
79 89 53
78 88 52
79 88 66
102 115 51
80 89 52
99 112 64
86 98 63
96 107 34
104 117 49
130 147 38
156 176 0
155 174 0
152 173 0
154 175 0
159 180 0
148 168 0
156 176 0
149 169 0
144 164 0
146 166 0
152 173 0
154 176 0
152 172 0
151 170 0
151 173 0
159 180 0
130 145 28
36 56 69
35 55 70
35 55 72
37 59 74
43 68 88
39 61 80
38 60 77
48 74 99
39 61 71
42 65 92
45 70 101
43 67 95
39 62 87
41 64 84
41 65 89
36 56 73
37 59 65
38 60 74
41 64 98
37 58 86
41 64 82
41 66 82
36 56 82
36 56 66
49 77 119
44 69 89
40 63 87
44 69 107
44 69 97
43 68 90
42 66 99
40 62 84
37 59 71
47 73 106
38 60 91
42 66 91
40 64 94
43 68 99
44 69 95
35 56 79
37 58 82
39 60 84
45 71 104
47 74 106
41 65 76
42 65 93
42 65 83
39 61 79
37 58 80
43 68 86
36 56 87
39 61 83
34 54 73
40 64 88
36 57 66
38 59 98
43 68 94
42 65 81
39 62 79
40 63 80
41 65 77
44 69 93
39 62 82
42 66 89
42 64 92
44 69 101
42 66 87
39 61 74
37 57 90
40 63 91
43 67 85
39 60 54
40 62 83
49 75 113
37 57 75
40 62 78
42 66 82
47 72 96
32 51 68
37 57 70
39 59 73
38 58 74
34 52 70
35 54 70
35 55 74
35 53 60
139 157 25
154 174 0
154 174 0
153 173 0
156 174 0
151 171 0
151 172 0
150 171 0
157 175 0
162 183 0
153 172 0
155 176 0
157 178 0
155 176 0
155 175 0
155 175 0
155 176 0
141 147 0
104 91 0
104 90 0
110 93 1
96 79 1
93 72 1
79 61 1
83 62 1
75 52 1
81 65 1
86 63 1
74 56 1
75 60 0
92 77 1
88 72 0
80 64 0
85 66 0
96 78 1
82 65 1
105 90 1
93 77 1
105 81 1
110 93 1
95 77 1
100 85 0
106 94 0
88 75 0
95 80 1
103 89 0
100 89 1
104 92 0
88 71 0
102 93 0
106 93 1
102 87 0
112 101 0
98 86 1
108 99 1
94 77 1
108 98 0
114 100 0
107 98 0
119 107 0
97 86 1
107 89 1
103 88 0
99 85 0
100 85 1
110 96 1
115 105 1
111 100 0
121 108 0
106 94 0
108 91 1
113 100 0
125 115 1
107 93 1
112 97 1
113 94 0
109 94 1
111 99 1
111 95 1
108 90 1
111 93 1
114 100 1
120 107 0
112 98 1
109 96 1
117 107 0
117 104 0
113 100 0
122 113 1
112 97 0
115 103 1
118 105 0
107 96 0
98 87 0
120 111 0
116 108 0
111 97 1
118 107 1
108 89 1
104 89 0
107 93 1
112 97 1
109 100 0
113 95 1
119 104 1
116 103 1
118 103 1
100 88 0
120 107 1
117 106 1
120 105 1
117 105 0
122 111 1
107 84 1
124 114 1
122 105 1
114 99 0
119 102 1
111 92 1
119 108 0
117 106 0
116 97 1
112 100 1
109 90 1
120 102 1
118 101 1
116 97 1
117 102 1
110 88 1
118 103 1
115 103 1
130 117 1
114 101 1
120 108 1
117 100 1
123 111 1
112 102 1
118 101 1
108 96 1
113 99 1
117 102 1
110 96 1
119 103 1
118 108 1
117 106 0
110 96 1
120 108 0
116 101 1
105 88 1
119 106 1
115 102 0
120 109 1
115 96 1
116 102 0
115 99 1
120 106 0
121 104 1
125 141 49
111 127 50
124 140 54
118 133 49
124 138 50
112 125 42
122 137 41
118 133 46
115 129 61
106 120 37
115 131 47
121 137 64
118 134 42
108 121 53
118 134 54
108 123 34
114 128 42
122 139 44
115 130 27
121 137 58
121 136 31
115 130 64
115 129 45
123 139 44
117 132 46
121 136 66
123 138 60
127 145 54
117 132 58
103 116 56
116 131 51
127 144 55
118 133 50
118 133 40
121 137 59
123 139 54
120 135 62
121 137 67
116 131 50
119 134 50
115 130 36
112 126 54
119 133 45
117 133 33
123 139 54
113 128 48
118 135 39
126 142 33
124 140 21
119 136 50
123 140 35
116 131 32
118 134 38
122 138 40
119 134 39
109 124 28
107 122 25
105 119 36
120 136 38
124 140 56
115 130 64
119 133 44
111 126 53
112 128 35
117 133 46
120 137 41
115 132 49
109 122 45
109 125 52
119 136 45
112 127 55
118 133 40
121 137 43
103 115 21
108 123 49
112 127 48
114 130 47
112 127 50
119 136 44
111 126 50
114 130 38
105 120 30
107 121 51
109 124 50
102 116 43
110 126 32
110 126 61
109 123 52
117 133 56
115 132 40
100 113 45
112 126 23
110 126 44
111 125 36
101 114 48
111 126 41
107 121 45
111 125 36
110 124 4
92 106 42
96 109 41
103 116 46
106 120 49
99 113 38
98 111 50
120 135 44
100 114 43
98 112 42
99 114 41
105 117 21
103 117 50
93 105 42
99 111 47
87 98 59
96 108 59
108 122 63
96 109 57
91 103 54
95 107 49
96 108 47
93 104 62
96 107 44
96 108 55
95 107 69
93 104 47
77 87 42
85 95 50
91 102 62
91 102 53
84 95 48
82 92 58
86 96 62
87 97 73
85 94 65
101 114 51
106 118 60
91 102 39
109 123 48
119 135 46
152 173 0
153 173 0
160 182 0
157 180 0
158 180 0
161 182 0
155 176 0
154 176 0
142 161 0
154 175 0
157 180 0
150 172 0
152 173 0
151 171 0
158 179 0
154 175 0
144 166 0
158 179 0
102 119 41
37 58 83
32 50 61
34 53 62
37 58 67
37 58 80
38 59 86
36 57 75
35 56 74
42 66 97
38 61 78
39 62 79
33 53 63
39 63 90
38 60 76
39 62 72
42 65 93
42 66 77
41 65 83
40 63 86
44 69 105
40 64 81
37 59 64
44 68 101
38 61 74
39 62 82
40 63 80
41 64 93
36 58 79
42 66 94
43 68 82
34 55 71
41 65 89
32 51 66
42 66 74
40 64 88
37 59 83
41 65 84
45 71 90
41 66 72
45 71 89
43 67 94
46 72 104
30 47 71
42 66 92
37 58 79
47 74 93
30 47 73
42 66 85
36 56 86
41 63 85
40 63 83
44 69 101
38 60 60
39 62 74
42 66 86
38 60 71
41 64 85
40 63 92
37 58 72
42 66 93
41 65 76
41 65 70
42 65 84
37 58 65
43 68 90
42 65 82
39 61 86
35 51 63
42 64 74
40 62 95
42 65 74
40 64 84
41 64 82
38 59 70
41 63 94
36 56 86
40 62 79
36 55 76
42 64 97
36 54 68
33 50 71
37 56 70
33 50 65
33 50 54
91 108 41
147 165 0
148 167 0
154 174 0
150 169 0
151 168 0
155 175 0
152 171 0
154 175 0
153 171 0
150 171 0
153 172 0
164 185 0
149 167 0
153 174 0
155 173 0
163 183 0
156 175 0
161 182 0
123 123 0
109 90 0
101 87 0
99 80 1
98 84 1
102 82 1
86 70 1
82 69 1
85 65 1
84 71 1
87 72 0
85 71 0
101 86 0
96 81 0
78 59 1
90 80 0
99 81 1
96 77 1
85 69 1
104 88 0
108 87 1
95 79 1
91 70 1
98 88 0
91 78 0
104 88 1
98 77 1
104 87 1
93 77 1
95 80 0
95 79 1
100 84 1
96 81 1
95 85 0
98 82 1
107 95 1
108 101 0
107 98 0
102 86 1
106 94 0
96 83 0
119 106 1
107 96 1
104 90 1
119 107 1
122 108 1
109 98 0
96 83 1
112 103 1
109 98 1
116 107 0
108 95 1
110 92 1
107 95 0
105 93 1
104 90 1
98 83 1
117 103 1
110 93 1
103 84 1
118 106 0
110 97 1
124 112 1
110 97 1
114 97 1
116 100 1
120 105 1
119 108 0
118 103 1
108 88 0
99 85 0
107 94 1
112 96 1
119 103 1
115 102 0
114 100 1
109 92 1
119 107 1
117 105 0
113 100 1
111 97 0
109 95 1
117 106 0
110 96 0
108 92 1
112 100 0
117 104 0
119 101 1
116 105 0
115 95 1
119 108 1
122 111 1
105 87 1
118 103 0
120 104 1
122 107 1
115 102 1
125 114 0
118 100 1
120 101 1
120 104 2
113 97 1
121 96 2
118 102 1
122 110 0
116 96 0
115 100 1
122 110 1
120 104 1
117 103 0
118 101 1
109 94 1
125 106 1
124 110 1
119 104 1
115 104 0
127 113 1
118 105 0
120 105 1
115 105 0
113 98 1
118 100 1
109 96 1
130 119 0
108 94 0
120 110 0
117 102 1
110 97 0
111 98 0
116 102 1
111 99 1
114 97 1
115 103 0
124 110 0
119 105 0
110 95 1
124 115 0
120 104 0
121 105 0
113 126 39
117 132 37
118 133 47
113 127 65
122 137 52
115 129 45
113 129 49
112 126 54
119 134 46
109 123 54
115 130 35
112 128 38
110 124 20
120 136 36
116 131 57
120 135 49
129 146 50
110 123 42
121 138 46
114 128 48
113 128 39
111 125 52
113 128 48
115 130 48
120 136 43
102 115 49
116 131 45
120 135 51
115 130 55
121 137 51
115 129 61
117 132 49
120 135 52
124 140 47
120 136 49
117 133 58
126 142 55
121 136 62
119 133 42
119 134 36
124 139 51
117 132 59
113 127 37
121 137 35
118 134 48
116 131 38
116 132 46
112 128 39
126 144 31
117 133 45
119 134 40
115 130 56
111 127 57
115 129 42
118 133 47
105 121 55
113 129 35
123 138 32
116 133 46
118 133 46
126 143 63
117 132 42
114 130 38
122 138 53
117 131 23
108 122 41
113 128 33
116 131 51
111 127 39
119 135 59
123 138 36
111 126 70
118 133 51
121 138 35
108 123 49
98 111 46
109 123 33
120 136 41
106 121 58
120 136 23
100 115 57
113 128 36
121 137 29
114 129 23
110 126 38
105 120 47
98 110 32
107 121 47
94 107 43
105 118 41
117 133 53
102 115 61
112 128 38
109 123 35
103 116 38
107 121 54
108 124 49
118 134 26
113 128 42
106 120 47
100 114 31
105 120 52
92 104 49
90 102 46
103 116 55
100 112 58
97 109 31
100 112 41
103 117 34
91 102 23
98 111 53
105 119 44
98 110 62
106 120 45
112 124 52
89 103 55
97 108 60
93 105 51
98 112 46
101 112 51
87 97 36
97 110 65
100 112 50
85 96 58
101 113 54
88 99 43
87 96 62
77 87 59
83 94 53
79 89 58
88 100 56
93 103 53
85 94 55
103 116 58
92 103 64
102 115 39
98 112 44
103 116 46
148 168 9
155 175 0
163 184 0
145 165 0
156 177 0
146 166 0
161 182 0
148 169 0
154 176 0
152 174 0
149 169 0
148 168 0
150 170 0
152 173 0
145 165 0
157 178 0
135 154 0
157 177 0
149 169 0
152 173 0
51 66 50
37 57 65
33 52 55
33 52 70
34 54 55
38 59 87
32 51 48
37 58 83
42 66 78
41 64 82
32 51 51
41 64 80
40 63 68
38 59 74
43 67 83
40 63 97
40 63 87
41 65 87
38 60 80
42 67 89
41 64 91
41 64 92
46 71 100
38 60 80
39 61 70
39 61 87
43 68 85
38 59 70
39 61 76
30 48 62
39 61 67
36 56 71
37 58 76
40 62 90
47 74 112
44 70 89
42 66 86
42 66 91
45 71 94
42 66 93
42 66 101
39 60 102
43 68 89
40 63 83
43 67 93
43 68 81
41 64 89
45 71 92
39 62 80
39 63 88
43 68 89
41 64 98
40 63 80
39 61 85
36 57 73
48 76 105
37 58 75
43 67 97
42 66 100
45 71 94
44 67 95
42 67 82
35 56 74
37 59 89
36 57 65
41 63 90
39 60 86
35 55 79
40 62 80
43 66 90
29 46 34
38 59 79
40 63 87
36 56 70
37 59 88
36 57 46
40 61 79
36 56 66
41 63 73
35 53 72
33 51 74
37 55 57
35 53 71
60 70 33
147 167 0
151 170 0
146 165 0
148 168 0
140 159 0
150 170 0
150 171 0
158 180 0
147 166 0
156 175 0
156 176 0
157 178 0
161 181 0
155 174 0
158 178 0
149 170 0
155 176 0
162 183 0
152 170 0
150 167 0
126 120 0
104 88 0
84 68 0
96 73 1
105 88 1
89 71 1
76 61 0
76 60 0
87 75 0
74 54 0
92 77 1
97 80 1
93 75 0
100 82 1
76 55 1
90 70 0
96 83 1
91 71 1
93 78 0
88 73 1
96 76 1
99 88 1
103 88 1
107 92 1
100 83 1
103 87 1
103 87 0
95 76 1
94 80 1
107 91 1
101 87 1
101 88 0
105 95 0
107 93 0
102 91 0
112 100 1
103 91 1
105 95 0
113 100 0
100 86 0
100 88 0
105 90 1
114 102 0
109 96 0
101 88 1
106 93 1
111 99 0
122 109 1
112 97 1
120 108 0
114 101 0
112 99 1
101 82 1
114 100 0
113 98 1
114 101 1
105 89 0
104 91 1
114 102 1
112 98 1
119 107 1
116 103 0
112 95 1
101 87 1
103 92 0
117 104 1
108 95 1
111 96 1
115 100 1
111 90 1
109 92 1
116 105 1
112 99 1
112 100 0
111 96 1
115 100 1
111 93 1
111 93 1
119 108 1
117 99 1
110 90 1
110 96 1
110 92 1
108 97 0
108 92 1
114 101 1
105 93 0
111 96 1
111 92 1
112 96 0
114 101 1
112 96 1
111 94 1
118 107 0
119 108 0
115 97 1
121 105 1
115 103 1
116 101 1
119 103 1
114 97 1
116 98 1
116 102 0
112 94 1
118 101 1
115 97 1
120 108 0
121 109 1
117 101 1
120 102 1
111 91 1
117 100 1
111 94 1
106 90 1
114 100 1
120 108 1
126 114 1
118 103 1
118 106 1
112 98 1
121 107 1
123 109 1
112 97 1
111 95 1
116 101 1
108 92 0
113 101 0
113 100 0
104 89 0
117 102 1
125 113 1
119 102 1
115 101 1
114 103 0
121 107 1
114 98 0
116 100 0
115 98 1
109 123 49
120 136 40
119 133 55
120 136 49
122 135 46
111 125 24
105 118 41
118 133 38
122 138 39
116 131 48
107 118 44
117 131 56
121 137 44
109 124 46
103 115 50
112 126 47
115 131 39
115 132 48
123 138 46
112 128 51
115 130 51
116 132 77
120 136 41
126 143 61
112 127 34
127 143 45
117 132 67
128 145 55
112 128 57
115 130 50
123 141 42
119 135 43
125 142 40
117 132 47
115 129 53
122 138 28
119 134 33
118 133 56
121 137 62
111 126 63
113 127 64
120 135 68
115 129 43
118 135 50
119 135 41
120 136 28
119 134 37
117 132 34
123 138 41
107 121 52
122 138 47
109 124 48
119 135 48
118 135 53
108 122 34
109 123 35
115 130 42
121 137 44
120 137 50
117 134 46
116 131 46
107 120 26
106 120 39
122 137 34
103 118 51
111 126 43
114 129 52
114 129 31
119 135 38
100 113 49
122 137 25
117 133 48
113 127 42
112 128 29
112 127 29
112 126 43
114 131 49
118 134 56
106 120 44
110 125 38
107 122 42
110 126 50
113 128 47
120 135 29
100 114 24
104 118 46
110 125 41
121 136 35
108 122 37
105 118 39
116 131 60
106 121 51
106 119 35
110 125 53
103 117 49
102 116 45
104 117 36
110 124 36
107 121 36
109 123 45
91 103 37
98 110 29
93 105 41
111 124 38
108 122 47
103 117 42
102 116 64
95 107 46
99 111 52
98 111 42
104 117 35
102 115 34
94 107 59
101 114 52
101 114 38
91 103 57
99 111 56
96 109 47
106 117 33
83 94 65
87 100 70
87 98 55
85 95 55
87 98 48
95 106 74
104 116 58
72 82 54
93 103 51
91 100 52
76 86 61
98 109 60
83 93 60
96 108 67
91 102 74
109 121 51
104 115 45
125 140 44
146 166 25
147 168 0
160 182 0
147 166 0
149 169 0
141 157 0
153 174 0
144 163 0
150 171 0
153 174 0
148 168 0
161 183 0
158 180 0
146 164 0
150 171 0
144 166 0
154 175 0
150 171 0
147 168 0
148 170 0
142 162 0
130 150 38
45 65 69
36 56 73
43 67 100
40 62 84
35 56 73
37 59 62
40 64 74
37 57 79
35 56 53
40 63 83
42 66 89
40 63 79
43 67 104
37 59 76
43 67 90
44 69 87
40 63 71
42 66 79
36 59 68
40 62 76
43 68 86
38 60 75
37 58 82
41 65 79
37 59 66
43 67 106
40 64 90
41 64 82
42 66 90
40 62 90
39 61 70
40 64 91
42 64 99
40 62 79
40 63 75
41 65 79
37 58 78
45 71 89
37 58 62
42 67 78
41 64 87
36 58 66
34 54 66
38 59 80
43 67 94
33 52 65
40 63 90
36 58 74
45 70 94
40 63 76
41 63 94
38 60 81
38 59 61
46 72 100
40 63 91
36 58 86
41 64 92
40 62 83
42 65 82
41 65 81
45 70 90
42 66 78
40 63 86
38 60 66
33 51 67
39 62 77
41 64 90
36 56 60
36 55 71
39 60 69
40 62 74
42 66 86
38 58 37
35 56 73
32 50 54
39 60 80
35 55 80
35 53 62
32 51 56
34 49 66
36 55 53
39 55 31
139 156 25
139 158 0
153 173 0
149 168 0
149 169 0
148 166 0
152 172 0
155 174 0
144 163 0
139 157 0
149 168 0
154 173 0
154 171 0
145 163 0
158 179 0
159 180 0
147 165 0
152 170 0
155 175 0
142 160 0
159 177 0
148 162 0
119 108 0
101 83 1
99 87 0
98 78 1
91 72 1
96 79 0
81 63 1
87 70 0
90 76 0
89 69 1
88 76 0
87 75 0
88 70 1
85 73 0
70 52 0
99 79 1
73 61 0
107 96 1
92 76 1
94 76 1
93 82 0
99 81 1
94 72 1
93 69 1
93 77 1
91 77 0
94 73 1
107 91 1
97 83 1
101 89 0
96 82 0
98 88 1
110 95 1
97 83 1
108 94 1
102 87 0
117 110 0
110 98 1
96 79 0
106 94 0
103 90 1
114 100 1
111 99 1
100 90 0
103 91 0
112 97 1
106 96 0
104 90 0
113 101 1
116 105 1
108 95 1
116 105 0
111 95 1
110 99 1
118 102 1
108 95 1
121 105 1
98 86 0
101 84 1
106 92 1
116 105 1
107 94 0
109 92 1
108 92 1
110 98 1
114 98 1
112 96 1
104 91 1
114 102 1
110 91 1
104 91 1
111 98 1
122 108 1
109 95 1
103 88 1
111 97 1
113 98 1
123 109 1
119 106 1
114 100 1
110 97 1
125 112 1
124 112 0
120 108 1
112 95 1
112 94 1
118 102 1
117 101 1
112 95 1
115 100 1
119 102 2
118 101 1
125 109 1
120 105 1
113 95 1
111 94 1
121 102 1
108 88 1
113 100 0
111 90 1
126 112 1
119 101 1
120 105 1
111 97 1
123 113 1
113 96 1
105 85 1
108 91 1
120 103 1
118 105 0
118 102 0
108 92 0
110 98 1
120 107 1
107 95 1
115 98 1
113 101 1
124 109 1
112 100 1
115 103 0
105 88 1
110 95 1
114 100 1
120 110 1
121 103 1
115 103 1
113 101 0
117 101 1
109 98 0
112 94 0
123 108 1
122 111 0
129 118 0
119 105 0
122 108 0
118 104 1
110 94 0
114 128 57
107 120 50
121 137 62
126 142 54
112 126 46
116 131 54
118 134 53
125 141 19
112 127 52
115 131 43
121 137 47
120 134 52
113 128 52
118 133 57
113 127 42
110 125 58
117 132 40
114 127 33
107 121 54
112 127 54
123 139 59
110 124 49
115 129 55
118 132 44
109 124 46
117 132 45
117 133 50
113 129 40
116 131 47
108 122 37
119 134 53
121 137 37
117 132 53
120 135 37
116 131 48
118 132 59
113 128 59
107 122 70
117 133 63
115 130 56
119 133 50
123 140 47
127 142 49
116 131 56
116 130 74
131 148 42
119 134 43
114 129 37
115 129 39
117 133 46
111 126 40
117 132 50
117 132 41
126 143 37
105 118 61
106 120 60
114 129 56
106 120 40
115 129 55
111 127 52
123 139 42
110 125 53
121 136 47
116 132 19
119 136 32
105 119 45
108 123 52
105 120 46
117 132 54
109 124 69
119 135 42
114 129 32
116 131 35
105 119 55
120 136 56
106 119 29
100 115 41
107 122 48
108 123 37
99 111 36
106 120 54
104 118 42
108 123 29
116 131 42
108 123 43
119 134 28
107 121 34
108 121 36
105 119 43
115 129 32
114 128 49
121 137 48
101 115 49
103 116 40
110 124 47
101 114 16
108 121 39
116 128 34
98 110 38
109 124 44
99 113 38
103 116 51
106 119 35
94 107 44
104 117 31
97 111 44
104 118 63
97 109 54
85 96 53
103 116 52
96 108 48
92 104 45
105 118 59
88 99 45
101 113 56
89 100 58
91 102 60
103 117 39
94 105 57
99 111 53
94 105 49
84 95 35
90 102 39
93 103 50
76 87 49
89 102 52
95 105 54
95 106 47
94 105 62
88 98 50
97 108 66
93 104 60
95 106 68
99 113 41
94 107 48
103 114 64
136 154 29
161 182 0
149 170 0
139 159 0
147 167 0
148 169 0
139 158 0
146 166 0
159 179 0
148 168 0
153 175 0
147 168 0
155 176 0
145 166 0
153 173 0
131 150 0
151 171 0
143 164 0
154 175 0
149 169 0
146 168 0
144 164 0
133 152 0
122 140 27
35 55 65
37 58 68
37 59 74
31 49 59
35 57 76
37 59 87
34 54 57
34 54 70
32 51 54
39 61 75
39 60 81
39 62 87
34 54 68
37 58 76
37 58 74
44 69 97
39 62 69
45 70 104
44 69 88
41 65 89
37 59 70
40 63 75
37 59 79
37 59 83
41 64 90
42 66 82
37 58 76
42 67 85
34 54 72
40 63 75
33 53 47
43 68 78
41 64 83
43 68 97
43 67 94
33 52 67
39 62 72
43 68 84
45 71 88
37 59 87
46 71 104
40 61 94
39 61 90
42 65 86
41 65 86
37 58 74
43 68 95
39 61 75
39 60 78
44 68 104
37 58 71
36 56 72
37 57 79
41 64 82
41 64 79
40 62 77
35 56 74
42 65 78
37 58 71
40 63 95
37 59 63
41 65 68
36 56 79
40 63 79
41 64 90
39 62 75
46 72 104
35 56 84
36 56 79
35 54 66
38 60 76
40 61 88
38 57 73
40 62 75
36 55 69
35 54 55
35 53 59
39 60 71
32 49 46
36 55 65
95 108 4
145 161 0
147 164 0
148 166 0
145 163 0
147 168 0
143 161 0
157 175 0
151 173 0
151 171 0
147 164 0
156 176 0
158 177 0
154 171 0
151 172 0
149 167 0
150 167 0
146 162 0
150 169 0
156 174 0
144 160 0
145 160 0
154 173 0
146 156 0
110 90 1
94 76 0
94 78 0
87 68 1
97 76 2
98 76 1
76 58 0
91 72 1
88 65 1
96 82 0
87 73 0
87 69 0
93 78 1
92 77 1
100 82 1
86 68 0
89 73 1
86 69 0
96 80 1
106 91 0
98 79 1
98 85 1
93 73 1
101 90 1
109 92 1
99 86 1
100 85 1
97 79 1
98 81 1
97 81 1
94 81 0
96 81 0
101 87 1
103 91 0
105 94 0
95 77 0
106 93 1
113 101 0
97 83 1
101 86 1
103 93 1
102 90 0
106 94 1
115 100 1
109 94 1
102 88 1
113 100 1
110 98 0
111 95 1
106 91 0
112 99 0
108 95 0
108 96 1
112 98 0
107 90 1
116 101 1
100 83 0
104 90 0
111 93 1
107 92 1
112 94 1
114 98 1
111 98 1
112 96 1
103 85 0
113 100 1
119 112 0
113 96 1
111 96 1
110 97 0
105 84 1
113 103 0
114 100 1
112 98 0
116 101 1
112 99 1
103 80 1
118 107 0
115 100 1
119 106 1
109 93 0
113 96 1
114 100 1
114 98 1
110 90 1
122 110 0
120 104 1
115 99 1
113 100 0
120 107 1
109 93 1
116 99 1
110 93 0
112 93 1
113 101 1
118 105 1
122 110 1
119 99 1
114 102 1
123 106 1
123 111 1
102 87 1
115 99 1
119 101 1
117 102 1
112 100 1
114 100 1
110 91 1
119 105 1
126 111 1
124 113 0
114 102 1
110 93 1
110 97 1
114 103 0
115 101 1
116 99 1
121 111 1
110 99 0
112 96 1
116 102 0
113 100 1
108 91 1
110 93 1
107 92 1
122 111 1
113 100 1
118 106 1
111 96 1
109 90 1
127 116 0
108 89 1
115 96 1
117 97 1
110 94 0
124 111 1
116 130 51
112 126 55
113 127 45
104 116 54
126 141 39
128 145 54
117 131 43
117 132 55
124 141 32
101 114 44
114 129 54
119 134 52
117 133 51
113 128 52
114 128 54
110 125 54
111 125 68
117 132 39
123 139 62
117 131 52
106 120 58
123 139 23
123 138 66
119 133 41
117 132 45
124 139 59
124 140 56
118 134 43
128 146 42
124 140 58
111 125 50
123 138 63
120 135 63
110 125 67
119 134 34
118 133 68
119 135 67
107 121 59
117 131 41
113 127 56
116 131 45
118 133 51
107 120 38
125 142 64
113 127 52
116 131 52
118 133 56
115 130 39
122 139 32
112 127 20
119 134 53
115 130 50
122 138 45
120 134 22
111 126 53
111 125 59
114 129 39
111 126 45
116 131 38
117 133 42
113 129 39
112 127 45
112 128 36
110 124 25
119 133 39
110 125 27
114 129 41
116 131 34
118 133 43
102 115 48
108 124 52
99 111 54
120 137 36
103 118 58
117 132 46
103 118 43
102 115 53
113 127 28
111 126 49
119 134 41
112 127 45
109 123 28
107 121 44
101 115 49
109 125 67
103 117 42
106 122 62
113 127 45
121 137 51
105 119 48
109 124 48
109 123 34
105 120 56
111 127 41
104 118 39
104 118 30
99 111 43
99 110 41
99 112 58
101 114 51
106 119 45
97 111 38
102 115 53
96 110 49
93 104 47
103 116 49
109 122 56
113 127 50
96 108 64
96 109 51
103 118 65
92 106 50
102 114 54
91 103 49
96 108 51
94 105 62
97 110 63
97 109 45
96 109 57
100 111 66
81 93 47
86 97 46
94 105 50
94 104 58
93 103 55
76 86 51
77 87 63
84 93 71
103 115 72
101 113 54
96 106 59
96 107 61
89 101 49
112 126 49
95 109 48
136 154 26
151 172 0
145 166 0
154 176 0
138 158 0
150 171 0
153 173 0
147 168 0
148 167 0
148 168 0
152 173 0
138 159 0
134 152 0
147 167 0
150 171 0
144 164 0
145 167 0
144 163 0
142 161 0
143 163 0
149 169 0
140 158 0
140 160 0
148 169 0
144 163 0
98 114 41
35 55 60
32 51 58
42 67 93
35 55 63
41 65 86
34 53 70
34 53 64
28 44 63
36 56 68
34 54 75
37 60 81
40 62 70
39 62 82
40 62 64
38 59 73
45 70 97
41 65 88
44 69 94
37 58 73
40 63 92
38 60 76
41 65 83
40 64 95
43 67 90
38 60 69
42 66 80
43 67 94
44 68 93
36 57 70
38 59 70
41 65 79
38 60 83
41 66 79
42 66 75
38 59 82
44 68 86
43 68 79
42 66 87
40 63 79
45 71 93
36 57 59
37 59 78
46 72 106
41 65 67
39 61 82
44 69 93
42 66 95
44 70 82
43 68 86
41 65 71
41 65 88
42 66 95
35 56 75
35 56 58
34 54 64
38 59 71
41 63 73
39 62 83
35 55 76
32 49 66
47 72 110
43 67 97
42 66 95
40 62 74
38 59 70
39 61 79
37 56 68
39 61 87
34 55 70
36 56 59
40 63 82
31 47 48
39 61 69
35 54 47
37 58 70
34 53 72
35 54 75
26 37 32
87 98 51
143 159 0
148 165 0
143 158 0
154 173 0
141 158 0
142 159 0
143 161 0
139 156 0
145 164 0
144 158 0
137 153 0
145 165 0
154 173 0
144 161 0
144 162 0
145 161 0
146 164 0
142 158 0
144 163 0
144 158 0
146 164 0
150 169 0
148 165 0
143 158 0
121 123 0
99 79 1
94 73 1
84 61 0
97 76 1
86 74 0
90 73 1
90 74 1
87 70 1
82 56 1
96 80 1
79 62 1
88 65 1
89 68 0
83 64 1
101 82 0
86 66 1
97 79 1
97 78 1
100 83 1
86 69 1
93 77 0
93 75 1
94 84 0
103 88 1
90 76 0
112 95 1
90 73 0
95 73 1
98 84 1
99 84 0
104 92 0
109 92 0
99 86 0
102 87 1
108 96 0
99 87 0
113 99 1
108 97 1
110 101 1
110 100 0
104 93 0
110 99 0
103 93 1
107 96 0
111 96 1
110 97 1
114 101 0
118 105 0
114 98 1
99 83 1
100 83 1
113 97 1
113 97 1
102 86 1
112 100 1
108 95 1
102 85 1
109 93 1
117 104 0
101 88 1
107 93 1
116 106 1
103 88 0
114 100 1
102 82 1
99 83 1
110 96 1
114 102 1
116 98 0
120 111 1
108 100 1
108 89 1
112 95 1
117 104 1
111 93 1
112 94 1
114 96 1
114 100 1
114 97 1
109 91 0
106 90 1
113 94 1
109 89 1
115 99 1
117 103 1
122 112 0
111 93 1
118 104 1
115 99 0
120 105 1
119 107 1
126 113 1
112 96 1
108 91 1
119 98 1
120 101 1
117 104 1
119 103 1
117 102 1
112 96 1
123 108 1
126 113 0
118 105 1
118 105 1
117 104 1
121 106 0
110 91 1
110 92 1
108 90 1
121 107 1
116 101 0
119 107 1
111 95 1
117 102 1
117 103 1
102 84 1
116 104 0
114 100 1
112 95 1
113 99 0
113 102 0
112 97 1
105 88 1
112 100 1
110 98 1
120 109 1
110 91 1
117 103 1
117 101 0
123 107 1
116 101 1
121 108 1
121 109 0
108 93 1
118 105 1
110 124 44
114 130 32
120 135 48
123 138 50
118 133 54
127 144 44
108 122 53
115 129 27
119 133 43
118 133 36
108 121 44
119 134 53
112 128 36
122 138 49
123 140 56
113 128 50
113 127 65
107 121 43
121 136 59
117 133 66
114 128 39
115 128 38
115 129 62
119 135 42
124 140 37
120 136 50
120 135 34
111 126 60
121 137 39
111 125 52
123 139 64
114 128 68
118 134 44
118 134 47
128 145 45
119 136 43
119 133 47
116 133 54
119 134 65
119 134 55
120 135 42
119 132 41
117 132 43
110 124 61
116 130 45
120 136 60
120 136 53
121 137 45
118 132 48
107 122 39
114 130 46
113 128 36
122 135 46
119 134 44
118 133 23
113 127 37
120 136 65
115 132 47
112 127 51
105 120 44
105 117 27
107 122 53
107 120 38
100 114 48
105 118 48
110 124 37
113 127 43
119 135 41
105 119 46
114 128 58
113 127 50
101 115 29
112 126 48
104 119 48
117 131 45
115 130 47
118 133 30
113 128 29
116 131 44
104 116 48
115 130 47
97 110 36
119 135 44
116 131 39
119 135 49
106 121 55
106 120 40
105 118 64
105 120 61
110 125 43
97 111 58
111 126 33
101 113 40
102 115 43
111 126 42
99 112 46
103 117 33
112 128 46
88 101 38
100 112 45
105 118 34
96 107 64
105 118 49
106 120 61
102 115 44
101 114 61
106 119 55
92 104 57
100 113 53
95 107 57
103 117 60
95 106 55
99 113 64
98 111 56
91 101 53
90 101 39
92 102 50
94 106 72
87 99 65
94 105 50
88 99 46
103 115 66
76 86 60
83 92 51
78 88 60
67 75 58
91 100 84
98 111 71
93 104 79
95 106 64
94 106 59
106 118 43
98 110 40
105 117 55
131 147 24
144 163 0
139 158 0
143 161 0
145 165 0
152 173 0
147 167 0
137 155 0
156 177 0
145 164 0
134 153 0
149 170 0
140 160 0
136 155 0
154 176 0
149 169 0
148 168 0
148 168 0
139 157 0
141 160 0
149 170 0
147 168 0
148 168 0
133 152 0
148 168 0
141 160 0
134 154 0
65 80 55
36 56 69
33 51 61
29 46 63
36 56 71
31 49 56
38 60 80
38 59 80
36 56 65
34 54 76
33 53 56
35 56 61
44 70 86
38 59 71
37 58 60
41 64 92
39 62 73
32 52 52
43 68 86
35 55 61
41 63 94
38 59 70
37 58 60
35 55 75
43 68 92
38 61 78
40 63 82
36 57 73
39 63 73
38 59 71
44 68 96
46 72 103
36 56 68
39 61 84
44 69 90
37 57 91
40 64 82
37 58 92
40 63 81
35 55 54
45 70 96
46 72 99
33 53 54
37 59 85
42 65 91
38 60 75
37 58 67
38 60 79
37 58 66
41 65 87
41 64 94
39 61 82
43 67 93
38 60 82
42 64 82
39 62 87
41 64 87
43 66 81
32 50 67
37 57 74
43 67 86
37 58 76
38 58 84
35 55 74
37 57 79
41 65 78
37 57 83
41 64 92
34 54 58
41 62 90
38 59 81
37 57 68
32 50 48
36 56 58
28 44 53
40 63 71
25 38 50
73 85 41
134 150 0
139 157 0
129 146 0
133 148 0
136 153 0
131 144 0
134 151 0
136 151 0
147 165 0
147 164 0
144 161 0
144 161 0
144 161 0
147 167 0
137 150 0
145 163 0
147 162 0
146 163 0
143 158 0
153 169 0
139 157 0
151 168 0
148 166 0
144 160 0
141 157 0
141 158 0
129 133 0
94 76 1
90 69 1
82 63 1
99 76 1
88 65 1
93 75 1
85 64 1
92 70 1
90 73 1
86 73 1
98 84 1
84 67 0
91 71 1
83 61 1
112 92 1
91 73 1
103 86 1
99 80 1
107 93 1
100 83 1
96 83 0
94 74 1
91 72 1
88 74 1
99 84 1
92 81 0
107 95 0
101 86 1
108 91 1
116 104 0
101 85 1
103 92 0
107 87 1
102 92 0
108 93 0
115 104 0
90 75 1
112 102 0
94 78 0
103 91 1
108 97 0
104 90 0
109 93 1
121 108 1
112 99 1
95 81 1
108 92 1
100 83 1
104 88 1
109 90 1
116 101 1
112 97 1
110 95 1
114 102 1
104 87 1
109 95 1
115 100 1
111 99 1
112 101 1
107 92 1
114 99 1
104 92 0
113 95 1
112 102 0
110 94 1
104 88 1
110 92 1
108 95 0
113 94 1
123 111 1
111 95 1
110 95 1
112 94 1
113 97 1
105 88 0
116 104 0
115 102 0
103 84 1
117 103 0
110 94 1
101 80 0
116 103 1
116 103 0
111 97 0
115 99 1
113 96 1
126 109 1
117 92 1
107 90 1
114 97 1
115 100 1
115 101 1
110 87 1
118 101 1
124 111 1
119 104 1
110 98 1
114 98 1
113 99 1
118 105 1
113 94 1
119 104 1
112 96 1
113 95 1
121 110 1
116 99 1
120 104 1
115 102 1
119 103 1
118 106 1
113 97 1
109 91 1
106 87 1
117 98 0
109 94 1
108 91 0
115 101 0
117 103 1
120 105 1
107 90 0
117 103 0
116 101 0
102 84 1
122 110 0
109 101 0
117 102 1
112 95 0
112 94 1
119 99 1
118 100 1
111 93 1
117 104 0
109 95 1
120 112 1
113 128 53
112 126 44
114 127 54
105 119 43
109 123 61
113 128 51
123 139 42
124 138 38
121 136 48
114 128 63
120 136 21
111 127 24
107 121 37
105 118 35
117 131 34
107 120 59
114 129 55
116 130 44
113 128 32
103 116 59
114 128 36
118 134 47
112 126 64
116 131 52
113 127 50
107 120 46
112 127 49
119 135 53
114 128 71
115 129 62
110 124 58
121 136 49
118 133 51
121 137 58
112 126 55
116 129 63
123 138 48
115 131 34
122 138 31
117 131 55
117 131 61
107 121 50
117 130 56
114 129 47
114 129 43
121 137 45
110 124 38
120 136 46
115 130 40
126 142 52
116 131 40
117 132 40
119 133 46
114 129 37
121 134 31
113 128 41
116 130 52
112 127 32
118 133 38
119 136 46
119 135 35
113 127 40
115 130 45
105 118 36
117 133 38
117 132 38
108 123 46
103 116 41
108 123 54
116 132 42
111 126 45
103 117 36
107 120 33
108 123 46
117 133 38
111 125 58
104 118 53
111 125 36
112 127 40
108 124 49
103 117 43
107 121 30
111 127 49
107 121 41
111 128 43
102 115 32
97 111 63
104 118 33
103 117 54
110 124 51
103 117 40
101 115 54
102 116 46
108 122 47
104 117 33
102 117 45
100 114 55
102 114 52
105 117 52
106 120 58
107 121 52
103 117 35
108 122 44
101 115 51
110 124 58
89 100 50
91 104 60
101 112 50
86 98 53
100 113 46
95 104 64
99 111 46
97 109 51
103 115 60
96 108 55
99 111 57
108 120 61
92 106 72
95 106 58
92 102 53
92 101 64
88 99 44
84 96 41
89 98 63
92 102 63
80 90 62
90 101 61
91 103 76
89 99 52
93 103 62
76 86 41
91 102 61
105 117 48
123 138 24
138 156 0
138 157 0
139 157 0
146 166 0
138 157 0
141 160 0
157 176 0
135 154 0
152 173 0
147 165 0
148 169 0
146 165 0
133 152 0
139 160 0
140 158 0
134 153 0
137 157 0
146 168 0
142 161 0
141 160 0
138 156 0
130 148 0
138 158 0
134 153 0
133 153 0
149 168 0
142 163 0
133 152 0
79 95 47
24 38 63
32 49 65
35 55 66
34 55 75
33 53 54
37 58 75
37 58 80
36 55 75
38 61 73
31 50 58
40 62 92
34 54 71
35 56 74
34 54 60
37 58 60
34 54 54
39 63 78
31 49 53
42 67 77
38 58 83
34 53 66
39 61 86
42 66 94
42 66 82
37 59 71
45 70 90
41 65 95
43 67 90
39 62 68
34 54 68
41 64 92
41 65 71
45 70 93
41 64 82
44 70 90
42 66 79
42 65 93
39 61 63
41 65 90
38 60 79
37 58 72
36 59 59
36 56 79
43 68 86
39 61 87
39 61 85
42 66 87
38 60 72
43 68 89
40 63 79
44 69 86
41 65 77
40 63 79
39 61 87
34 54 75
43 68 94
44 69 78
41 63 82
35 56 56
40 62 78
43 66 74
34 53 65
37 57 75
38 58 78
32 49 64
39 61 70
40 61 73
36 56 78
39 60 83
36 56 59
32 50 60
34 54 71
35 54 53
34 53 65
76 89 45
129 143 0
138 156 0
134 150 0
144 162 0
131 144 0
143 159 0
148 166 0
131 147 0
136 152 0
149 168 0
146 161 0
153 168 0
132 145 0
142 157 0
136 151 0
143 158 0
142 157 0
148 164 0
136 154 0
145 161 0
139 154 0
154 169 0
141 154 0
147 160 0
146 156 0
138 147 0
144 157 0
143 155 0
122 129 0
101 80 1
87 66 1
99 85 0
92 70 1
82 62 1
78 55 1
99 75 1
96 80 1
95 79 1
94 76 1
90 74 1
80 61 1
85 64 0
101 83 1
84 64 1
107 92 1
95 78 1
91 74 1
97 75 1
104 89 1
101 82 1
99 84 1
99 82 1
91 68 1
104 89 1
105 89 1
104 86 1
104 83 2
99 85 1
110 94 1
111 95 1
104 89 0
105 91 1
100 84 1
106 97 0
103 86 1
112 99 1
103 94 0
106 90 1
114 101 1
106 90 1
110 95 1
107 97 0
118 108 0
110 94 1
107 93 1
100 83 1
112 95 1
110 99 1
99 81 1
102 87 1
115 101 1
99 84 0
106 87 1
100 87 1
103 85 1
101 84 1
106 90 1
105 89 1
116 103 1
109 93 1
107 94 1
113 100 1
116 101 1
114 102 0
113 101 1
110 94 1
110 95 1
112 97 1
108 97 1
107 94 1
110 96 1
115 100 1
109 96 1
128 117 0
118 101 1
110 94 1
106 86 0
114 98 1
107 89 0
113 93 1
120 106 0
113 98 1
123 110 1
113 95 0
108 94 1
125 107 1
118 104 1
114 96 1
111 95 0
114 98 0
119 101 1
122 110 0
117 92 1
116 98 1
112 97 1
109 95 0
124 107 1
119 101 1
108 89 1
106 89 0
118 102 1
122 104 1
109 93 1
114 99 1
114 99 1
118 104 1
107 92 1
117 103 0
112 96 1
120 105 1
110 93 1
108 92 1
119 107 0
107 92 0
113 101 0
110 96 1
113 97 1
117 102 1
115 106 1
125 113 0
95 80 0
115 100 1
116 100 1
113 100 0
110 96 0
115 98 1
105 87 1
121 109 0
114 104 0
117 101 1
108 95 0
123 108 1
111 125 43
119 134 51
106 121 55
113 129 42
109 123 60
112 125 62
117 131 53
114 128 49
107 120 57
113 127 62
118 133 39
112 126 40
109 124 44
118 134 50
120 135 49
112 124 57
112 127 55
109 124 50
117 133 46
124 140 56
108 121 59
104 117 61
121 135 45
111 125 59
115 129 56
109 124 48
123 138 46
114 128 45
111 124 36
123 140 60
121 136 69
120 135 35
123 139 52
119 135 52
119 134 45
112 127 34
124 139 45
122 138 58
123 138 56
120 136 46
117 133 50
113 127 46
122 137 46
116 130 49
115 129 47
115 129 69
119 135 41
113 127 43
119 133 58
122 138 42
115 130 34
111 126 30
123 139 38
122 137 55
117 133 58
110 125 57
108 123 46
106 119 47
109 123 34
117 132 38
115 129 42
108 122 44
113 128 47
105 119 50
116 131 41
110 125 34
115 130 37
112 126 54
108 123 37
107 122 51
114 129 51
118 135 44
111 125 44
103 116 34
117 134 48
113 128 40
113 127 27
106 120 36
114 130 27
106 119 47
116 132 43
116 130 49
118 134 30
103 116 42
101 114 38
103 115 42
103 115 32
107 122 42
101 115 38
115 131 58
98 111 48
118 132 49
100 114 66
103 115 53
112 128 56
108 120 47
112 124 49
100 111 50
103 115 48
106 120 31
106 118 55
103 117 55
108 121 43
107 120 36
91 103 35
101 114 56
109 122 41
91 103 61
90 100 23
96 106 49
100 112 63
102 114 54
103 116 38
94 106 67
91 102 47
91 103 58
92 102 37
98 110 54
94 105 60
94 105 46
86 96 38
93 103 53
88 100 59
94 104 80
107 119 66
90 101 67
97 107 71
101 112 65
98 108 69
87 97 55
82 91 54
109 121 38
126 143 35
144 164 0
138 156 0
149 168 0
135 155 0
144 163 0
140 158 0
136 155 0
148 165 0
139 157 0
133 151 0
135 152 0
138 156 0
143 162 0
151 171 0
151 170 0
143 163 0
140 158 0
137 154 0
149 169 0
143 163 0
141 160 0
133 153 0
137 157 0
144 162 0
139 157 0
133 151 0
139 159 0
139 158 0
135 153 0
134 154 0
47 64 42
33 52 61
32 50 52
29 45 46
34 54 59
36 56 70
30 48 44
35 56 54
36 57 74
38 60 63
38 59 77
35 55 69
35 56 62
37 59 70
40 62 90
36 56 75
37 59 72
36 57 68
39 61 78
42 66 78
35 56 61
38 60 74
40 64 74
40 63 75
39 62 79
42 66 85
42 65 94
40 64 89
36 56 74
39 61 86
42 65 87
38 60 74
45 69 102
38 60 77
34 54 70
37 59 70
43 67 86
38 61 79
38 59 74
37 58 78
44 69 93
35 54 74
46 71 106
43 67 85
37 58 69
40 63 74
36 57 60
47 73 96
41 64 95
38 60 79
44 69 76
42 66 79
40 62 78
43 67 82
41 63 78
37 58 66
34 53 70
37 58 87
40 62 90
37 57 66
37 58 75
37 58 76
31 49 70
41 64 78
44 68 86
33 51 40
35 55 71
41 63 80
35 54 54
38 59 74
35 53 71
33 52 48
33 51 48
63 74 47
132 146 6
148 165 0
125 139 0
111 121 0
135 149 0
137 153 0
129 144 0
133 144 0
152 166 0
135 148 0
137 152 0
139 158 0
127 145 0
135 150 0
138 151 0
136 151 0
137 150 0
142 158 0
142 155 0
140 156 0
142 158 0
142 156 0
151 169 0
140 153 0
136 150 0
143 158 0
148 165 0
150 167 0
146 158 0
141 154 0
129 130 0
97 86 0
101 82 1
85 66 1
86 59 1
102 79 2
98 81 0
94 70 1
92 70 1
85 66 1
97 77 1
88 72 1
91 77 0
87 68 1
94 78 1
96 78 1
88 73 0
93 78 0
106 93 1
95 79 1
99 80 1
95 80 0
92 73 1
100 83 1
104 91 1
101 89 0
102 86 1
112 96 1
105 91 1
103 87 1
92 75 1
104 83 0
93 77 1
102 86 0
98 87 1
102 82 1
106 93 0
105 87 1
107 92 1
102 84 1
101 84 1
99 83 1
109 96 1
105 93 0
106 89 1
107 90 1
108 91 1
106 88 1
109 96 1
101 84 0
109 94 1
108 93 1
112 100 1
111 97 1
117 103 1
103 88 1
115 104 0
111 95 1
116 101 1
105 89 1
107 92 1
115 98 1
105 87 1
102 86 0
106 92 0
106 88 1
105 87 1
98 80 1
113 102 1
113 99 0
106 90 1
119 105 1
117 104 1
106 90 1
116 101 1
113 98 0
116 100 1
110 94 1
120 106 1
107 88 1
113 95 1
124 108 1
114 101 1
116 97 1
110 94 1
111 95 1
107 87 1
109 96 0
117 104 0
122 107 1
110 91 1
113 99 1
114 102 0
117 100 1
120 106 1
113 98 0
110 95 0
121 102 1
119 101 1
118 105 0
110 91 1
123 111 1
111 96 1
118 102 1
115 99 1
116 104 1
125 111 0
120 105 1
118 104 1
109 97 0
116 100 1
113 95 1
105 88 0
115 102 0
111 93 1
100 78 1
116 101 1
102 87 1
112 100 0
116 106 1
108 96 0
117 108 0
116 104 0
101 84 1
108 87 1
118 105 0
114 102 1
117 101 0
121 111 0
119 109 0
111 97 0
110 93 1
110 96 1
121 136 60
118 132 45
115 130 55
115 129 42
123 138 34
104 116 56
114 129 56
121 136 52
109 121 55
104 116 68
111 125 55
102 115 45
109 123 56
113 127 64
114 129 40
102 116 32
101 113 54
114 126 47
115 130 42
111 124 62
108 120 47
112 125 57
107 121 60
114 129 58
117 133 60
114 129 55
120 136 66
113 127 52
125 141 42
119 135 52
121 137 51
112 127 50
119 135 46
117 132 60
106 121 69
121 136 56
110 124 52
115 129 59
115 129 57
116 131 49
111 125 44
112 127 69
111 126 34
109 123 57
120 137 53
115 130 40
117 131 60
100 113 42
116 133 47
106 120 47
118 133 42
112 127 52
116 130 47
115 131 61
120 136 56
122 136 53
107 122 59
116 131 46
114 129 45
106 120 60
107 122 55
120 135 51
118 135 58
104 116 51
120 134 33
104 119 59
114 129 56
113 128 44
110 125 45
113 128 44
105 118 63
110 124 44
114 128 62
116 132 50
103 118 48
105 118 49
113 129 29
116 131 64
109 123 41
116 131 35
109 123 33
107 121 52
106 122 60
106 119 42
102 115 36
112 127 41
111 125 40
109 123 39
100 112 37
99 111 50
107 122 57
117 132 54
108 121 59
108 122 50
110 124 73
106 121 50
100 110 46
109 123 51
98 110 53
104 117 43
113 127 41
105 119 44
108 121 49
97 110 48
101 115 51
108 121 44
98 112 49
104 116 49
97 109 39
84 93 29
97 109 68
89 100 46
95 107 50
96 108 62
103 116 53
84 95 42
85 96 39
90 101 55
88 99 61
79 90 41
91 101 71
94 107 59
100 112 59
98 108 73
92 102 70
85 96 64
89 99 73
82 91 63
83 93 62
98 109 48
98 109 53
123 140 38
137 155 0
147 165 0
144 162 0
147 165 0
140 160 0
145 162 0
135 153 0
144 162 0
147 166 0
137 155 0
137 155 0
142 161 0
142 160 0
127 145 0
135 154 0
138 157 0
136 153 0
136 155 0
135 152 0
136 154 0
143 163 0
152 172 0
129 147 0
136 154 0
137 155 0
137 156 0
137 156 0
142 161 0
134 151 0
137 155 0
143 163 0
123 140 26
44 62 68
36 56 72
33 52 62
36 57 73
36 56 74
38 60 64
35 55 52
31 50 50
39 61 80
40 64 88
39 62 74
42 66 80
34 53 73
37 58 66
38 60 74
36 56 82
41 64 83
35 55 57
34 54 55
42 66 83
37 60 68
38 60 65
40 63 72
37 59 75
44 68 91
41 64 76
42 65 86
41 64 86
41 64 89
39 61 78
39 63 73
42 64 93
44 70 93
41 66 77
39 61 77
36 57 78
40 64 63
46 72 110
36 57 65
44 69 81
37 58 79
36 57 66
37 58 85
39 61 84
38 61 75
41 63 73
37 58 75
37 58 66
43 68 81
38 60 55
38 60 59
33 53 84
44 67 104
37 57 60
31 49 66
35 55 70
36 57 77
40 63 89
40 62 77
38 58 73
41 63 67
31 48 55
34 53 62
41 63 83
35 54 71
38 59 62
35 55 60
36 57 58
33 51 68
31 48 56
35 54 72
65 80 30
139 153 5
124 139 0
130 146 0
138 151 0
124 137 0
140 157 0
138 151 0
140 154 0
126 140 0
142 159 0
134 146 0
127 143 0
135 149 0
140 153 0
136 150 0
133 146 0
140 157 0
144 161 0
135 148 0
138 152 0
143 159 0
142 156 0
145 163 0
138 150 0
134 150 0
147 160 0
131 144 0
135 146 0
141 156 0
133 141 0
144 156 0
127 138 0
136 142 0
90 69 0
96 81 0
98 84 0
82 59 1
95 75 1
88 75 1
90 67 1
85 63 0
85 63 1
100 83 1
96 80 1
75 56 0
100 83 1
80 66 0
75 60 0
92 77 1
87 68 1
93 71 0
92 76 0
94 76 1
104 85 1
109 91 1
100 87 1
97 77 1
104 90 1
91 74 1
97 82 1
93 76 1
108 88 1
99 82 1
111 91 1
107 95 1
100 83 1
101 82 1
95 80 0
91 70 1
97 75 1
109 94 1
111 98 0
104 87 1
113 100 1
99 79 1
101 82 1
104 85 1
122 112 1
99 79 1
104 87 1
102 87 1
97 84 0
105 91 1
113 100 1
113 100 1
97 82 1
103 88 1
118 105 1
94 75 1
101 81 1
113 97 0
103 82 1
110 95 0
105 89 1
115 102 0
108 87 1
112 95 1
105 85 1
106 89 1
102 83 1
107 91 1
111 94 1
122 108 1
111 94 1
108 92 0
120 102 0
111 93 1
111 90 1
111 96 1
114 100 0
115 94 1
120 107 1
120 107 1
118 101 1
119 100 1
117 102 1
113 97 1
108 91 0
109 89 1
115 100 1
117 101 1
107 94 1
105 88 1
109 90 1
111 91 1
117 101 0
118 100 1
117 95 1
114 98 0
109 88 1
118 101 1
116 105 1
114 90 2
120 107 1
115 98 1
114 96 1
114 97 1
113 98 1
122 109 0
110 93 1
115 98 1
108 94 0
118 102 1
107 91 1
100 88 0
120 106 1
112 93 1
109 93 1
117 106 0
104 86 1
101 84 1
111 95 1
105 92 0
111 95 1
109 95 1
122 108 0
107 85 1
115 99 1
115 104 0
111 98 0
122 113 0
106 87 1
118 108 0
119 103 1
123 139 46
110 124 42
112 127 54
118 132 50
125 141 50
109 123 41
105 119 49
115 128 58
113 126 71
108 122 63
113 128 62
113 127 48
102 115 54
106 118 34
108 122 47
94 107 46
110 124 31
105 120 56
122 139 44
110 123 64
124 139 44
113 129 51
104 118 56
111 125 51
121 135 61
115 130 55
107 118 54
117 132 45
114 130 58
105 119 34
114 129 56
118 132 65
127 144 34
114 129 49
112 126 61
118 134 57
109 122 48
116 131 58
121 136 38
106 119 52
118 133 62
115 130 57
121 137 57
120 134 67
113 126 56
111 125 55
107 122 51
118 132 44
118 132 68
114 128 57
118 132 44
108 122 42
119 134 49
115 130 47
126 143 29
117 132 44
111 124 53
113 126 49
109 122 51
114 127 54
108 122 56
118 132 51
102 116 52
121 134 47
111 125 61
111 126 53
117 132 35
107 121 36
101 115 50
111 125 34
112 126 51
104 117 43
114 128 46
108 121 46
115 131 48
104 119 72
125 141 45
113 128 43
104 116 44
106 120 50
100 113 57
104 119 58
110 125 38
104 116 47
102 116 59
111 125 60
107 121 62
103 117 52
109 125 48
110 122 49
106 119 47
106 119 49
105 118 60
102 114 47
103 116 71
107 121 66
98 110 56
104 116 45
101 112 48
99 112 59
98 111 54
100 113 65
89 101 50
102 113 46
77 87 36
76 85 49
100 112 48
105 117 56
104 117 58
100 112 61
94 106 63
98 111 49
92 104 55
104 118 65
83 94 70
93 104 64
99 111 52
88 100 50
95 105 52
89 99 69
90 101 62
96 107 74
81 91 70
94 105 74
84 94 61
87 98 50
76 85 59
83 94 46
85 97 41
105 117 55
120 134 22
142 160 0
142 159 0
140 158 0
136 153 0
139 157 0
143 164 0
139 156 0
138 157 0
143 162 0
135 152 0
126 143 0
145 163 0
133 150 0
136 152 0
138 157 0
139 157 0
139 159 0
123 139 0
135 152 0
140 157 0
132 152 0
136 156 0
126 142 0
138 158 0
132 151 0
134 152 0
131 150 0
125 144 0
135 153 0
121 139 0
120 136 0
125 142 0
113 129 0
129 149 26
59 71 35
40 63 55
29 46 55
36 56 79
34 54 78
34 54 68
34 53 69
39 62 74
39 61 79
35 56 60
36 57 53
39 61 78
41 65 72
42 66 86
39 60 86
38 60 82
36 57 69
39 61 84
35 54 63
33 52 71
39 61 83
38 60 78
38 59 68
36 57 74
41 63 85
42 66 84
43 68 83
39 62 74
38 60 78
40 63 68
45 71 82
35 54 65
37 58 82
45 70 87
46 72 86
43 68 96
36 57 61
39 61 75
38 60 73
42 65 90
30 48 55
40 64 69
43 67 75
39 61 70
42 66 90
42 67 89
48 74 95
37 58 65
39 62 73
37 58 84
41 64 71
39 60 79
35 55 54
41 64 80
39 59 93
29 44 42
36 58 56
35 55 65
39 60 83
35 55 79
34 53 69
33 50 64
37 58 66
38 60 69
35 54 72
32 48 53
33 50 34
34 54 60
35 53 65
76 90 53
123 137 0
127 141 0
127 142 0
128 143 0
131 143 0
129 144 0
143 160 0
137 154 0
137 149 0
121 136 0
124 137 0
134 150 0
136 151 0
130 144 0
142 154 0
141 154 0
134 148 0
116 128 0
128 141 0
139 152 0
128 139 0
137 152 0
150 165 0
136 146 0
145 157 0
145 160 0
129 141 0
144 157 0
127 137 0
146 158 0
123 135 0
154 168 0
132 142 0
132 141 0
122 122 0
93 77 0
102 83 0
95 73 0
85 65 1
78 55 1
78 59 1
96 74 1
83 70 0
97 77 1
87 71 1
89 67 1
81 59 1
86 71 1
85 68 1
90 71 1
90 72 1
98 79 1
85 73 1
95 77 1
98 82 1
102 81 1
97 78 1
98 80 1
90 69 1
99 82 1
86 68 1
93 77 1
99 86 0
90 72 1
98 83 1
116 104 0
107 93 0
103 83 1
100 89 0
101 83 0
108 89 1
105 91 1
98 79 1
106 87 1
110 94 0
108 91 1
110 96 1
108 94 1
112 94 1
111 92 1
107 84 1
113 94 1
118 104 1
104 91 1
105 89 1
123 105 0
100 83 0
111 95 1
106 89 0
106 88 0
109 94 1
117 101 1
112 101 1
102 86 1
111 96 1
114 97 1
114 96 1
107 87 1
106 87 1
114 99 1
113 94 1
114 98 1
108 92 1
108 92 1
98 73 1
110 89 1
113 97 1
111 95 0
113 99 1
112 98 0
98 80 1
112 97 1
112 95 1
116 102 1
120 104 0
111 91 1
114 98 1
104 87 1
121 107 1
110 90 1
107 92 1
117 96 1
115 92 1
111 94 1
112 94 1
110 94 1
116 101 1
111 91 1
121 103 1
113 99 1
114 98 1
112 96 1
113 94 1
121 110 1
108 90 1
112 96 1
116 97 1
112 99 1
118 105 1
110 97 0
112 98 1
119 104 0
114 97 1
109 93 1
112 97 1
112 99 1
99 83 0
115 103 1
109 99 1
106 95 1
107 95 0
111 98 1
102 84 1
116 103 1
99 80 1
116 107 1
121 108 0
122 107 0
115 96 1
109 92 1
121 106 1
115 102 1
104 85 1
112 93 1
117 101 1
115 129 50
103 115 61
116 132 51
110 123 51
121 136 53
111 126 63
117 133 54
109 124 56
120 136 64
115 129 62
118 133 56
120 135 55
114 126 41
101 115 48
109 122 53
107 120 44
110 123 56
108 121 35
99 111 60
112 126 33
114 128 44
105 118 43
110 123 57
108 121 50
120 137 60
108 122 42
118 133 54
115 129 56
110 124 41
129 146 41
113 128 43
114 126 53
107 121 43
117 131 36
105 120 46
112 127 56
109 123 58
109 123 43
113 128 41
116 130 46
117 134 54
112 126 55
111 126 55
111 126 47
117 131 69
121 137 53
114 129 41
111 125 44
111 126 47
118 133 43
109 123 63
110 123 50
110 123 54
117 130 50
117 133 47
111 125 50
111 125 49
104 117 51
113 128 61
113 126 32
115 129 44
112 126 48
118 133 51
119 135 57
109 122 37
117 132 51
109 123 49
122 138 61
106 118 60
106 119 47
109 123 66
107 121 48
116 131 40
110 123 49
116 132 65
111 125 56
113 128 54
113 127 53
97 109 70
109 122 50
103 116 52
104 118 55
105 118 64
97 110 53
109 123 43
102 112 58
106 121 53
110 124 60
102 115 47
108 122 42
104 118 59
112 124 49
103 116 47
101 114 49
104 118 56
107 119 49
105 119 69
102 115 56
107 121 61
107 121 51
104 117 58
102 114 49
100 114 43
102 115 52
98 109 52
100 112 48
89 101 41
93 105 58
96 108 46
92 104 47
86 98 52
99 111 50
97 110 44
94 105 63
96 107 62
96 106 55
89 100 53
91 101 60
83 94 78
100 111 61
84 95 76
94 105 69
85 96 52
84 93 71
79 90 59
92 103 65
78 89 56
93 104 47
101 113 69
127 141 10
127 144 0
142 158 0
145 162 0
141 159 0
137 153 0
138 155 0
133 150 0
130 147 0
136 156 0
134 152 0
131 148 0
134 152 0
130 147 0
127 143 0
124 140 0
133 151 0
136 154 0
133 150 0
143 161 0
133 150 0
123 138 0
119 135 0
142 159 0
131 150 0
128 144 0
142 160 0
124 142 0
127 145 0
124 140 0
128 144 0
128 145 0
130 148 0
125 144 0
118 133 0
118 135 0
115 132 0
75 92 47
30 48 31
37 59 69
38 61 79
36 57 61
32 52 42
34 55 59
35 56 52
30 47 47
33 52 64
40 63 85
33 52 54
41 65 93
34 54 73
43 67 89
37 59 65
28 45 47
40 63 90
42 66 78
39 61 58
38 60 64
36 57 66
36 56 64
40 64 70
37 58 68
31 49 52
38 60 69
44 69 88
42 67 80
30 48 56
41 64 68
40 62 81
39 62 78
45 71 92
36 57 78
41 65 65
36 58 75
40 64 73
36 57 79
38 59 86
38 61 70
41 63 86
32 51 58
41 66 60
43 66 94
38 60 70
43 65 78
35 55 53
38 60 65
40 63 66
35 55 69
38 60 70
40 63 78
38 61 60
37 59 65
30 45 56
30 46 49
34 54 73
36 56 69
34 52 64
35 52 67
36 56 75
37 56 78
35 55 81
35 52 65
28 43 56
32 50 47
64 74 33
118 130 0
130 146 0
123 138 0
125 139 0
127 138 0
130 145 0
122 138 0
132 149 0
120 136 0
120 135 0
119 131 0
128 140 0
127 140 0
129 138 0
142 157 0
113 127 0
131 144 0
130 144 0
136 152 0
135 150 0
139 154 0
139 154 0
135 146 0
123 134 0
130 140 0
130 143 0
136 149 0
125 135 0
141 155 0
134 147 0
135 144 0
144 158 0
137 143 0
131 141 0
143 153 0
146 158 0
132 138 0
107 90 1
92 75 0
95 76 0
75 51 1
86 70 1
83 64 1
90 71 1
99 81 1
91 71 1
99 79 1
108 90 1
87 68 1
93 80 0
91 72 1
94 77 1
97 78 1
91 74 1
97 74 1
90 76 1
99 80 1
99 81 1
94 79 1
95 79 1
98 85 1
102 83 1
92 78 1
106 90 1
103 83 1
100 83 1
95 82 1
86 64 1
107 92 1
104 82 1
106 93 1
98 83 0
113 99 1
104 93 1
111 94 1
102 87 1
103 89 1
115 102 0
118 102 1
113 97 1
107 89 1
107 90 0
107 87 0
117 99 1
108 94 1
105 88 1
117 97 1
112 97 1
108 91 1
103 87 1
113 100 1
113 93 1
106 87 1
111 97 1
118 100 1
109 90 1
110 95 1
117 103 1
106 85 1
117 97 1
117 98 0
117 102 0
109 93 1
115 93 1
113 97 0
113 94 1
119 106 1
103 83 1
107 85 1
106 88 1
114 98 0
114 99 0
115 100 1
114 97 1
110 92 1
110 93 1
105 87 1
105 85 1
110 90 1
119 101 1
115 95 1
108 90 1
115 100 1
112 95 1
113 98 1
120 109 1
119 100 1
108 91 0
114 97 0
114 99 1
114 98 1
116 98 1
120 106 1
117 99 1
117 99 1
113 96 1
120 102 0
114 99 1
114 94 1
108 93 0
106 91 0
108 93 1
111 96 1
116 103 1
116 101 1
99 81 1
109 97 1
118 107 1
112 101 0
96 81 1
101 87 0
111 100 1
103 88 1
116 108 0
109 92 1
110 95 1
110 95 1
119 106 0
108 92 0
113 106 0
118 102 1
114 98 1
113 95 1
117 103 1
120 106 1
114 96 1
107 120 55
115 130 52
121 136 66
117 132 46
117 131 55
114 129 58
112 126 50
107 121 62
113 126 62
109 122 58
112 127 50
109 123 59
120 134 50
120 135 62
112 127 59
111 124 60
107 122 61
108 121 49
109 123 31
112 126 35
115 131 47
111 125 63
115 130 51
106 118 64
116 131 29
117 131 73
118 134 62
106 120 59
119 135 51
106 119 51
110 125 36
114 128 41
120 135 48
110 124 66
106 119 54
118 134 45
106 119 47
110 124 40
115 129 44
112 127 41
112 127 56
107 120 33
114 129 56
113 127 56
122 138 40
111 124 59
115 128 40
116 131 46
116 128 43
118 134 43
115 130 46
122 137 50
102 115 40
109 122 43
112 127 41
120 135 53
116 131 56
114 130 26
106 119 57
117 133 30
113 127 39
129 146 43
108 121 56
116 131 60
106 119 57
114 126 54
105 118 43
110 122 45
113 128 57
106 120 59
106 120 67
108 122 53
112 127 67
121 135 74
115 129 54
104 118 61
110 123 57
108 120 69
115 130 69
109 124 64
103 116 50
109 122 53
109 122 55
114 130 56
104 118 61
108 120 67
114 127 43
106 119 39
106 120 44
100 113 52
105 118 60
98 112 63
105 118 65
93 105 62
111 123 57
115 130 60
95 106 56
103 116 51
108 122 58
83 93 61
103 115 62
104 117 64
99 112 58
95 106 48
102 115 51
101 113 57
105 118 55
101 114 64
93 105 53
96 110 68
84 95 67
93 104 57
100 112 44
94 106 48
92 103 58
86 97 62
103 115 63
93 104 64
98 109 45
90 100 69
89 99 73
86 97 56
71 80 51
86 96 58
94 103 66
87 98 44
92 101 51
99 110 49
124 138 25
137 153 0
131 147 0
140 159 0
139 156 0
126 143 0
134 151 0
130 147 0
135 154 0
141 158 0
125 140 0
136 153 0
136 155 0
133 149 0
129 147 0
134 151 0
120 135 0
129 144 0
125 140 0
128 145 0
135 154 0
126 142 0
125 141 0
126 141 0
121 137 0
143 162 0
131 147 0
115 132 0
123 140 0
117 133 0
130 147 0
128 143 0
119 136 0
119 135 0
128 145 0
118 135 0
126 144 0
140 159 0
117 133 0
85 100 46
34 55 34
33 53 53
32 51 45
37 57 89
31 48 53
34 54 59
38 60 87
38 60 60
36 57 74
36 57 69
33 52 58
35 55 52
38 61 70
36 57 65
37 60 66
33 51 62
37 59 69
36 58 68
40 64 66
45 71 86
45 70 105
38 59 70
41 64 90
39 62 75
35 56 65
39 61 70
34 53 69
36 57 67
36 55 79
37 60 64
35 55 66
38 61 80
39 61 74
40 64 65
39 61 54
43 67 90
46 72 97
42 65 83
43 67 82
34 53 52
31 48 66
37 59 49
38 57 60
41 65 76
37 59 53
38 60 57
35 55 73
43 66 89
42 65 87
40 62 78
33 52 40
42 66 82
44 69 100
41 64 84
32 49 59
38 59 70
40 62 70
37 58 73
35 55 54
38 58 47
32 51 55
31 46 47
29 44 55
33 51 52
76 83 39
128 143 0
122 137 0
122 134 0
122 135 0
135 153 0
118 133 0
131 146 0
126 139 0
111 122 0
128 141 0
123 135 0
119 132 0
130 144 0
127 137 0
131 145 0
128 139 0
131 142 0
131 145 0
118 128 0
129 142 0
140 154 0
133 147 0
125 135 0
126 136 0
137 150 0
132 145 0
140 153 0
144 158 0
134 149 0
128 139 0
137 147 0
129 136 0
128 140 0
134 144 0
143 157 0
131 136 0
145 158 0
138 150 0
124 129 0
81 64 0
87 69 1
85 64 1
107 85 1
92 72 1
90 68 1
79 64 1
83 58 1
88 68 1
102 76 2
91 72 1
97 83 1
99 79 1
96 79 1
98 81 1
78 57 1
97 79 1
93 72 1
100 81 1
97 74 1
94 78 0
104 90 1
89 70 1
90 68 1
108 92 1
101 81 1
96 77 1
89 73 1
97 85 1
98 82 1
101 85 1
98 82 0
95 78 1
99 82 1
98 85 0
95 80 1
108 93 1
111 91 2
110 93 1
100 80 1
91 75 1
112 96 1
108 91 1
102 86 1
102 79 1
107 86 1
113 98 1
96 77 1
108 92 1
109 90 1
96 74 1
106 88 1
107 94 0
105 86 1
101 80 1
106 92 1
113 96 1
112 95 1
107 88 1
116 97 0
114 96 1
117 101 1
113 92 1
108 90 1
109 89 1
113 98 1
111 89 1
110 93 1
115 94 1
117 104 0
122 108 1
117 99 1
110 89 1
114 99 1
108 87 1
109 94 1
109 87 1
111 96 1
120 106 1
112 97 0
115 99 1
109 93 1
114 100 0
117 101 1
116 105 1
115 99 1
117 103 1
116 100 1
116 100 1
101 84 1
115 105 0
117 100 1
108 90 1
115 100 1
123 105 1
101 84 1
105 87 1
103 79 1
120 106 1
118 102 0
111 100 1
116 101 0
107 89 1
112 97 1
112 93 1
114 103 0
112 100 0
111 96 1
101 85 1
125 111 1
117 106 0
115 103 1
102 83 1
103 88 0
111 95 1
107 95 0
104 90 0
102 86 0
105 92 0
109 92 1
118 104 1
115 98 0
124 112 1
120 110 1
118 106 1
113 102 0
125 112 1
108 96 1
107 120 64
119 134 62
126 141 58
111 123 64
122 138 39
110 122 61
109 123 62
116 131 57
110 124 59
114 128 48
105 118 55
109 123 49
109 122 55
103 115 60
107 120 57
109 122 55
107 121 46
107 121 42
113 129 54
114 130 35
103 114 45
107 120 57
111 125 48
114 128 38
107 121 62
108 122 54
101 113 62
110 123 54
118 134 41
114 126 46
116 131 61
117 131 54
114 131 39
113 128 61
111 123 37
116 129 45
114 130 48
103 117 64
110 124 56
113 127 46
113 127 50
119 135 54
116 130 73
120 135 36
126 143 40
119 135 38
121 139 64
122 137 53
106 119 50
114 129 48
116 131 59
105 119 45
119 134 37
121 137 48
116 131 38
116 130 51
112 125 49
115 131 63
118 133 47
106 120 45
119 134 48
114 128 65
108 123 54
107 122 50
108 121 44
110 123 70
112 126 44
110 122 49
109 124 58
112 126 47
116 131 55
109 122 64
117 130 47
100 112 66
113 128 56
115 129 67
114 128 54
105 118 60
102 115 71
102 115 58
103 116 53
101 113 52
110 123 54
110 124 64
97 110 52
105 118 51
95 107 45
96 109 42
105 118 57
112 125 55
100 114 59
94 105 51
116 130 82
97 108 56
104 115 53
109 121 53
109 124 58
97 111 61
97 110 51
103 116 64
94 106 60
97 109 60
93 103 46
96 109 62
100 111 50
102 114 65
101 112 60
91 103 53
96 108 71
102 115 46
80 89 44
90 102 55
93 103 60
90 103 69
94 107 82
80 88 55
98 109 49
88 98 61
98 110 64
95 106 58
91 102 55
94 104 63
98 107 69
87 97 49
86 95 44
92 101 53
98 110 45
134 150 0
139 156 0
123 139 0
116 131 0
126 139 0
138 154 0
141 159 0
129 145 0
136 152 0
127 144 0
114 127 0
128 145 0
137 154 0
122 137 0
130 148 0
120 135 0
122 137 0
133 149 0
131 147 0
120 134 0
129 147 0
133 149 0
128 145 0
127 145 0
124 139 0
131 149 0
129 148 0
126 141 0
125 140 0
116 131 0
119 134 0
124 139 0
108 125 0
121 136 0
117 134 0
126 144 0
115 133 0
111 126 0
109 124 0
125 142 0
108 123 0
115 131 6
57 74 58
30 47 48
40 62 79
30 47 56
36 57 67
36 56 71
34 54 53
34 54 55
35 54 66
37 58 66
39 61 87
40 63 87
33 52 58
32 51 57
38 60 65
33 52 62
35 56 52
32 50 60
38 60 72
37 60 58
40 62 86
37 59 65
38 60 84
39 62 78
35 55 76
38 58 73
39 61 73
37 57 64
38 60 77
44 69 90
43 68 75
41 65 86
36 56 63
39 62 69
40 62 90
38 60 60
40 62 94
33 54 59
41 63 89
39 61 75
36 58 55
39 62 70
39 61 68
38 57 70
38 58 64
37 57 75
39 61 75
33 51 59
38 58 74
32 48 52
35 55 65
34 52 72
39 60 63
30 49 38
29 45 66
33 52 41
34 52 63
33 49 66
36 55 46
31 47 48
36 56 58
33 46 37
69 81 9
115 127 0
120 132 0
108 120 0
120 133 0
109 117 0
110 122 0
116 126 0
135 150 0
120 130 0
114 124 0
134 149 0
114 125 0
115 123 0
128 141 0
124 135 0
113 123 0
136 148 0
116 129 0
125 137 0
110 122 0
124 137 0
136 152 0
134 146 0
137 152 0
126 138 0
143 154 0
133 143 0
129 143 0
137 149 0
131 145 0
137 150 0
129 138 0
131 140 0
113 125 0
132 144 0
135 146 0
131 140 0
132 139 0
137 149 0
138 153 0
130 137 0
102 92 0
82 57 1
90 71 1
90 74 0
93 69 1
98 82 1
89 69 1
96 74 1
91 72 1
92 75 1
83 66 1
94 77 1
91 72 1
96 73 1
95 80 1
98 79 1
88 69 1
100 85 1
104 89 0
95 80 0
89 65 1
96 78 1
102 86 1
88 75 1
99 80 1
99 78 1
96 79 1
98 81 1
105 88 1
99 83 1
96 83 1
99 85 1
95 76 1
106 91 1
105 92 1
107 92 1
95 77 1
99 84 1
111 98 1
105 94 0
88 71 1
106 85 1
103 83 1
93 75 1
105 85 2
109 87 1
104 90 1
103 84 1
111 94 1
104 85 1
103 80 1
107 88 1
114 98 1
111 92 1
107 91 1
114 99 1
106 88 1
100 78 1
110 90 1
118 102 1
107 92 1
111 98 1
115 103 1
112 98 1
101 83 1
109 92 1
115 102 1
113 99 1
105 90 0
120 103 1
116 102 0
117 102 1
115 101 0
121 106 1
103 80 1
112 100 1
114 96 1
113 94 1
109 91 1
107 89 2
114 100 1
105 85 1
115 99 1
109 94 1
117 99 1
121 102 1
110 94 1
111 92 1
117 102 1
114 98 1
117 99 0
112 95 1
120 103 1
113 92 1
122 107 1
104 86 0
111 96 1
112 99 1
112 99 0
116 101 1
114 101 1
112 95 1
98 77 1
103 91 1
106 95 0
112 100 0
104 89 0
110 96 1
113 98 1
110 95 1
115 99 1
112 97 1
115 103 0
101 86 0
116 102 1
119 101 1
100 89 1
100 81 0
120 104 1
116 105 0
109 101 0
113 98 0
123 109 1
106 91 0
110 93 1
120 107 1
115 103 1
119 134 49
119 133 62
118 132 67
112 127 65
107 119 53
123 140 63
116 130 63
124 139 55
113 128 59
114 129 63
108 120 64
107 120 71
102 114 61
115 128 63
101 114 62
116 131 63
118 133 47
119 133 57
112 126 68
114 129 48
110 124 53
102 115 60
114 129 36
105 120 47
114 127 42
97 110 53
105 119 57
114 128 26
115 130 61
119 136 50
113 127 52
121 136 39
112 127 40
118 133 54
117 132 66
112 125 46
106 120 43
120 136 49
115 129 41
113 128 57
116 131 38
115 130 44
109 123 51
118 133 61
112 126 65
120 134 55
112 126 48
119 133 39
108 123 40
116 131 49
106 120 45
109 122 60
118 133 48
123 139 49
110 125 66
112 127 56
117 131 50
103 116 65
108 122 31
110 123 62
115 129 40
111 123 60
114 128 45
112 127 47
115 129 48
112 125 59
106 119 47
102 116 43
110 124 52
115 128 47
111 125 42
114 128 51
109 123 62
116 131 62
111 125 48
102 116 49
102 115 62
119 133 53
98 110 59
96 109 39
99 111 61
103 114 56
108 122 62
101 114 54
103 116 58
103 116 55
106 120 61
98 111 57
86 97 54
106 119 66
114 129 44
101 113 65
102 114 46
105 118 62
105 120 48
86 96 54
98 111 72
99 113 70
101 115 61
96 107 54
99 111 49
92 103 59
91 102 67
84 94 42
92 103 56
88 100 64
85 97 57
102 113 50
91 102 64
88 98 75
90 101 58
92 103 69
96 108 54
80 90 71
83 94 63
90 100 71
88 99 80
87 99 71
97 109 67
86 96 58
83 92 56
92 103 53
86 95 58
87 98 43
93 104 55
107 120 25
117 132 13
136 153 0
125 142 0
136 153 0
125 141 0
123 138 0
137 154 0
114 128 0
124 140 0
116 131 0
134 151 0
132 149 0
140 157 0
123 138 0
127 142 0
132 150 0
120 134 0
96 109 0
109 125 0
119 135 0
123 137 0
117 132 0
115 130 0
123 139 0
121 136 0
128 145 0
122 140 0
122 137 0
127 144 0
128 144 0
126 142 0
125 142 0
114 128 0
98 111 0
122 138 0
110 125 0
93 107 0
104 118 0
118 135 0
117 134 0
121 137 0
112 128 0
114 129 0
105 118 6
69 84 44
35 55 55
39 61 69
32 50 43
30 47 63
29 47 55
28 44 61
30 48 38
33 52 76
41 64 77
35 55 55
34 55 67
32 51 67
33 53 60
36 57 63
38 60 61
33 53 57
37 58 74
37 58 64
43 67 82
39 61 79
38 61 65
37 58 69
31 48 65
40 63 78
34 53 53
35 55 71
36 57 66
36 57 66
38 60 59
35 55 65
42 65 89
40 63 78
35 55 65
40 63 79
32 51 61
43 67 81
34 53 66
37 57 60
32 49 58
36 57 66
35 56 60
38 59 69
34 53 57
33 53 49
32 51 49
34 54 54
38 58 71
40 62 74
36 56 70
33 52 61
35 55 59
30 48 54
36 56 60
38 60 63
37 58 77
37 57 58
31 48 48
36 57 60
68 80 40
120 131 0
114 126 0
102 116 0
117 133 0
116 127 0
110 122 0
123 137 0
112 122 0
124 136 0
121 130 0
134 148 0
112 122 0
111 121 0
124 132 0
112 124 0
122 136 0
121 136 0
109 118 0
93 102 0
130 140 0
140 152 0
116 127 0
131 139 0
136 149 0
127 136 0
126 137 0
127 140 0
117 125 0
129 143 0
125 135 0
125 134 0
112 120 0
125 136 0
126 137 0
120 129 0
140 152 0
134 145 0
133 145 0
133 141 0
124 134 0
130 136 0
140 149 0
134 140 0
120 123 0
106 104 0
82 62 0
96 76 0
88 71 0
86 68 0
79 59 0
89 67 1
92 66 1
100 84 1
95 76 0
90 70 0
90 72 1
90 65 1
99 75 2
108 89 1
89 73 1
93 74 1
85 63 1
96 76 1
95 79 0
92 74 1
100 80 1
99 86 0
85 69 1
102 88 1
100 86 1
104 90 0
99 82 1
95 78 1
101 80 1
100 84 1
110 95 1
106 93 1
108 94 0
99 81 1
108 93 1
102 81 1
104 89 1
102 88 1
95 72 1
102 82 1
106 93 1
112 99 1
101 85 1
102 80 1
108 96 1
109 94 1
107 93 1
110 91 1
110 92 1
104 85 1
107 90 1
110 95 1
110 96 1
103 82 0
106 86 0
110 87 1
113 94 1
101 81 1
105 87 0
119 101 1
117 99 1
108 93 1
104 89 0
109 94 1
125 109 1
108 93 1
98 74 1
108 84 1
115 100 1
108 90 1
112 97 1
110 92 1
112 90 1
116 97 1
103 83 1
108 91 1
105 87 1
117 101 1
114 98 1
115 100 1
108 94 1
109 92 0
106 92 1
111 91 2
116 99 1
120 106 1
105 89 1
110 92 1
117 101 1
119 107 1
114 101 1
115 101 1
115 100 1
103 82 1
104 87 1
103 81 1
110 92 0
106 91 0
107 92 1
100 85 1
111 101 1
110 99 1
113 95 1
114 101 0
111 97 0
111 94 0
120 105 0
117 104 0
114 97 0
96 79 0
105 90 0
117 103 1
114 99 1
104 90 1
98 77 1
118 102 1
105 86 1
116 96 1
119 102 1
117 100 1
113 98 1
124 113 0
106 91 1
112 94 1
119 108 0
106 120 53
103 116 59
110 124 49
111 126 63
110 124 43
113 127 76
120 134 60
113 126 63
121 135 65
121 136 59
113 127 49
106 119 51
109 121 73
105 118 67
107 120 70
112 125 63
111 126 47
110 123 61
108 122 53
111 123 66
107 119 60
120 135 58
109 124 61
109 123 49
119 134 58
108 123 58
109 123 63
107 120 41
118 133 53
118 133 47
118 132 51
115 129 51
114 129 58
113 128 40
110 122 32
108 122 48
118 134 55
112 127 56
112 126 50
117 131 63
117 131 47
114 128 51
105 119 68
114 128 37
112 127 56
113 128 51
105 118 46
112 126 54
112 126 55
114 128 55
108 121 47
106 119 50
115 129 43
112 125 72
106 118 56
119 134 53
108 122 67
115 129 45
114 128 56
113 127 55
110 123 54
117 132 49
108 122 58
106 119 56
107 119 49
108 122 49
112 126 57
124 137 50
115 130 49
105 119 63
114 129 58
101 112 59
106 119 52
110 124 60
114 127 51
115 129 47
108 120 51
101 113 56
111 125 48
110 124 44
99 111 52
97 106 45
101 114 54
97 108 62
102 115 49
99 114 60
111 127 62
95 106 47
102 114 51
101 113 62
91 102 57
104 118 51
98 110 69
103 116 52
102 115 70
90 100 42
98 110 31
104 117 57
90 101 48
94 106 50
96 109 47
80 91 58
99 110 48
101 114 71
87 98 62
103 114 55
89 99 69
86 96 70
95 108 55
96 107 46
83 93 47
97 108 50
92 104 72
97 108 70
83 93 77
78 88 65
84 94 58
75 84 58
79 88 39
86 95 57
92 102 62
81 91 61
75 85 64
83 93 44
115 129 26
118 132 0
114 127 0
122 136 0
123 137 0
123 138 0
125 142 0
134 150 0
124 137 0
128 143 0
136 152 0
123 139 0
128 146 0
113 128 0
118 133 0
127 142 0
124 140 0
116 131 0
125 140 0
129 145 0
118 134 0
118 132 0
125 140 0
124 138 0
124 140 0
125 142 0
116 132 0
118 134 0
107 120 0
120 136 0
122 138 0
124 140 0
108 123 0
124 140 0
112 126 0
111 126 0
104 120 0
110 125 0
108 123 0
113 128 0
104 119 0
103 119 0
111 127 0
90 103 0
105 120 0
100 115 0
115 130 0
80 94 34
37 53 53
33 53 36
34 53 72
31 49 57
34 53 63
34 54 65
33 51 56
37 59 73
33 51 47
34 54 60
32 52 64
40 62 74
35 56 68
35 55 70
36 57 60
36 58 60
40 64 83
39 61 79
41 65 74
29 46 64
36 57 71
40 63 69
36 58 59
32 52 46
37 57 70
33 53 52
38 59 74
38 61 70
40 64 78
33 53 61
40 62 70
36 56 71
38 60 75
35 56 64
34 53 82
37 58 58
36 55 65
35 54 75
34 52 76
37 57 66
38 61 54
34 54 59
36 57 74
37 59 65
38 59 73
33 51 64
33 51 58
32 50 50
31 49 45
39 61 77
29 46 54
33 50 60
31 48 39
36 56 59
32 51 48
33 53 58
57 68 46
99 112 0
115 129 0
106 120 0
99 109 0
90 101 0
106 118 0
112 123 0
118 129 0
123 135 0
108 117 0
103 115 0
103 113 0
115 128 0
117 132 0
119 130 0
113 127 0
110 124 0
128 138 0
123 137 0
123 133 0
121 132 0
119 130 0
124 132 0
113 123 0
116 125 0
125 139 0
130 139 0
121 132 0
138 148 0
121 131 0
130 144 0
125 134 0
137 148 0
126 136 0
130 137 0
126 135 0
133 144 0
129 141 0
129 141 0
115 125 0
117 127 0
133 142 0
133 138 0
133 142 0
129 135 0
119 124 0
104 102 0
89 71 0
86 65 0
83 62 0
83 59 0
75 55 0
85 66 1
99 77 1
97 74 1
82 57 1
102 83 1
85 64 1
97 81 1
93 69 1
84 60 1
97 78 1
87 68 1
84 65 1
98 81 1
90 74 1
94 77 1
93 79 1
102 86 0
98 81 1
94 80 0
92 70 1
90 72 1
103 90 0
102 86 1
92 71 1
102 85 1
92 69 1
107 88 1
86 60 1
104 92 1
101 90 1
105 90 1
97 78 1
100 84 1
103 83 1
95 75 1
104 85 1
109 94 1
104 87 1
101 84 1
106 90 0
103 86 1
95 74 1
100 83 1
105 90 0
97 78 1
105 86 1
115 96 1
99 77 1
117 103 1
105 85 1
113 95 1
105 90 1
101 84 1
112 95 1
106 89 0
107 89 1
114 96 1
108 91 1
112 93 1
109 89 1
108 88 1
110 95 1
114 96 1
107 90 1
109 90 1
105 82 1
112 95 1
108 92 1
96 83 1
102 81 1
117 96 1
114 100 1
112 96 1
110 95 1
96 80 1
112 95 1
114 97 1
111 97 1
107 89 1
93 79 0
99 86 0
114 95 1
108 91 1
106 89 1
108 87 1
109 91 1
116 98 1
110 96 0
109 95 0
110 96 1
110 96 0
113 98 0
95 80 1
107 92 1
112 97 1
111 95 0
105 85 1
109 92 1
108 94 1
113 100 1
100 80 1
118 102 1
107 94 0
100 85 1
104 87 0
110 95 1
97 79 1
111 96 1
115 101 1
118 107 0
120 102 1
110 93 1
113 96 1
115 99 1
115 95 1
119 100 1
104 89 0
117 104 1
107 91 1
106 120 53
113 124 61
111 125 58
126 141 62
106 119 52
111 124 66
110 123 55
111 125 45
116 130 51
118 133 64
108 121 73
108 120 67
109 122 63
116 131 59
111 125 71
109 123 52
109 122 53
112 125 52
104 116 55
112 125 67
114 127 55
107 121 66
113 128 45
111 125 68
110 123 62
111 124 66
110 125 62
98 111 58
107 120 44
104 116 43
102 114 51
117 132 43
121 135 57
114 129 49
119 134 44
101 113 48
112 126 53
107 121 56
109 123 55
117 133 51
115 129 34
111 124 46
114 127 55
105 119 56
115 130 56
117 131 59
95 107 54
115 130 56
116 131 44
102 116 52
110 124 38
110 125 59
105 118 53
119 132 56
125 142 37
107 120 43
119 132 49
111 125 48
108 122 60
115 130 65
103 116 57
109 121 56
108 121 44
112 125 49
115 130 43
111 126 51
120 135 29
105 119 61
109 123 45
107 120 46
104 117 45
99 113 77
102 114 60
106 119 47
106 120 50
103 115 65
96 106 46
102 113 41
111 124 44
100 112 59
96 107 58
103 116 60
93 106 51
95 108 60
96 109 67
96 108 49
94 106 46
102 114 54
98 112 41
102 114 49
105 118 66
92 103 60
103 116 42
104 116 66
105 120 46
95 107 43
102 115 42
100 112 35
107 121 57
88 100 60
98 110 55
91 102 52
97 108 57
96 108 58
97 109 51
93 105 50
86 96 56
91 102 48
96 107 75
90 101 48
101 113 78
94 106 58
94 106 76
86 96 74
76 85 69
88 98 65
77 86 41
86 95 41
83 93 70
87 96 43
79 89 54
84 94 61
93 102 35
105 117 13
111 124 0
115 128 0
117 132 0
114 127 0
132 147 0
121 136 0
134 151 0
125 140 0
116 131 0
117 132 0
115 131 0
127 144 0
115 129 0
130 145 0
104 116 0
120 134 0
108 122 0
121 137 0
121 136 0
108 124 0
116 131 0
112 125 0
120 135 0
107 121 0
118 134 0
106 122 0
111 128 0
125 142 0
115 129 0
120 133 0
115 131 0
105 121 0
111 128 0
89 100 0
119 135 0
118 133 0
120 136 0
101 115 0
119 135 0
100 115 0
87 101 0
103 116 0
96 109 0
94 107 0
92 104 0
92 105 0
81 95 0
106 120 0
79 90 2
51 61 41
29 47 40
25 40 31
34 53 50
32 52 41
32 50 47
34 54 46
32 51 62
37 57 79
38 59 69
27 45 36
37 58 65
32 51 38
35 56 65
38 59 70
31 49 62
29 46 54
39 62 90
29 46 58
36 56 70
35 55 78
41 64 75
38 60 70
36 57 55
44 69 78
37 57 78
44 68 77
39 62 71
41 64 87
41 64 74
41 65 75
40 61 77
37 59 69
38 61 59
32 50 40
35 55 58
37 59 59
37 59 60
40 63 70
44 68 69
35 54 58
36 57 71
38 59 84
36 57 64
34 54 64
39 61 82
26 41 31
33 51 60
33 52 47
30 46 39
35 55 52
33 52 38
35 54 61
67 81 38
101 113 2
88 94 0
107 116 0
106 117 0
100 114 0
110 121 0
106 117 0
95 105 0
105 115 0
119 130 0
102 110 0
101 113 0
109 119 0
111 122 0
102 108 0
105 117 0
120 131 0
123 134 0
108 114 0
112 120 0
117 123 0
119 134 0
123 136 0
125 137 0
133 144 0
112 124 0
113 121 0
122 133 0
115 122 0
106 115 0
117 123 0
108 117 0
124 129 0
133 145 0
114 121 0
119 124 0
123 129 0
135 148 0
121 126 0
117 120 0
125 133 0
126 134 0
125 131 0
131 136 0
109 110 0
117 124 0
118 121 0
116 115 0
129 135 0
122 125 0
95 80 0
96 73 1
88 66 1
88 73 0
90 70 1
80 58 0
79 68 0
89 71 0
89 65 1
80 56 1
93 71 1
90 70 1
102 80 1
75 53 1
85 61 1
98 80 1
96 78 1
83 65 1
95 76 1
96 78 1
108 96 0
97 77 1
86 65 1
96 74 1
102 84 1
92 79 1
103 90 1
100 88 1
96 83 1
110 92 1
100 81 1
106 93 0
97 80 1
97 81 1
101 85 1
110 98 1
97 80 0
108 91 1
104 88 1
99 80 1
100 84 1
105 92 1
106 91 1
101 83 1
114 99 1
110 91 1
104 83 1
107 90 1
105 89 1
111 94 1
104 88 1
114 96 1
108 89 1
109 91 1
112 98 1
110 90 1
108 92 1
105 92 1
103 86 0
102 82 1
106 90 1
107 89 1
103 85 1
104 83 1
102 84 1
109 88 1
115 99 1
115 97 1
107 91 1
106 89 0
106 89 1
110 91 1
114 96 0
108 89 1
105 82 1
113 98 1
106 91 1
110 96 1
113 96 1
106 93 1
112 94 1
111 96 0
111 94 1
118 103 0
111 91 1
112 90 1
103 86 0
120 101 1
123 109 0
101 85 1
110 91 1
93 75 1
107 90 1
115 100 0
106 89 0
96 81 0
106 87 1
108 89 1
118 100 1
109 94 1
113 95 0
112 98 1
113 99 0
116 99 1
100 87 0
103 81 1
116 105 0
103 87 1
114 99 1
114 102 0
105 86 1
104 85 1
114 96 1
119 103 0
110 93 0
112 94 1
108 93 0
114 97 1
105 88 1
103 87 1
118 107 1
106 91 1
112 95 1
109 121 66
116 130 54
110 123 60
114 129 64
110 125 39
109 123 55
111 124 64
112 124 65
123 138 55
108 122 67
112 126 76
112 127 65
107 120 56
110 123 60
103 116 59
108 121 57
116 131 61
102 112 46
124 139 57
113 127 55
115 128 52
102 114 80
102 115 58
119 133 49
107 120 60
102 114 71
111 125 53
112 125 54
115 130 54
118 132 56
119 134 50
117 131 50
109 123 77
95 107 36
108 122 42
111 125 40
108 120 53
116 131 48
120 135 43
103 115 73
98 110 61
98 111 79
110 124 51
112 126 45
114 129 41
116 129 53
115 128 46
111 125 61
116 130 32
120 135 41
106 119 49
104 116 60
115 129 57
108 122 60
105 118 38
108 122 62
103 115 57
104 119 56
101 115 55
117 133 51
109 123 56
108 121 60
115 129 45
105 117 64
115 129 47
108 122 43
114 128 55
106 120 47
100 112 50
105 119 60
94 106 28
119 134 44
104 118 53
108 122 61
102 115 46
105 118 47
107 119 53
110 125 51
97 110 49
99 112 61
101 114 33
103 117 74
101 114 57
107 121 48
102 116 60
97 110 58
99 112 65
96 108 53
92 103 59
103 116 63
93 105 59
99 111 46
99 113 63
97 110 69
105 117 43
100 111 49
91 103 70
101 111 59
89 100 55
91 100 63
98 111 74
95 106 67
105 118 74
102 115 71
90 99 61
76 86 56
95 107 67
89 100 62
95 106 64
91 102 82
91 102 67
90 100 71
76 85 58
80 91 59
90 101 45
81 90 53
93 102 55
87 97 42
94 104 58
80 89 59
97 107 61
106 117 43
111 124 0
93 104 0
122 136 0
112 125 0
124 137 0
122 136 0
127 142 0
110 123 0
126 140 0
118 132 0
129 145 0
104 118 0
116 130 0
123 138 0
129 144 0
129 146 0
124 140 0
118 134 0
116 130 0
124 140 0
115 128 0
127 143 0
112 126 0
128 143 0
142 158 0
107 122 0
112 128 0
121 136 0
109 124 0
107 122 0
111 124 0
116 132 0
111 126 0
115 130 0
116 129 0
130 147 0
107 121 0
114 130 0
110 124 0
102 115 0
108 122 0
105 118 0
109 124 0
98 115 0
109 124 0
97 109 0
105 118 0
115 129 0
99 112 0
75 88 0
98 112 0
100 113 0
71 83 31
46 60 39
31 50 53
31 50 47
34 54 69
38 60 59
32 52 58
30 47 55
26 42 43
34 54 55
36 56 43
35 56 46
35 56 60
32 52 49
33 53 48
38 60 70
36 57 61
37 59 52
37 58 65
28 45 40
28 45 52
39 62 68
31 49 59
31 50 48
41 65 74
32 52 58
41 64 68
35 55 59
36 57 65
32 50 46
36 56 66
37 58 68
38 60 73
35 55 46
34 54 59
36 56 47
34 53 64
33 51 65
29 46 53
34 54 59
33 52 53
31 49 45
42 66 69
37 59 74
33 52 60
35 55 59
33 51 59
26 42 37
26 41 42
33 52 45
56 67 34
73 82 12
102 111 0
84 94 0
99 109 0
88 98 0
115 127 0
90 98 0
109 119 0
89 95 0
109 119 0
97 104 0
101 113 0
95 106 0
107 117 0
108 119 0
127 141 0
112 122 0
102 115 0
114 125 0
105 116 0
118 129 0
123 133 0
129 141 0
125 135 0
116 124 0
126 133 0
111 121 0
115 122 0
111 118 0
123 134 0
129 140 0
124 132 0
124 134 0
127 133 0
106 115 0
108 115 0
129 136 0
111 121 0
116 125 0
110 118 0
124 127 0
130 134 0
124 129 0
128 139 0
121 125 0
124 131 0
130 133 0
109 112 0
118 124 0
118 117 0
112 114 0
125 130 0
116 116 0
100 95 0
84 62 0
78 57 0
84 62 0
95 74 1
78 58 0
85 67 0
79 62 0
91 71 1
84 64 1
92 71 1
90 71 1
97 78 1
91 74 1
82 62 1
94 77 1
106 93 1
91 71 1
96 79 1
93 76 1
102 88 1
103 86 1
110 100 0
98 78 1
110 92 1
101 81 1
95 76 1
99 87 1
108 89 1
89 70 1
96 78 1
93 77 1
103 86 1
104 85 1
107 89 1
96 80 1
90 70 1
99 84 1
100 87 1
96 79 1
103 90 1
106 88 1
110 96 1
90 69 1
101 85 1
105 87 0
111 96 1
104 89 1
93 73 1
101 86 1
116 100 1
115 100 1
108 98 0
106 88 0
107 88 1
113 96 1
101 82 1
109 91 1
101 78 1
107 89 1
110 90 2
116 99 1
109 91 1
115 98 1
99 81 1
115 103 0
111 93 1
108 88 1
107 92 1
110 92 1
104 87 1
113 96 1
115 98 1
115 94 2
116 100 1
105 85 1
115 94 1
112 97 0
112 97 1
116 102 1
99 78 1
116 103 0
106 90 0
110 89 1
106 88 1
105 90 0
106 91 1
106 89 1
107 91 0
121 110 0
106 89 1
102 83 0
98 79 1
111 92 1
111 99 0
109 92 1
108 90 1
104 92 0
116 99 1
108 90 1
102 84 1
104 84 1
106 89 1
102 87 1
111 99 0
97 80 1
115 103 0
118 101 1
109 94 1
105 89 0
118 102 0
114 94 1
116 102 1
116 101 1
110 99 1
107 92 1
104 88 1
91 72 1
112 97 1
120 108 1
107 91 1
111 93 1
115 129 64
100 112 71
105 117 65
116 131 55
116 131 61
102 115 69
117 132 54
116 131 58
112 126 67
107 121 38
115 129 50
113 128 58
106 120 60
117 130 53
116 130 65
106 120 54
102 115 71
119 134 60
123 138 60
102 113 48
99 111 56
104 118 61
110 123 49
106 118 48
114 128 39
116 129 63
113 126 55
119 134 63
107 120 59
119 132 64
104 116 36
119 134 60
111 126 48
112 127 56
109 122 53
101 113 55
102 116 52
100 113 34
107 119 46
105 119 58
110 126 48
102 114 55
107 121 39
120 135 54
109 124 53
98 109 52
109 123 54
103 116 69
113 127 64
109 123 56
110 124 55
109 122 50
102 114 50
102 114 53
107 120 45
109 123 50
104 117 50
105 119 59
107 120 37
108 122 53
101 114 52
102 116 67
108 121 49
106 119 59
110 124 49
112 126 56
104 117 63
109 123 40
102 114 54
112 125 57
101 113 53
102 115 54
114 127 49
105 116 58
99 111 66
91 101 32
104 118 39
102 115 37
92 103 47
98 112 69
98 112 61
90 101 65
104 118 45
92 105 59
92 104 66
100 111 51
101 114 40
93 104 50
96 108 44
102 113 48
106 120 50
89 100 47
92 105 62
99 110 62
92 103 59
93 104 52
93 104 35
96 108 61
99 111 71
95 107 68
102 114 68
101 114 73
87 96 53
90 101 60
91 103 75
92 103 51
86 97 66
84 94 63
99 110 59
94 104 57
90 101 65
91 101 54
87 98 54
78 87 54
81 88 45
94 103 54
79 87 49
75 83 48
91 100 35
85 94 41
103 115 21
119 134 0
110 122 0
100 111 0
125 140 0
118 132 0
108 120 0
122 136 0
117 131 0
117 132 0
118 132 0
130 146 0
122 135 0
116 130 0
118 133 0
125 140 0
106 118 0
116 130 0
117 130 0
109 122 0
116 131 0
119 134 0
111 125 0
119 133 0
111 126 0
104 118 0
113 127 0
126 143 0
113 127 0
116 130 0
114 128 0
90 102 0
119 135 0
104 117 0
120 135 0
107 120 0
97 109 0
107 122 0
119 136 0
109 124 0
97 110 0
119 133 0
113 128 0
116 132 0
109 123 0
94 107 0
99 111 0
99 111 0
99 111 0
101 114 0
90 101 0
92 105 0
90 102 0
90 103 0
90 101 0
90 101 0
66 77 26
50 64 40
28 46 41
26 41 49
33 53 47
33 53 55
28 46 42
35 55 41
30 47 58
33 52 65
32 50 48
32 51 54
34 55 42
32 51 61
36 55 64
32 51 55
33 53 39
32 49 47
38 60 69
36 56 59
30 47 62
37 59 55
37 59 54
37 58 45
28 43 40
33 52 64
34 54 51
39 61 78
33 52 65
30 47 49
38 59 71
34 53 61
35 56 61
39 60 54
36 57 52
36 56 71
41 65 73
32 51 55
26 40 51
35 54 69
30 47 52
33 51 46
35 54 64
32 51 57
26 42 15
24 38 36
42 56 46
75 89 36
89 96 0
92 99 0
80 87 0
99 107 0
87 101 0
89 98 0
94 105 0
92 100 0
113 120 0
110 120 0
104 115 0
109 120 0
99 106 0
107 118 0
116 129 0
100 106 0
126 136 0
105 115 0
102 111 0
130 141 0
115 127 0
101 112 0
117 127 0
113 122 0
105 111 0
115 125 0
114 124 0
112 122 0
114 124 0
104 112 0
120 129 0
122 131 0
118 127 0
133 146 0
123 131 0
121 131 0
101 107 0
112 119 0
124 132 0
111 113 0
106 104 0
139 147 0
118 125 0
121 129 0
136 144 0
113 115 0
114 118 0
117 119 0
120 125 0
122 126 0
116 114 0
121 125 0
108 106 0
114 115 0
111 112 0
104 98 0
92 73 0
79 60 0
89 65 1
83 66 0
87 63 1
72 55 0
85 66 1
87 70 0
95 77 0
95 77 1
92 74 1
88 72 1
97 79 1
81 53 1
103 82 1
80 62 1
95 75 1
98 79 1
106 87 1
96 80 1
94 73 1
95 76 1
97 79 1
101 82 1
97 80 1
96 80 1
90 71 1
96 79 1
98 84 1
92 74 1
104 88 1
89 70 1
104 86 1
108 90 1
92 78 1
101 87 1
99 76 1
97 80 0
92 77 1
94 79 0
107 88 1
105 87 1
94 78 1
96 75 1
100 83 1
105 92 0
97 79 1
113 94 1
100 85 1
103 86 0
108 91 0
93 83 0
92 70 1
117 107 0
103 86 1
98 80 0
105 91 1
114 98 1
107 89 1
106 84 1
109 91 1
114 97 1
110 93 1
105 91 1
103 79 1
105 84 2
110 86 2
119 103 0
110 94 1
104 84 1
115 97 1
96 77 1
109 91 1
109 86 1
105 84 0
115 99 1
102 85 0
102 78 1
114 99 0
105 88 0
108 92 1
106 93 1
112 93 1
107 88 1
104 86 1
104 88 0
112 97 1
106 88 1
104 89 0
108 89 1
115 96 0
109 94 0
118 103 0
108 94 0
114 98 1
104 87 1
113 99 0
115 103 0
103 89 0
112 98 0
117 99 1
108 95 1
103 88 0
102 85 1
101 84 1
96 79 1
111 89 1
112 97 1
107 86 1
117 99 1
117 102 1
99 83 1
107 95 0
106 94 1
112 98 1
111 93 1
105 89 1
115 100 1
104 85 1
116 106 1
113 127 69
108 119 77
121 135 68
112 127 58
113 125 76
122 136 71
118 133 49
116 129 72
117 132 52
114 128 47
106 118 63
111 124 75
113 126 58
112 126 55
110 124 52
109 123 60
104 117 60
104 117 62
106 118 45
105 118 41
114 130 57
106 121 45
107 121 41
117 131 62
108 121 57
107 120 59
114 126 65
98 110 44
98 109 56
116 131 44
108 121 49
120 135 50
106 120 57
111 125 45
115 129 37
114 127 30
109 123 52
106 118 51
103 116 55
108 120 31
110 124 48
107 120 43
110 123 51
113 125 60
118 131 49
101 114 48
120 134 68
101 113 54
106 120 36
112 126 64
100 112 58
109 122 59
110 125 76
122 137 48
110 125 63
102 113 66
114 130 71
119 133 57
103 115 52
99 112 54
104 117 48
98 110 63
108 121 65
114 128 60
115 129 44
115 129 62
104 118 55
90 100 61
107 120 53
101 113 57
108 121 48
101 115 53
101 114 50
99 112 52
88 100 60
109 124 44
109 122 60
89 101 60
89 100 45
111 125 50
82 92 55
108 120 61
99 111 56
101 113 74
97 110 52
107 119 63
96 107 53
103 114 41
97 108 60
107 118 66
101 114 45
99 111 67
106 121 62
100 110 65
97 109 50
101 113 60
97 109 65
104 116 59
101 113 72
96 107 56
74 83 41
97 109 68
99 110 68
95 107 71
99 111 79
101 113 70
86 95 69
87 98 64
85 95 64
92 103 71
81 92 60
91 101 54
82 91 44
85 94 45
90 99 59
82 91 53
80 89 34
94 104 49
93 103 37
114 125 0
100 111 0
115 126 0
116 128 0
110 121 0
117 130 0
118 132 0
119 132 0
108 121 0
112 124 0
110 123 0
118 131 0
114 126 0
107 120 0
107 120 0
121 137 0
107 119 0
106 120 0
120 135 0
97 113 0
111 124 0
120 137 0
112 126 0
103 116 0
106 117 0
107 120 0
116 131 0
113 128 0
118 134 0
102 115 0
119 134 0
114 129 0
107 120 0
107 121 0
115 130 0
102 117 0
113 128 0
113 126 0
107 122 0
100 112 0
93 107 0
97 110 0
102 115 0
102 115 0
94 106 0
102 114 0
95 108 0
98 112 0
87 100 0
87 97 0
110 123 0
84 96 0
84 95 0
84 95 0
84 94 0
85 96 0
62 71 0
102 113 0
77 89 0
55 67 27
23 38 22
32 51 33
31 48 42
31 50 54
34 53 63
31 50 42
30 47 47
26 42 43
27 43 41
31 49 49
32 51 48
31 49 47
34 54 46
29 45 49
33 52 45
35 55 67
27 43 31
34 54 60
39 62 60
38 59 78
33 52 64
27 43 40
39 61 55
34 54 55
36 57 65
32 51 55
33 52 50
39 61 66
31 49 38
33 51 61
32 52 38
38 60 45
34 53 65
33 52 63
27 41 58
35 55 52
34 53 58
34 54 54
31 49 28
27 41 41
27 43 41
51 62 42
67 76 25
86 93 25
87 96 0
85 91 0
86 94 0
95 104 0
97 108 0
95 100 0
94 103 0
87 94 0
95 101 0
104 115 0
85 96 0
91 101 0
93 99 0
89 98 0
97 103 0
124 135 0
95 104 0
95 106 0
115 127 0
111 121 0
96 104 0
102 111 0
124 135 0
102 108 0
110 120 0
112 124 0
119 133 0
108 117 0
114 123 0
114 120 0
99 105 0
112 122 0
106 113 0
107 115 0
113 121 0
97 102 0
112 122 0
108 115 0
112 119 0
118 126 0
122 129 0
120 126 0
119 126 0
106 110 0
113 119 0
117 123 0
120 124 0
122 131 0
121 126 0
107 109 0
92 87 0
120 127 0
115 119 0
115 116 0
114 111 0
100 99 0
112 114 0
101 100 0
84 75 0
90 72 0
85 64 1
75 55 0
81 64 0
77 58 0
83 64 0
76 55 1
91 71 0
82 60 1
78 60 1
86 64 1
88 70 0
92 74 1
83 63 1
104 87 1
89 61 1
93 72 1
89 69 1
98 81 1
93 68 2
94 76 1
91 70 1
108 94 0
106 89 1
106 83 2
105 89 1
103 83 1
99 84 1
95 80 1
92 73 1
97 80 1
91 72 1
116 98 1
101 83 1
96 78 1
93 78 1
89 72 1
97 83 1
105 86 1
94 77 1
106 93 0
97 80 1
99 82 1
103 89 0
97 79 1
98 81 1
96 82 0
103 85 1
105 85 1
106 93 0
105 85 1
112 98 0
103 89 1
97 77 1
115 97 1
99 77 1
98 81 1
91 69 0
109 89 2
103 89 1
107 84 1
116 103 1
114 101 1
96 82 1
103 88 1
108 88 1
110 89 2
119 104 0
114 102 0
107 91 1
106 88 1
105 91 1
106 90 0
112 93 1
111 95 1
99 80 1
107 91 0
110 93 0
112 93 1
111 95 1
114 99 0
101 82 1
111 95 1
114 99 0
104 88 1
111 96 1
105 90 0
107 86 1
119 104 0
112 95 1
114 94 1
101 80 1
104 84 1
104 88 1
95 80 0
109 94 0
108 90 1
98 85 0
116 102 1
104 86 1
104 82 1
108 93 0
104 87 0
101 85 1
108 91 1
96 78 0
111 93 1
116 101 1
111 95 1
104 88 1
112 99 1
108 93 1
105 90 1
113 97 1
120 106 0
107 92 1
99 75 1
110 91 1
109 123 61
122 136 58
102 114 76
105 117 58
123 140 55
120 135 61
113 125 63
112 126 52
103 116 51
112 125 67
117 133 67
112 125 63
105 117 53
116 130 59
116 130 61
101 114 44
106 119 63
114 127 62
115 130 53
108 122 66
101 113 51
110 124 65
111 124 61
104 117 53
108 121 50
119 133 57
108 122 58
106 119 58
114 127 67
104 118 48
103 115 63
110 122 46
99 110 56
105 118 56
116 129 54
109 123 59
109 122 48
116 128 56
110 124 54
107 119 60
108 121 45
112 127 52
111 125 59
113 127 57
104 117 69
106 119 26
103 114 46
104 117 50
102 115 52
110 124 63
100 113 63
114 129 59
109 122 55
103 117 70
102 115 55
102 114 65
108 122 47
117 131 45
109 121 50
107 122 83
109 124 57
95 106 51
109 123 54
99 110 50
107 120 40
99 112 46
98 111 52
92 102 69
106 120 54
100 113 52
98 111 64
99 111 75
99 112 40
98 110 59
99 111 63
105 117 63
103 116 72
92 103 61
99 111 64
104 117 57
102 116 62
85 94 53
102 114 54
99 111 53
94 107 43
95 107 45
102 113 55
94 104 50
93 103 56
97 109 62
99 110 61
101 114 58
88 98 57
93 105 76
96 107 50
86 97 66
104 118 71
91 102 64
86 96 60
94 106 61
106 117 62
96 107 57
83 93 62
96 108 68
91 101 47
92 102 68
89 100 70
98 107 60
88 99 71
85 94 46
83 92 52
80 89 73
79 89 60
73 81 59
89 98 49
77 85 53
91 100 36
103 113 14
118 131 0
114 127 0
108 121 0
124 135 0
111 124 0
105 116 0
117 129 0
102 113 0
98 109 0
100 110 0
110 120 0
102 114 0
104 117 0
115 128 0
111 123 0
112 126 0
111 126 0
113 127 0
114 128 0
115 129 0
88 100 0
106 119 0
114 128 0
109 124 0
103 116 0
123 138 0
109 122 0
111 126 0
99 113 0
114 129 0
119 134 0
112 127 0
104 117 0
103 116 0
125 140 0
103 117 0
129 144 0
114 128 0
122 137 0
104 116 0
108 122 0
112 125 0
123 138 0
78 91 0
100 112 0
93 104 0
105 118 0
84 96 0
100 113 0
102 114 0
115 128 0
91 104 0
84 96 0
86 95 0
100 111 0
76 87 0
95 107 0
85 96 0
71 80 0
72 82 0
93 105 0
71 79 0
72 84 31
26 42 27
32 49 59
30 48 38
32 50 58
28 45 38
31 49 41
25 38 28
31 49 48
29 46 45
35 56 48
33 52 48
30 48 66
31 49 48
37 57 45
38 60 64
32 51 41
36 58 69
24 39 53
33 53 47
25 41 49
32 52 41
36 57 65
34 55 54
34 53 46
41 65 58
28 45 49
36 57 56
28 44 38
34 54 41
34 53 44
35 54 65
35 56 47
32 51 38
34 53 70
28 45 40
35 55 59
34 53 54
31 36 30
74 82 30
65 70 0
73 78 0
82 88 0
80 89 0
91 101 0
80 89 0
91 101 0
89 97 0
86 89 0
88 92 0
87 94 0
96 106 0
102 108 0
91 100 0
95 104 0
104 115 0
105 114 0
104 113 0
100 110 0
100 109 0
116 127 0
107 117 0
104 113 0
113 124 0
89 99 0
103 115 0
95 103 0
110 116 0
111 123 0
117 125 0
104 110 0
107 113 0
111 121 0
105 116 0
98 104 0
97 99 0
103 113 0
111 121 0
120 128 0
102 107 0
126 136 0
116 124 0
114 121 0
125 132 0
113 122 0
119 126 0
109 112 0
110 115 0
108 115 0
109 115 0
116 120 0
125 129 0
110 113 0
109 112 0
106 109 0
117 122 0
99 95 0
118 118 0
110 112 0
115 114 0
89 85 0
120 122 0
107 107 0
101 93 0
89 63 0
93 77 0
84 64 1
83 61 0
91 68 1
86 68 0
83 68 0
75 59 0
86 66 0
87 67 1
91 79 0
84 68 1
104 82 1
98 81 1
88 71 0
97 80 1
100 84 1
88 63 1
95 77 1
98 78 1
86 68 1
98 81 1
106 90 1
94 78 1
95 71 1
94 73 1
95 79 1
89 67 1
106 88 1
104 87 1
97 82 1
97 73 2
94 75 1
78 55 1
101 87 0
100 86 1
95 78 1
89 76 1
95 77 0
100 83 1
92 71 1
102 89 1
96 80 1
106 91 1
110 96 0
100 85 1
92 74 1
102 87 1
100 86 0
104 89 1
90 73 1
98 77 1
94 76 1
108 90 1
104 88 1
114 100 1
98 79 1
109 94 0
112 98 1
108 96 0
111 97 1
118 100 1
100 74 1
108 90 1
112 92 2
105 86 1
107 85 1
107 89 1
106 89 1
110 95 0
105 87 1
120 104 1
105 89 0
108 91 1
108 92 0
112 95 1
108 91 0
107 86 1
105 84 1
106 86 1
100 83 1
102 85 1
113 95 1
100 78 1
110 96 0
106 88 0
103 85 1
106 91 0
102 87 0
106 88 1
114 98 0
101 82 1
103 88 0
105 86 0
107 90 1
117 100 0
109 87 1
98 82 1
106 91 1
108 92 1
109 94 1
103 89 1
115 98 1
94 72 1
114 103 1
104 91 0
116 102 0
111 96 1
111 94 1
107 87 1
110 95 1
113 99 1
116 98 1
112 98 0
102 83 1
115 103 0
113 128 57
113 127 66
115 130 78
113 128 66
120 134 58
117 132 54
120 135 44
110 123 81
113 126 69
112 125 65
114 127 53
110 124 52
115 127 66
107 120 49
113 128 60
112 124 68
118 132 64
107 119 49
107 119 66
111 125 50
109 123 57
109 122 66
108 121 65
108 120 64
114 129 55
106 119 46
111 126 51
108 120 58
98 112 53
112 125 60
106 119 58
120 133 65
101 112 51
102 113 59
104 117 50
103 116 51
114 126 36
117 132 61
106 119 60
106 120 47
111 123 66
115 128 73
117 131 50
102 115 70
105 118 41
110 124 57
109 122 54
94 105 77
107 119 18
108 121 53
107 120 58
116 131 54
109 122 52
108 121 45
105 118 49
109 122 49
108 122 50
111 125 55
101 113 47
102 115 66
108 121 63
99 112 56
105 118 55
104 118 61
94 106 63
105 117 45
105 119 51
107 121 70
93 105 73
106 120 60
90 103 67
94 107 71
108 123 62
112 127 63
102 114 58
96 108 67
88 99 64
88 99 78
111 125 57
106 118 72
93 105 74
94 107 65
100 112 66
102 114 65
95 106 59
94 105 39
96 109 56
100 113 62
108 121 45
104 115 57
100 111 69
105 117 52
104 116 40
99 109 45
93 105 49
90 101 51
94 106 59
84 94 70
96 107 65
89 99 72
91 102 69
80 90 55
88 98 58
92 103 43
86 95 48
83 93 51
92 103 47
76 85 46
79 87 48
88 98 60
77 85 67
86 94 63
73 79 55
93 102 49
85 94 40
109 119 22
107 118 0
100 111 0
101 112 0
114 126 0
110 121 0
97 108 0
100 112 0
98 108 0
109 121 0
112 125 0
109 120 0
115 128 0
110 122 0
112 125 0
124 139 0
118 133 0
104 116 0
124 137 0
116 127 0
109 124 0
93 105 0
97 110 0
113 127 0
100 112 0
112 126 0
115 128 0
126 141 0
119 134 0
113 127 0
107 120 0
102 114 0
107 121 0
100 113 0
100 113 0
122 137 0
115 129 0
113 126 0
109 121 0
115 130 0
96 110 0
117 132 0
112 128 0
92 105 0
110 125 0
117 130 0
104 118 0
98 109 0
99 112 0
103 118 0
93 106 0
99 111 0
85 97 0
110 124 0
107 120 0
83 94 0
91 104 0
83 95 0
79 89 0
86 98 0
91 104 0
79 87 0
95 106 0
80 90 0
68 78 0
71 81 0
64 75 0
76 84 0
47 60 9
43 55 39
28 45 21
33 53 66
27 42 31
30 47 30
28 44 29
30 50 41
29 46 28
32 52 55
26 42 41
34 54 52
30 48 31
30 48 40
35 54 60
31 48 39
35 55 59
35 55 65
33 52 40
28 44 40
37 57 65
29 47 47
38 59 46
37 58 54
27 43 50
31 49 42
27 43 18
30 47 46
37 59 44
23 36 31
24 37 10
27 44 41
41 55 32
57 66 7
86 94 0
64 68 0
82 90 0
78 88 0
77 82 0
80 85 0
83 92 0
86 94 0
84 95 0
101 110 0
88 96 0
79 87 0
97 108 0
87 98 0
89 95 0
97 105 0
99 110 0
103 112 0
93 99 0
100 109 0
95 100 0
101 110 0
98 106 0
126 140 0
93 102 0
120 129 0
104 116 0
99 107 0
100 107 0
96 106 0
115 126 0
108 115 0
117 125 0
103 109 0
93 94 0
103 111 0
102 106 0
113 120 0
108 115 0
111 118 0
123 132 0
125 134 0
99 99 0
116 126 0
107 113 0
106 113 0
100 102 0
107 115 0
113 120 0
106 113 0
97 103 0
113 116 0
119 124 0
114 121 0
124 128 0
106 107 0
110 107 0
116 112 0
108 110 0
110 110 0
107 111 0
103 104 0
112 113 0
101 101 0
103 100 0
109 105 0
108 104 0
101 94 0
85 68 0
86 65 1
86 65 0
85 62 1
89 71 0
81 67 0
81 64 0
80 63 1
92 75 1
75 60 0
81 64 0
86 72 0
94 74 1
108 92 0
93 70 1
94 66 1
96 76 1
105 82 1
91 73 1
95 79 1
98 80 1
90 72 1
96 78 1
95 74 1
87 70 1
93 75 1
92 78 1
89 68 1
96 80 0
93 73 1
102 91 0
92 73 1
105 91 1
98 84 1
83 63 1
101 86 0
104 90 1
100 88 1
97 79 1
94 80 0
101 83 1
97 81 1
106 88 2
107 90 1
90 69 1
103 87 1
103 89 1
94 75 1
111 91 1
95 81 1
99 83 0
103 86 1
99 84 0
109 93 0
99 79 1
112 98 1
103 87 1
102 80 1
102 86 0
115 97 1
112 96 0
101 82 1
109 92 1
97 78 1
97 79 1
105 86 1
110 94 1
99 83 1
107 92 0
108 89 1
109 91 0
108 89 1
100 84 1
108 89 1
119 97 1
98 82 0
107 93 0
111 97 1
114 99 0
109 93 0
110 98 1
116 101 1
104 87 1
106 88 1
102 87 0
106 87 1
113 98 1
112 100 1
117 101 0
101 82 1
108 92 1
114 99 1
106 86 1
112 94 1
109 94 0
105 93 0
93 70 1
105 89 1
107 89 0
104 88 1
103 86 0
109 94 1
122 107 1
118 99 1
102 84 1
110 93 1
103 84 1
115 98 0
110 90 1
117 104 1
114 96 1
110 92 1
110 90 1
107 89 1
114 96 1
110 124 55
102 116 47
110 125 68
111 124 76
120 135 66
107 121 71
102 114 72
116 129 65
115 128 80
103 116 57
106 120 64
112 127 60
118 132 57
101 115 67
107 120 51
123 137 58
115 129 61
106 120 58
98 109 57
109 123 77
117 132 52
111 125 57
97 109 51
116 131 71
110 124 65
117 130 61
115 129 52
109 120 70
108 120 57
113 126 57
103 116 58
109 121 52
112 125 63
98 109 62
110 124 49
97 110 56
99 111 53
100 113 48
106 119 57
107 119 47
117 132 57
101 114 34
103 115 74
103 114 57
116 129 48
113 128 50
114 128 68
118 132 57
108 120 52
102 114 51
104 117 65
98 109 47
105 117 50
101 115 53
92 104 52
101 113 66
107 121 33
108 121 53
101 112 36
108 121 26
103 116 68
104 117 51
95 107 35
100 111 64
95 105 44
98 108 29
106 119 69
100 112 50
96 108 46
110 124 46
94 106 59
98 111 66
101 114 66
103 117 72
105 118 68
98 110 55
104 117 49
96 108 59
95 107 72
98 110 60
102 115 71
105 116 53
99 112 61
95 106 59
91 101 64
88 98 57
96 109 68
106 118 59
89 100 68
88 98 55
96 107 56
95 105 59
89 99 51
92 102 34
88 98 50
101 111 58
97 108 63
87 98 72
90 100 60
86 96 54
92 103 56
85 94 63
80 90 45
84 94 59
84 94 53
87 98 44
83 93 59
87 97 41
76 83 46
71 79 50
79 88 40
74 83 59
86 94 43
79 89 33
102 113 0
116 128 0
103 114 0
101 113 0
99 109 0
96 107 0
124 136 0
114 125 0
96 107 0
118 130 0
110 122 0
85 94 0
107 119 0
100 111 0
94 105 0
104 116 0
101 112 0
123 137 0
115 129 0
111 124 0
94 107 0
115 129 0
114 128 0
119 133 0
107 121 0
110 124 0
110 123 0
99 113 0
100 114 0
116 130 0
116 129 0
103 115 0
103 116 0
109 122 0
124 138 0
101 114 0
98 110 0
110 124 0
127 143 0
89 101 0
117 131 0
102 117 0
91 104 0
89 102 0
115 129 0
101 114 0
94 108 0
118 133 0
112 126 0
106 120 0
105 117 0
106 120 0
99 111 0
98 108 0
94 108 0
77 87 0
95 108 0
82 92 0
90 101 0
105 117 0
88 100 0
86 95 0
77 89 0
62 73 0
77 87 0
79 89 0
71 79 0
80 91 0
66 76 0
60 69 0
67 75 0
50 57 0
46 54 26
68 79 28
34 47 18
27 42 39
28 45 39
28 43 31
34 54 27
28 45 13
26 42 50
32 51 47
25 41 38
31 49 40
29 46 41
29 47 30
27 43 37
37 58 65
32 51 55
30 47 16
36 57 45
33 50 63
30 47 48
23 37 30
30 48 37
26 40 42
26 41 33
28 43 29
46 54 4
39 46 38
67 72 0
55 59 0
51 55 0
77 86 0
65 70 0
74 81 0
102 113 0
67 76 0
78 88 0
66 75 0
84 90 0
101 110 0
92 100 0
98 106 0
102 112 0
82 86 0
93 102 0
108 118 0
103 111 0
88 98 0
107 118 0
94 103 0
90 95 0
90 97 0
86 94 0
112 120 0
100 108 0
95 103 0
114 124 0
109 120 0
103 112 0
115 126 0
105 112 0
113 121 0
117 125 0
97 104 0
98 100 0
121 130 0
100 108 0
103 108 0
108 116 0
108 116 0
104 107 0
105 113 0
113 121 0
118 123 0
113 116 0
107 113 0
103 107 0
120 128 0
112 114 0
99 102 0
134 141 0
108 114 0
97 100 0
101 104 0
93 93 0
108 112 0
93 94 0
94 91 0
103 103 0
110 114 0
99 95 0
100 95 0
114 115 0
111 114 0
96 95 0
101 100 0
92 90 0
106 102 0
107 106 0
99 96 0
85 77 0
92 73 0
88 68 1
74 58 0
75 58 0
81 62 1
88 66 1
89 69 1
87 64 1
85 67 0
82 64 0
82 61 1
89 72 0
94 75 0
92 75 0
108 94 1
96 78 1
93 76 0
110 89 1
101 85 0
90 74 0
84 60 1
95 77 1
88 68 1
98 77 1
103 87 1
90 72 1
95 73 1
97 83 1
97 78 1
103 84 1
95 74 1
80 58 1
97 82 1
99 81 1
94 77 1
88 67 1
94 78 1
89 74 1
95 77 1
95 73 2
106 89 1
94 72 1
103 87 1
89 71 1
105 90 1
103 87 0
107 91 1
101 80 1
107 90 1
110 94 1
100 84 1
102 81 1
91 73 1
103 82 0
100 80 1
102 88 0
107 88 1
109 92 1
111 96 1
99 84 1
95 77 1
101 87 1
92 76 1
105 80 1
110 96 0
113 98 1
100 77 1
109 90 1
107 93 0
113 95 1
103 84 1
102 81 1
110 92 0
113 101 1
94 75 0
105 91 0
105 90 1
102 82 1
95 77 0
105 91 0
109 92 1
106 88 1
106 90 1
103 79 1
110 94 0
100 82 1
120 102 1
117 105 0
107 87 1
114 101 1
108 90 1
105 83 1
109 93 1
97 77 1
114 98 1
106 84 1
109 92 1
107 90 1
102 81 1
114 94 1
97 74 1
117 103 1
122 109 1
108 91 1
107 92 1
113 94 1
124 105 1
115 99 1
120 106 1
117 102 1
113 100 1
104 83 1
110 92 1
116 131 37
98 110 71
109 122 51
108 122 55
115 129 72
119 134 60
127 143 65
122 137 57
103 116 69
126 142 49
108 118 64
120 135 67
112 125 43
113 128 59
111 124 48
121 135 44
109 123 67
98 109 70
104 116 64
102 114 49
107 121 68
108 121 79
109 122 56
108 121 67
112 125 64
110 125 63
110 124 66
91 104 53
104 116 66
98 109 58
110 123 66
112 126 60
99 112 59
106 118 33
100 112 54
114 126 61
98 111 51
103 115 49
99 111 48
107 120 46
108 120 46
110 124 56
114 128 68
111 124 38
117 131 68
106 118 55
102 115 64
102 116 54
108 121 53
102 114 59
110 124 60
97 109 53
107 119 71
95 106 68
116 130 58
99 112 52
109 123 53
96 108 53
107 119 51
102 114 53
107 120 52
95 107 59
112 126 47
102 116 73
116 130 58
107 119 60
105 117 62
112 126 62
105 116 60
104 116 53
114 127 70
96 108 76
102 113 56
103 115 61
102 115 65
93 104 55
104 115 45
99 111 58
102 115 50
96 107 66
90 100 55
101 114 65
89 101 73
110 122 45
95 106 42
100 112 63
90 100 47
99 111 54
105 117 63
104 116 53
90 101 69
84 94 65
98 110 68
103 114 30
89 101 48
99 110 65
85 95 45
90 102 67
79 88 42
96 107 54
84 93 51
87 97 44
82 91 51
82 91 44
76 84 49
75 83 58
71 81 49
78 86 46
77 85 59
83 90 50
81 89 45
84 93 32
91 101 0
88 96 0
99 108 0
105 115 0
108 119 0
95 105 0
112 124 0
116 128 0
102 113 0
95 106 0
79 89 0
105 116 0
108 121 0
108 121 0
110 123 0
102 113 0
107 120 0
109 123 0
109 122 0
116 128 0
125 140 0
117 131 0
102 115 0
111 123 0
105 118 0
108 121 0
97 111 0
115 128 0
111 125 0
115 128 0
108 120 0
119 132 0
110 124 0
115 127 0
110 122 0
103 116 0
103 115 0
111 125 0
118 132 0
102 113 0
105 117 0
114 129 0
114 130 0
106 118 0
124 139 0
97 111 0
122 138 0
115 129 0
105 120 0
96 107 0
102 115 0
104 119 0
100 113 0
108 122 0
94 107 0
95 108 0
89 99 0
86 97 0
85 95 0
93 105 0
76 87 0
83 93 0
77 88 0
100 112 0
98 110 0
81 92 0
96 108 0
81 91 0
79 89 0
79 89 0
77 88 0
70 79 0
76 85 0
76 85 0
71 79 0
72 80 0
62 69 0
51 58 0
66 73 0
54 65 25
47 55 21
35 44 29
39 54 53
48 64 31
29 46 46
24 38 19
27 43 42
26 40 56
27 43 32
28 45 49
21 34 33
31 49 47
31 44 16
45 56 33
38 50 12
36 46 27
48 56 28
45 47 1
76 83 9
52 56 0
74 82 0
81 87 0
70 76 0
76 83 0
62 65 0
59 64 0
72 77 0
88 98 0
83 89 0
76 83 0
74 82 0
83 92 0
78 87 0
89 99 0
83 91 0
95 105 0
74 84 0
91 100 0
86 94 0
90 94 0
102 111 0
93 101 0
105 115 0
102 108 0
95 100 0
95 104 0
102 110 0
111 120 0
115 127 0
91 94 0
90 96 0
116 125 0
94 100 0
102 109 0
117 125 0
120 128 0
95 103 0
100 107 0
98 103 0
115 122 0
104 114 0
105 116 0
116 124 0
113 119 0
103 111 0
99 104 0
107 117 0
115 121 0
110 112 0
117 122 0
117 122 0
99 102 0
116 122 0
104 112 0
114 121 0
120 122 0
108 117 0
109 112 0
106 111 0
116 122 0
96 97 0
114 114 0
103 105 0
117 122 0
118 123 0
114 119 0
98 96 0
104 106 0
97 94 0
95 92 0
97 96 0
97 92 0
93 91 0
91 81 0
97 92 0
94 91 0
99 87 0
74 54 0
83 61 0
76 57 0
92 72 0
74 57 0
81 59 1
94 75 0
77 61 0
74 53 0
88 70 0
77 59 0
92 75 1
90 75 0
83 66 0
88 71 1
83 68 0
88 75 0
94 77 1
99 83 1
88 70 1
102 84 1
95 81 1
103 84 1
100 84 1
95 76 1
95 79 1
87 66 1
100 81 1
94 80 1
101 82 1
101 84 0
99 80 1
101 85 1
94 76 1
110 92 1
92 71 1
95 72 2
103 84 1
99 81 1
107 89 1
97 75 1
98 79 1
100 82 1
89 72 1
105 84 1
98 75 2
98 80 1
109 90 1
81 62 0
100 86 1
100 85 0
101 84 1
98 81 1
102 84 0
107 90 1
101 87 0
103 82 1
106 88 1
103 83 1
97 79 1
100 80 0
110 92 1
99 83 1
116 98 0
109 91 1
106 89 0
109 95 1
109 90 1
103 86 0
102 85 1
115 101 1
110 91 0
100 83 0
111 95 0
99 75 1
116 103 0
98 78 1
93 69 1
123 109 0
101 84 1
101 83 0
108 90 0
107 90 1
106 90 1
101 82 1
111 90 1
109 90 1
101 82 1
109 89 1
110 91 1
103 87 1
111 97 1
104 90 1
122 107 1
101 83 1
114 96 1
104 90 1
107 91 1
114 97 1
108 90 1
106 92 1
114 92 2
112 97 1
112 97 1
110 93 1
117 104 0
108 90 1
104 87 1
110 95 1
116 96 1
119 105 1
119 133 53
121 137 34
103 115 48
107 121 49
101 114 56
118 135 44
115 129 59
108 120 65
101 113 78
124 139 62
114 128 44
106 117 63
116 130 65
114 127 60
106 119 55
122 137 49
114 126 56
93 104 53
108 122 77
109 121 65
117 132 68
118 132 61
108 121 67
116 130 67
116 129 73
117 131 81
109 121 72
103 117 70
113 127 68
106 121 84
108 122 70
110 123 60
107 120 74
114 128 60
119 133 54
103 115 59
113 126 68
107 118 66
105 117 68
107 118 49
92 102 46
108 122 58
107 121 38
93 104 39
92 103 64
102 114 58
107 119 57
99 110 67
97 110 58
106 119 50
106 117 41
107 121 68
108 122 55
100 113 61
110 123 62
103 116 67
107 120 52
100 112 62
95 106 43
97 108 72
103 116 58
90 102 53
99 111 50
117 132 64
108 121 55
108 122 58
104 116 51
106 118 56
101 114 76
102 114 54
97 109 59
100 111 65
97 107 59
91 103 48
94 106 53
100 112 42
96 107 71
104 116 68
99 112 53
94 104 51
85 96 61
90 100 48
111 123 72
109 120 53
96 106 55
98 109 51
101 112 53
91 102 69
91 102 62
110 122 61
83 93 54
91 102 57
102 113 44
92 103 62
95 105 46
101 111 64
92 102 56
85 94 56
84 93 51
96 107 53
87 97 59
83 93 60
81 90 37
78 87 48
80 89 59
78 86 55
94 104 71
74 80 47
74 82 34
85 93 27
101 111 11
88 96 0
102 112 0
89 98 0
106 117 0
91 102 0
97 106 0
101 111 0
98 109 0
101 112 0
105 117 0
103 115 0
100 111 0
106 117 0
98 110 0
94 106 0
116 128 0
99 111 0
109 121 0
105 118 0
107 120 0
103 116 0
96 106 0
114 127 0
106 118 0
119 132 0
107 119 0
115 129 0
122 137 0
101 113 0
107 120 0
101 113 0
104 117 0
113 126 0
124 139 0
109 122 0
94 105 0
110 125 0
114 129 0
114 126 0
110 125 0
124 139 0
104 118 0
116 129 0
93 105 0
98 110 0
90 102 0
108 123 0
105 117 0
100 114 0
103 116 0
95 108 0
115 128 0
107 122 0
102 113 0
96 107 0
103 118 0
86 96 0
91 104 0
93 105 0
105 117 0
83 94 0
100 113 0
97 108 0
83 93 0
82 93 0
81 90 0
88 100 0
87 99 0
77 88 0
68 79 0
71 81 0
65 77 0
73 82 0
79 90 0
75 82 0
49 58 0
64 72 0
61 69 0
62 71 0
62 67 0
58 65 0
59 67 0
60 66 0
27 35 0
47 53 0
65 71 0
44 53 0
62 70 0
61 68 9
40 48 0
44 49 0
54 57 0
59 67 0
24 27 0
53 61 0
54 60 0
58 62 0
62 66 0
49 47 0
68 76 0
71 78 0
62 67 0
79 87 0
71 79 0
58 65 0
67 76 0
84 90 0
76 83 0
82 90 0
92 100 0
80 90 0
86 96 0
84 92 0
96 102 0
60 65 0
95 103 0
73 77 0
71 82 0
85 89 0
99 111 0
95 101 0
91 99 0
108 115 0
101 111 0
107 117 0
100 114 0
94 99 0
94 102 0
98 107 0
115 121 0
94 98 0
102 105 0
108 117 0
99 107 0
113 123 0
105 109 0
108 116 0
84 91 0
118 129 0
107 111 0
91 93 0
128 139 0
100 105 0
129 138 0
100 108 0
101 107 0
100 107 0
105 111 0
117 128 0
107 116 0
111 115 0
91 94 0
102 105 0
114 121 0
103 106 0
99 103 0
96 100 0
113 116 0
115 121 0
99 102 0
114 114 0
100 107 0
102 102 0
105 109 0
86 84 0
106 104 0
91 90 0
108 106 0
100 99 0
105 102 0
95 92 0
103 103 0
109 103 0
101 100 0
90 85 0
97 91 0
95 94 0
109 108 0
99 95 0
93 82 0
77 55 0
80 51 1
93 72 0
94 74 0
69 50 0
83 64 0
86 66 0
92 71 0
87 68 1
96 76 0
78 63 0
79 59 0
93 75 0
85 69 0
92 75 1
93 78 0
88 70 0
90 66 1
87 71 1
89 70 1
78 52 1
88 72 0
95 76 0
103 83 1
92 77 1
93 70 1
108 91 1
94 72 1
105 90 1
84 65 1
98 79 1
94 76 1
95 79 1
99 79 1
109 93 1
104 86 1
101 80 1
113 97 1
100 83 1
100 81 1
100 85 0
108 90 1
121 105 1
102 88 1
94 77 1
105 87 1
111 94 1
110 94 0
94 76 1
104 84 1
97 79 0
102 80 1
99 78 1
100 84 1
95 74 1
101 84 0
99 80 1
97 79 0
103 87 1
100 84 0
88 61 1
109 88 1
100 82 1
106 88 1
106 92 0
102 90 0
104 87 1
106 89 1
107 91 1
99 83 0
98 80 1
109 91 1
101 83 1
108 84 2
98 80 0
100 83 1
108 91 1
98 78 1
99 79 0
106 89 1
101 81 1
115 96 1
117 96 1
112 93 1
121 102 1
109 87 1
111 94 1
98 83 1
110 95 1
116 102 0
106 89 1
102 82 1
114 100 1
108 89 1
107 87 1
106 88 1
111 94 1
110 91 1
113 95 1
107 89 1
113 96 1
122 110 1
114 94 1
103 87 1
93 77 0
111 92 1
105 89 0
111 94 0
111 92 0
120 134 59
115 127 57
120 134 37
116 130 36
110 123 48
112 125 51
96 108 46
104 118 51
110 123 65
112 124 58
112 126 58
117 131 71
110 124 60
110 123 62
111 125 62
119 134 53
107 120 60
109 121 63
116 129 62
113 126 61
116 128 55
119 134 54
114 126 59
100 112 57
110 122 63
117 131 62
119 133 76
96 106 61
108 121 73
116 130 59
100 112 61
107 120 72
114 128 62
113 126 60
102 114 71
112 124 70
99 111 71
114 128 81
105 118 64
106 117 59
106 118 53
105 116 60
105 120 64
104 116 70
95 107 65
100 112 69
109 123 57
97 109 57
106 119 67
102 113 55
105 116 51
95 106 69
107 120 68
104 118 58
103 116 73
97 110 63
113 126 57
105 117 71
100 113 56
86 97 65
100 113 58
108 120 74
99 111 60
106 119 59
96 107 70
105 118 54
99 111 66
96 107 62
107 119 55
100 112 66
103 116 54
100 110 45
101 112 57
89 100 71
106 117 60
99 111 62
104 116 65
94 105 50
98 109 64
98 110 61
96 107 51
99 109 66
99 111 47
100 112 62
97 107 55
93 104 76
82 92 53
102 113 46
103 115 60
85 96 41
101 112 30
98 108 37
88 100 53
79 89 60
85 94 49
87 97 49
95 106 58
88 98 54
79 87 54
99 109 56
82 92 55
85 94 46
78 86 53
70 77 46
81 89 66
78 86 60
76 84 43
80 88 22
87 97 8
78 87 0
103 113 0
90 99 0
94 103 0
97 106 0
113 125 0
88 97 0
83 92 0
97 106 0
99 109 0
90 99 0
114 128 0
113 126 0
100 112 0
99 112 0
97 108 0
101 113 0
108 120 0
99 110 0
107 120 0
112 124 0
107 120 0
121 136 0
106 119 0
97 109 0
112 125 0
94 106 0
102 116 0
112 126 0
114 127 0
105 118 0
112 124 0
115 129 0
126 140 0
114 129 0
121 137 0
100 115 0
121 136 0
122 138 0
110 124 0
117 132 0
98 111 0
124 140 0
118 133 0
104 117 0
112 126 0
94 108 0
111 125 0
104 118 0
111 125 0
104 117 0
97 110 0
119 133 0
98 110 0
99 114 0
89 101 0
87 99 0
93 105 0
109 123 0
80 91 0
85 95 0
62 73 0
87 100 0
80 92 0
91 101 0
108 120 0
101 112 0
71 83 0
91 102 0
85 96 0
72 82 0
77 87 0
90 100 0
67 77 0
81 92 0
81 89 0
74 82 0
74 84 0
58 65 0
56 64 0
50 58 0
57 62 0
64 72 0
51 58 0
52 61 0
55 62 0
51 60 0
78 87 0
63 68 0
66 72 0
57 64 0
72 81 0
72 79 0
73 82 0
68 77 0
63 70 0
77 87 0
80 87 0
61 68 0
69 77 0
84 94 0
53 57 0
59 64 0
63 69 0
68 74 0
45 49 0
84 93 0
69 74 0
61 66 0
79 90 0
60 65 0
76 84 0
92 99 0
85 95 0
75 82 0
80 88 0
91 100 0
93 104 0
85 93 0
80 88 0
73 77 0
96 104 0
102 113 0
96 107 0
106 113 0
108 119 0
112 123 0
99 110 0
121 131 0
109 122 0
107 117 0
118 128 0
101 112 0
101 109 0
104 115 0
115 125 0
114 122 0
111 121 0
103 111 0
100 109 0
117 127 0
124 134 0
119 127 0
114 124 0
110 116 0
98 104 0
95 99 0
115 125 0
110 116 0
111 119 0
111 117 0
121 129 0
101 98 0
100 103 0
117 123 0
102 110 0
92 93 0
108 113 0
103 107 0
109 112 0
97 99 0
111 116 0
101 104 0
111 116 0
124 130 0
90 94 0
98 99 0
92 91 0
120 119 0
99 93 0
107 107 0
95 92 0
98 96 0
93 94 0
101 101 0
97 92 0
101 100 0
106 103 0
95 90 0
96 90 0
103 102 0
86 76 0
90 79 0
83 69 0
66 53 0
79 56 0
85 62 1
72 58 0
84 60 1
82 62 0
86 65 0
74 57 0
75 57 0
99 81 0
89 67 1
83 60 0
78 61 0
91 74 0
79 63 0
81 64 0
80 62 0
80 61 1
82 63 0
88 72 1
92 74 1
96 76 1
92 67 1
100 81 0
99 81 1
101 81 1
98 80 1
100 82 1
98 79 1
104 89 1
101 83 1
101 84 1
95 73 1
102 82 1
112 93 1
100 83 1
102 80 2
96 75 1
90 63 1
101 84 1
101 81 1
97 78 0
90 70 1
96 77 1
107 89 1
110 93 1
111 94 1
107 88 1
96 73 1
108 93 1
107 85 1
106 92 0
98 78 1
96 83 1
99 78 1
92 78 1
104 88 0
101 82 1
105 88 0
108 86 1
102 85 1
107 88 1
104 86 1
99 78 1
103 86 0
113 96 1
103 81 1
105 88 1
103 87 1
114 96 1
113 93 1
107 84 1
118 102 1
107 84 2
106 92 1
102 84 0
121 105 1
104 84 1
103 84 1
111 86 1
114 94 1
106 82 1
111 94 1
107 86 1
114 96 1
108 85 1
109 87 2
119 102 1
108 88 1
116 100 0
107 92 1
105 91 1
97 81 1
104 85 1
112 98 1
112 94 1
110 94 1
113 95 1
102 87 0
102 85 0
120 103 0
104 91 0
105 91 0
101 87 0
105 87 0
113 96 1
120 102 1
126 141 65
120 133 61
116 130 60
113 127 51
116 129 64
110 124 48
110 122 39
99 111 46
105 120 51
105 118 51
118 132 50
114 129 51
94 105 69
105 116 63
115 129 60
104 116 70
107 120 67
108 121 65
110 124 51
107 119 64
108 119 70
105 118 67
112 125 62
115 129 77
105 118 67
104 116 57
105 118 65
103 116 60
109 121 82
113 125 72
90 101 73
95 106 59
109 122 74
111 124 69
114 127 66
110 124 82
98 110 77
101 112 64
100 112 70
104 116 71
108 121 70
110 122 54
110 122 58
112 126 74
105 117 60
116 131 68
113 127 65
119 132 67
104 117 61
108 121 69
104 117 69
109 121 57
103 115 71
101 112 72
111 123 64
103 114 60
103 113 61
108 121 55
111 122 51
100 111 46
104 117 68
111 124 46
103 116 66
106 118 53
100 111 51
102 114 63
106 118 69
86 96 66
95 106 67
108 121 81
94 106 67
105 117 62
91 102 73
93 103 56
107 118 63
98 109 60
92 102 64
101 112 73
92 103 69
94 105 50
97 109 63
89 99 65
91 101 60
89 100 71
87 97 59
91 100 39
102 113 60
86 96 40
94 105 33
84 94 50
96 107 56
92 102 56
80 89 60
92 102 46
90 99 64
76 85 59
82 91 52
85 94 32
83 92 59
85 96 51
81 88 57
77 85 54
77 85 62
77 85 56
86 95 27
81 89 13
79 88 0
89 98 0
85 95 0
110 120 0
99 110 0
94 105 0
98 108 0
95 106 0
90 99 0
98 108 0
94 105 0
104 116 0
91 102 0
105 116 0
105 117 0
93 102 0
104 116 0
117 132 0
112 125 0
109 121 0
94 105 0
100 111 0
109 121 0
117 131 0
108 120 0
121 137 0
117 131 0
98 109 0
116 130 0
98 109 0
108 123 0
119 133 0
95 107 0
116 131 0
125 141 0
110 122 0
104 117 0
96 108 0
107 121 0
111 126 0
101 114 0
95 107 0
116 130 0
108 120 0
116 130 0
116 131 0
120 133 0
97 111 0
95 109 0
104 117 0
116 132 0
107 121 0
102 117 0
110 125 0
102 115 0
105 119 0
109 123 0
100 116 0
106 121 0
111 126 0
98 110 0
108 121 0
91 104 0
107 120 0
96 109 0
90 102 0
81 94 0
87 100 0
87 98 0
88 98 0
83 91 0
92 104 0
76 88 0
62 70 0
92 104 0
92 104 0
77 87 0
72 80 0
75 85 0
89 101 0
64 76 0
67 75 0
78 88 0
74 83 0
73 83 0
68 78 0
62 70 0
89 98 0
78 86 0
56 63 0
83 92 0
67 78 0
60 66 0
74 82 0
67 73 0
54 62 0
67 74 0
66 74 0
76 84 0
98 107 0
65 74 0
71 78 0
63 72 0
65 74 0
72 78 0
72 80 0
78 87 0
79 87 0
47 55 0
67 74 0
96 104 0
61 69 0
89 98 0
70 74 0
89 98 0
79 87 0
80 89 0
87 96 0
102 111 0
99 110 0
95 102 0
92 102 0
84 94 0
99 110 0
97 107 0
90 93 0
80 86 0
82 90 0
99 107 0
82 91 0
104 111 0
99 110 0
97 108 0
109 121 0
95 103 0
115 120 0
103 113 0
121 132 0
123 135 0
100 111 0
110 119 0
96 99 0
101 106 0
98 105 0
117 126 0
96 96 0
100 108 0
115 120 0
111 118 0
114 128 0
107 114 0
127 135 0
115 121 0
97 103 0
123 129 0
110 113 0
103 105 0
91 96 0
99 106 0
105 109 0
105 111 0
110 112 0
106 106 0
101 108 0
116 120 0
108 107 0
109 110 0
100 99 0
104 105 0
116 120 0
98 98 0
106 109 0
96 94 0
99 101 0
112 110 0
95 98 0
105 105 0
108 107 0
101 99 0
99 100 0
100 100 0
102 93 0
111 113 0
85 77 0
100 91 0
82 76 0
85 77 0
87 84 0
87 79 0
79 59 0
73 48 0
91 67 1
90 63 1
88 66 1
90 66 1
79 57 0
78 57 0
72 54 0
85 63 1
88 72 0
77 60 0
88 74 0
81 59 0
80 65 0
85 66 0
83 69 0
102 86 1
96 77 0
93 73 0
94 75 1
87 71 1
103 84 1
86 60 1
108 94 1
91 72 1
89 69 1
99 77 1
97 77 1
102 83 1
93 73 1
93 71 1
91 72 1
101 82 1
100 81 1
97 78 1
102 77 1
103 88 0
97 81 1
92 74 1
98 80 1
92 75 1
111 99 0
99 85 1
90 73 1
100 82 1
110 95 1
115 97 1
102 86 1
100 82 1
104 89 1
114 100 1
108 93 1
104 85 1
108 89 1
102 81 1
107 90 1
103 85 1
101 82 1
108 93 1
106 83 2
113 92 1
98 76 1
104 82 1
110 89 1
114 98 1
106 87 1
107 91 1
111 89 1
99 72 1
102 79 1
94 73 1
101 78 1
111 93 1
111 89 1
105 84 1
104 87 1
106 85 1
103 84 1
101 81 1
106 88 1
98 71 2
97 81 1
112 95 1
111 93 0
103 87 1
104 85 1
116 102 1
104 84 1
117 100 1
119 101 1
105 83 1
111 95 1
121 108 0
98 80 1
107 89 0
109 93 0
111 98 0
102 86 0
115 99 0
108 95 0
111 92 0
114 99 1
122 108 1
115 99 1
115 129 60
110 123 56
120 134 56
106 119 63
113 125 64
118 133 44
118 133 39
118 132 53
105 119 41
114 127 50
105 117 55
114 129 59
112 125 52
108 120 50
114 125 66
108 121 45
106 120 55
117 131 76
109 121 54
104 117 77
110 124 65
114 127 66
103 116 72
110 123 63
112 125 62
110 122 76
116 129 49
111 125 64
111 125 59
112 125 62
109 122 65
106 119 57
107 120 72
108 120 71
108 120 69
105 118 56
102 114 66
108 121 55
121 135 62
102 114 67
110 123 48
99 111 72
104 117 62
109 121 67
107 119 58
114 127 64
112 126 74
101 113 62
102 114 74
110 123 66
114 128 79
102 115 67
109 122 69
97 110 54
104 117 64
106 118 62
95 107 64
111 124 54
112 125 57
106 119 76
106 118 70
111 124 56
94 103 64
108 120 52
98 109 63
95 106 70
93 103 68
102 113 63
90 102 65
103 114 69
108 120 47
97 109 59
109 121 61
99 109 52
97 109 66
97 107 65
90 102 71
104 116 56
97 107 46
85 95 70
86 96 42
96 106 52
100 111 43
87 97 47
93 104 37
87 99 60
92 102 24
85 95 53
90 99 39
100 112 49
85 95 59
87 96 48
96 106 65
77 86 47
86 94 46
84 94 60
80 88 54
81 88 64
89 99 49
80 89 54
75 83 56
81 89 62
81 89 40
88 95 12
97 106 0
93 102 0
98 108 0
88 96 0
87 97 0
104 114 0
112 124 0
91 100 0
97 108 0
74 84 0
83 91 0
82 90 0
98 110 0
100 110 0
109 120 0
110 121 0
95 106 0
101 113 0
117 130 0
100 110 0
106 118 0
112 122 0
104 117 0
100 112 0
108 121 0
106 117 0
97 111 0
118 133 0
117 131 0
114 128 0
98 110 0
95 106 0
95 111 0
117 132 0
103 116 0
114 127 0
105 118 0
96 108 0
118 133 0
104 117 0
107 121 0
115 130 0
112 127 0
101 114 0
108 121 0
101 115 0
104 117 0
103 118 0
104 119 0
124 140 0
107 120 0
104 117 0
115 130 0
127 144 0
106 120 0
102 116 0
115 127 0
97 112 0
120 134 0
93 106 0
93 105 0
108 120 0
104 115 0
101 117 0
94 107 0
87 98 0
100 114 0
94 106 0
103 114 0
79 89 0
93 105 0
104 117 0
84 94 0
80 91 0
100 113 0
76 84 0
91 104 0
80 91 0
83 95 0
78 89 0
69 79 0
90 100 0
76 86 0
68 78 0
79 89 0
86 96 0
72 83 0
77 85 0
94 105 0
84 93 0
65 75 0
58 68 0
68 77 0
80 89 0
83 93 0
59 66 0
69 80 0
81 89 0
50 57 0
95 107 0
77 86 0
72 79 0
59 68 0
86 95 0
55 62 0
69 77 0
87 94 0
82 91 0
73 80 0
94 104 0
66 71 0
71 74 0
83 89 0
91 102 0
75 86 0
91 101 0
87 97 0
76 86 0
102 112 0
83 90 0
106 116 0
86 95 0
103 113 0
90 97 0
95 103 0
96 105 0
104 116 0
105 112 0
92 99 0
114 128 0
99 109 0
98 105 0
106 115 0
102 113 0
92 102 0
106 113 0
113 123 0
98 99 0
121 136 0
111 122 0
102 112 0
104 113 0
82 88 0
99 103 0
108 112 0
110 117 0
99 108 0
107 117 0
118 127 0
106 112 0
110 118 0
105 112 0
105 113 0
102 108 0
108 116 0
123 132 0
98 104 0
118 125 0
116 123 0
126 134 0
110 117 0
122 130 0
103 107 0
99 102 0
96 101 0
108 113 0
120 123 0
94 94 0
110 113 0
105 105 0
109 112 0
113 116 0
98 98 0
84 84 0
95 96 0
89 88 0
98 99 0
102 100 0
108 111 0
98 93 0
86 85 0
105 106 0
104 100 0
86 81 0
92 92 0
93 90 0
99 94 0
91 82 0
76 64 0
85 76 0
89 75 0
91 85 0
83 72 0
75 53 0
71 54 0
82 58 0
92 65 1
75 51 1
81 62 1
79 65 0
83 65 1
80 62 0
75 54 1
83 60 1
90 67 0
89 72 0
87 67 1
93 80 0
81 59 0
93 75 0
85 66 0
82 64 1
81 58 1
81 62 0
89 71 1
106 87 1
72 54 0
98 81 1
91 77 0
99 80 1
92 70 1
85 62 1
90 69 1
95 78 1
105 89 1
86 69 0
100 79 1
105 82 1
107 91 1
105 83 1
103 87 1
98 80 0
107 90 1
101 80 1
102 85 1
110 92 1
101 82 1
97 79 1
109 92 1
101 79 1
103 81 1
91 67 1
96 74 1
108 88 1
96 78 1
102 83 1
96 77 1
97 77 1
98 77 1
114 89 1
100 77 1
108 88 1
106 88 1
104 85 1
107 88 1
109 91 1
92 76 1
109 90 1
97 78 1
107 85 1
105 89 0
109 96 1
105 89 1
94 74 1
112 92 1
114 94 1
103 86 0
91 69 0
107 88 1
109 91 1
96 74 1
83 64 1
110 99 1
102 84 1
105 84 1
114 97 1
112 96 1
117 101 1
114 95 1
101 86 0
112 101 1
92 73 1
105 85 1
104 89 0
103 83 1
108 95 0
107 90 0
110 92 0
113 99 0
117 101 0
107 92 0
117 103 1
111 89 1
113 99 1
115 101 1
118 99 1
121 136 38
117 130 50
113 126 69
110 123 35
116 129 68
111 125 62
120 135 56
102 113 65
114 128 50
111 124 46
101 114 60
106 119 53
104 116 57
121 136 43
115 128 56
109 123 48
117 130 50
102 113 52
105 117 52
95 106 67
114 128 58
98 110 71
105 118 64
109 121 71
110 121 61
111 122 60
105 117 74
96 108 57
97 109 66
98 110 75
96 107 62
98 108 59
110 123 52
109 123 59
108 121 67
117 130 63
109 122 69
102 115 62
106 118 70
98 109 51
90 101 77
100 112 69
103 116 73
106 119 61
106 120 76
101 113 70
104 117 76
102 116 82
101 111 62
108 121 69
103 116 64
104 117 60
101 112 60
98 108 76
109 123 68
105 117 49
80 90 65
113 127 71
99 111 67
101 113 65
97 107 48
95 105 57
104 117 54
108 121 68
99 110 61
102 113 74
93 105 75
102 113 48
97 108 70
99 110 69
104 116 57
90 101 68
98 108 55
88 98 64
95 106 63
103 115 72
92 103 56
99 111 43
94 104 55
96 107 60
90 99 52
92 101 52
107 119 53
85 94 40
81 91 59
94 105 51
88 98 52
95 106 66
87 97 63
81 89 45
63 72 45
84 93 49
79 85 48
89 99 50
86 94 60
78 86 77
86 95 62
90 98 59
72 79 48
76 84 44
78 86 25
75 83 16
67 73 0
91 100 0
93 102 0
81 89 0
106 116 0
96 107 0
97 107 0
82 91 0
94 103 0
101 110 0
105 115 0
105 116 0
89 99 0
99 109 0
92 102 0
101 112 0
102 114 0
110 122 0
92 102 0
116 128 0
113 125 0
118 131 0
95 106 0
105 117 0
107 120 0
123 137 0
115 128 0
106 119 0
100 112 0
112 126 0
107 121 0
108 122 0
107 119 0
101 114 0
105 117 0
119 134 0
111 125 0
110 124 0
107 121 0
110 123 0
101 113 0
111 125 0
104 119 0
116 130 0
107 121 0
123 140 0
91 102 0
102 116 0
109 121 0
109 122 0
113 127 0
116 131 0
108 123 0
95 108 0
91 106 0
114 128 0
112 126 0
96 108 0
107 120 0
101 114 0
102 115 0
82 95 0
97 110 0
81 92 0
91 105 0
106 122 0
106 121 0
100 115 0
108 121 0
92 105 0
90 103 0
87 100 0
92 103 0
80 92 0
103 118 0
83 94 0
97 109 0
88 100 0
73 83 0
78 91 0
98 110 0
83 94 0
63 73 0
74 83 0
72 82 0
77 88 0
91 101 0
70 78 0
73 83 0
84 96 0
84 94 0
75 85 0
81 92 0
73 83 0
69 78 0
73 82 0
89 99 0
57 65 0
64 73 0
75 85 0
90 101 0
86 95 0
79 89 0
94 106 0
80 90 0
78 87 0
78 88 0
71 78 0
80 91 0
95 107 0
65 75 0
88 96 0
76 86 0
65 73 0
78 87 0
89 97 0
78 88 0
81 91 0
99 111 0
96 104 0
98 109 0
95 108 0
83 91 0
91 101 0
94 101 0
103 114 0
103 112 0
118 131 0
99 108 0
101 110 0
93 105 0
101 111 0
117 128 0
107 118 0
107 115 0
114 127 0
110 120 0
108 115 0
109 117 0
101 111 0
106 117 0
114 125 0
94 103 0
93 95 0
97 105 0
99 109 0
117 124 0
104 113 0
114 122 0
111 121 0
111 118 0
116 123 0
120 127 0
101 108 0
119 128 0
108 114 0
111 120 0
95 102 0
102 106 0
103 109 0
106 115 0
96 98 0
118 127 0
110 115 0
112 119 0
90 92 0
98 97 0
108 111 0
109 114 0
98 103 0
98 103 0
106 109 0
102 103 0
118 124 0
101 102 0
90 92 0
111 111 0
113 120 0
108 104 0
101 103 0
102 98 0
108 109 0
107 112 0
96 93 0
96 94 0
103 102 0
99 101 0
96 89 0
100 95 0
97 91 0
79 75 0
82 75 0
85 77 0
87 82 0
94 89 0
89 82 0
89 85 0
81 70 0
82 62 0
83 64 0
86 59 1
82 60 0
86 66 1
71 46 0
79 62 0
79 64 0
79 60 0
96 79 0
97 79 0
97 79 1
91 67 1
90 71 0
98 77 1
89 71 0
97 76 0
102 85 0
96 76 1
92 75 1
78 58 0
85 66 0
88 66 1
93 71 1
95 75 0
93 70 1
92 69 1
107 88 1
108 86 1
98 81 1
99 80 1
90 67 1
97 77 1
95 75 1
98 72 1
93 69 1
88 72 1
108 87 1
100 78 1
106 84 1
99 78 1
116 97 1
93 70 1
102 79 2
105 85 1
106 86 1
105 86 1
111 93 1
106 86 1
97 74 1
104 83 1
107 88 1
108 86 1
105 86 1
104 83 1
98 76 1
110 90 1
107 90 1
103 84 1
93 66 1
102 81 1
111 91 1
115 94 1
104 82 1
109 91 1
109 92 1
105 85 1
113 94 1
105 87 1
102 80 1
110 92 1
105 88 1
98 82 1
109 96 1
98 79 1
103 81 1
120 104 1
104 83 1
115 97 1
109 92 1
91 70 1
106 89 1
102 82 1
101 88 0
105 85 0
105 88 0
104 87 0
112 97 0
113 93 1
99 76 1
111 95 0
111 92 1
94 75 0
118 98 1
115 93 1
120 105 1
111 89 1
106 87 0
110 92 0
122 117 0
156 176 0
149 168 18
137 154 28
117 132 52
108 120 47
110 122 62
109 122 62
119 133 58
114 127 67
110 124 56
108 121 57
112 125 47
110 124 55
107 121 44
111 125 54
105 117 67
116 130 52
111 123 61
106 117 53
97 107 38
103 114 65
102 115 42
117 132 60
105 117 61
106 120 64
99 112 69
94 105 64
91 101 75
114 127 47
99 110 56
110 122 48
102 114 47
100 111 68
96 108 55
100 111 53
106 120 58
100 112 49
116 128 70
116 129 51
108 121 74
120 134 66
112 126 79
120 135 60
110 122 73
97 108 76
92 103 70
107 120 80
105 117 65
101 113 75
104 115 58
104 117 52
94 105 67
101 112 74
89 100 74
96 107 56
105 117 49
103 114 63
106 119 70
102 113 67
107 119 75
94 105 67
102 114 66
92 103 65
86 97 67
93 103 65
86 96 63
100 111 44
103 114 70
103 115 51
82 93 49
103 115 52
102 112 49
96 107 40
95 106 62
85 94 65
99 109 64
85 95 68
87 97 66
96 106 68
87 96 44
91 103 57
89 100 59
97 107 62
85 97 66
95 105 62
75 84 65
83 92 53
71 79 36
74 82 49
98 109 48
95 105 64
89 98 67
87 97 71
75 82 55
82 90 46
86 94 44
70 77 42
69 77 32
87 95 19
86 94 0
84 92 0
94 103 0
81 90 0
80 89 0
98 107 0
84 93 0
90 100 0
100 110 0
88 98 0
103 114 0
106 117 0
94 104 0
90 99 0
99 109 0
108 119 0
87 99 0
106 117 0
107 118 0
116 129 0
115 128 0
102 113 0
101 111 0
99 110 0
111 125 0
117 131 0
107 121 0
100 112 0
123 137 0
106 120 0
92 104 0
115 129 0
117 130 0
116 130 0
104 117 0
115 128 0
115 129 0
108 120 0
109 124 0
102 115 0
131 144 0
116 129 0
121 136 0
112 126 0
111 125 0
119 135 0
118 132 0
94 106 0
110 124 0
117 132 0
115 128 0
116 132 0
113 130 0
115 129 0
115 130 0
109 123 0
103 117 0
94 108 0
99 111 0
121 136 0
119 134 0
108 121 0
103 117 0
114 130 0
98 113 0
107 121 0
106 119 0
90 103 0
88 101 0
107 120 0
119 134 0
96 109 0
94 107 0
87 101 0
120 134 0
98 112 0
107 121 0
95 108 0
100 115 0
84 96 0
113 127 0
72 82 0
79 90 0
107 120 0
89 101 0
95 106 0
100 112 0
88 100 0
89 100 0
92 103 0
47 56 0
82 93 0
68 79 0
96 109 0
78 89 0
60 68 0
85 96 0
70 77 0
72 83 0
95 106 0
76 85 0
61 69 0
70 79 0
75 86 0
98 109 0
92 102 0
80 90 0
100 110 0
79 88 0
96 108 0
83 93 0
81 90 0
71 81 0
95 105 0
93 99 0
84 94 0
99 111 0
94 101 0
103 114 0
93 101 0
92 105 0
104 114 0
94 103 0
86 94 0
91 98 0
94 104 0
97 110 0
95 104 0
100 110 0
105 118 0
91 101 0
95 104 0
84 93 0
97 107 0
97 106 0
111 124 0
102 112 0
103 112 0
104 117 0
99 111 0
117 130 0
109 116 0
110 122 0
105 113 0
112 121 0
111 121 0
107 116 0
110 120 0
105 112 0
89 96 0
116 124 0
96 103 0
102 104 0
112 119 0
83 88 0
114 122 0
127 135 0
120 128 0
120 130 0
109 118 0
120 132 0
110 119 0
109 115 0
115 124 0
122 131 0
97 101 0
116 123 0
100 108 0
98 97 0
120 126 0
121 133 0
119 126 0
117 122 0
118 123 0
97 99 0
113 121 0
97 98 0
100 97 0
118 126 0
104 106 0
121 124 0
110 114 0
121 128 0
114 108 0
109 107 0
90 84 0
103 104 0
105 108 0
109 106 0
106 102 0
98 102 0
98 91 0
85 82 0
106 102 0
95 86 0
94 88 0
92 85 0
91 81 0
92 83 0
83 78 0
97 92 0
76 62 0
82 69 0
66 48 0
68 48 0
79 55 0
83 60 0
83 61 1
74 47 1
99 78 1
86 67 1
80 61 0
79 60 0
72 52 0
95 76 1
87 70 0
99 83 0
84 61 1
79 59 0
96 74 0
87 63 0
94 76 0
92 70 1
93 70 0
81 55 0
93 71 0
85 67 0
104 80 1
99 78 1
98 82 0
91 69 0
107 87 0
98 78 1
102 81 1
99 82 0
96 75 1
105 90 1
109 93 1
96 76 1
90 70 1
91 76 0
100 79 1
89 66 1
100 81 1
103 85 1
108 90 1
98 74 1
99 75 1
106 85 1
116 96 1
96 75 1
100 79 1
106 87 1
99 72 1
110 96 1
91 65 1
105 87 1
108 86 1
107 87 1
106 84 1
111 92 1
101 87 0
104 82 1
96 72 1
107 92 1
102 79 1
111 95 1
110 91 1
95 78 1
101 88 1
97 76 1
111 90 1
98 84 0
107 83 1
106 90 1
91 65 1
102 79 1
109 92 0
105 85 1
96 73 1
108 95 0
107 87 0
111 94 0
102 84 0
112 92 0
113 96 0
104 84 0
110 93 1
103 87 0
106 88 1
109 94 1
106 85 1
112 94 1
104 85 0
119 101 0
103 85 0
107 91 0
106 93 0
131 139 0
150 165 0
158 177 0
162 183 0
159 181 0
158 179 0
151 173 0
146 165 14
124 140 39
116 131 54
112 124 49
109 122 43
111 123 57
108 121 58
104 116 52
112 125 54
119 133 66
115 128 52
109 121 33
106 118 46
117 131 41
110 123 53
105 117 64
109 121 43
108 121 52
111 125 50
103 114 36
100 112 43
105 117 50
111 123 66
98 110 77
94 105 55
97 109 67
104 115 70
105 118 64
95 106 50
117 131 62
110 122 70
114 126 69
97 108 58
100 112 58
101 113 52
105 117 70
105 116 71
111 125 70
103 114 63
98 109 46
94 105 63
104 117 59
104 116 63
95 107 57
104 117 55
100 111 59
98 110 72
101 113 65
102 114 66
108 119 59
101 111 56
98 109 38
94 106 59
103 115 68
107 119 57
105 116 60
102 114 65
105 117 66
101 112 53
96 107 69
98 108 53
94 104 56
94 104 64
97 109 41
100 112 50
100 111 45
98 109 54
92 102 61
92 103 50
95 104 45
96 108 62
77 86 59
107 120 61
95 106 46
106 118 57
85 95 42
95 105 45
89 100 48
85 94 52
84 92 44
80 89 38
85 93 56
91 100 66
82 90 53
82 91 54
83 91 67
72 81 52
81 89 56
79 87 53
80 88 47
75 83 33
79 85 21
86 94 0
91 99 0
85 94 0
96 105 0
86 96 0
95 104 0
78 84 0
109 120 0
81 90 0
103 113 0
109 119 0
101 112 0
97 109 0
111 122 0
90 100 0
112 124 0
110 122 0
99 109 0
109 121 0
101 112 0
105 116 0
110 122 0
90 100 0
104 115 0
105 117 0
109 120 0
106 117 0
95 106 0
114 126 0
101 113 0
122 136 0
115 129 0
111 124 0
114 127 0
106 121 0
102 116 0
114 128 0
93 105 0
109 122 0
96 108 0
105 118 0
124 139 0
120 134 0
89 100 0
116 131 0
104 116 0
88 100 0
98 113 0
102 116 0
113 128 0
120 134 0
98 110 0
115 129 0
115 129 0
125 140 0
121 136 0
109 125 0
110 124 0
129 146 0
122 137 0
115 131 0
126 141 0
105 120 0
105 119 0
113 128 0
107 123 0
116 131 0
112 128 0
106 120 0
107 121 0
99 113 0
118 133 0
110 124 0
105 119 0
89 99 0
107 121 0
102 115 0
102 115 0
109 123 0
104 118 0
103 117 0
85 98 0
107 122 0
103 116 0
91 103 0
94 108 0
89 100 0
94 106 0
109 122 0
89 99 0
96 108 0
70 81 0
83 95 0
104 116 0
75 87 0
85 96 0
91 102 0
88 100 0
82 93 0
82 93 0
85 96 0
60 70 0
81 91 0
70 79 0
101 111 0
87 100 0
85 95 0
89 101 0
72 83 0
68 77 0
69 79 0
55 67 0
85 95 0
90 100 0
92 103 0
100 111 0
89 99 0
82 91 0
69 78 0
100 113 0
93 105 0
88 100 0
100 111 0
83 93 0
90 102 0
108 119 0
89 100 0
96 108 0
96 109 0
94 104 0
87 99 0
103 112 0
91 103 0
101 112 0
99 111 0
109 120 0
103 114 0
118 130 0
109 117 0
111 122 0
109 119 0
117 128 0
103 116 0
102 110 0
102 112 0
107 118 0
106 116 0
117 129 0
107 115 0
118 130 0
110 117 0
120 132 0
123 134 0
119 132 0
113 123 0
122 133 0
108 114 0
109 117 0
117 129 0
108 116 0
119 131 0
126 136 0
110 118 0
100 105 0
110 116 0
115 125 0
100 108 0
100 104 0
110 118 0
115 125 0
113 119 0
107 112 0
114 123 0
114 121 0
104 105 0
104 108 0
122 125 0
119 126 0
106 103 0
100 103 0
108 110 0
97 94 0
108 112 0
112 114 0
108 113 0
100 97 0
93 88 0
111 111 0
103 105 0
93 93 0
122 124 0
103 102 0
111 112 0
95 89 0
106 109 0
92 89 0
99 94 0
99 97 0
100 95 0
100 98 0
84 80 0
85 75 0
88 77 0
93 85 0
82 76 0
93 87 0
85 78 0
67 60 0
81 75 0
79 65 0
71 53 0
91 74 0
88 65 1
89 65 1
82 58 1
82 62 0
73 57 0
76 56 0
85 60 1
80 63 0
83 55 1
84 60 0
90 74 0
95 78 0
74 54 0
91 71 0
86 63 0
87 67 1
92 70 1
93 71 0
93 72 1
89 70 0
93 74 1
86 66 1
91 71 0
90 68 1
99 81 0
88 71 1
102 78 1
95 72 1
101 77 1
107 91 0
94 76 0
106 90 1
103 87 1
96 74 1
103 85 1
97 78 0
100 79 1
102 76 1
101 81 0
98 83 0
106 90 0
104 85 1
99 80 1
109 88 1
103 83 1
103 81 1
94 70 1
99 82 1
93 75 1
90 69 1
93 73 1
94 77 0
108 90 1
95 80 1
98 77 1
105 87 1
103 84 1
106 86 1
101 79 1
106 84 1
99 76 1
103 82 1
105 85 1
103 85 0
108 91 0
110 92 1
105 85 0
109 91 0
114 101 0
112 94 1
112 91 0
118 99 1
108 92 0
105 86 0
112 93 0
110 90 1
109 94 0
113 97 0
105 85 1
116 101 0
111 92 1
112 88 1
106 86 1
110 92 0
113 99 0
115 104 0
125 126 0
143 154 0
159 178 0
160 177 0
159 179 0
160 181 0
157 178 0
159 179 0
152 171 0
154 174 0
153 174 0
161 183 0
159 181 0
155 175 0
135 151 30
126 142 29
113 127 46
114 128 39
104 116 62
115 128 51
114 127 64
113 126 50
116 130 57
112 124 60
105 117 42
103 116 50
100 113 48
119 133 40
104 116 64
111 122 54
109 122 61
115 128 58
113 126 52
100 111 47
100 111 54
114 128 42
103 113 57
105 118 52
97 108 63
101 113 54
118 131 58
106 117 57
110 121 63
102 114 63
88 98 66
94 105 45
100 110 70
93 104 53
95 106 58
102 114 58
101 111 42
102 113 41
90 100 67
97 109 67
103 115 56
93 103 52
101 113 66
92 102 51
96 108 47
99 110 50
98 108 67
107 119 46
98 110 39
87 97 49
92 99 43
104 115 55
91 102 50
86 95 33
98 108 42
87 97 48
88 98 42
89 100 33
91 101 65
98 109 46
88 98 57
81 91 41
93 103 69
89 99 54
90 101 59
100 111 61
102 112 56
80 89 47
82 92 69
77 86 43
89 98 43
91 100 37
91 100 61
70 80 43
91 100 67
86 95 64
90 100 62
92 101 62
86 93 66
85 95 56
89 98 69
79 87 67
70 77 37
84 92 30
74 80 13
79 87 0
90 97 0
93 102 0
87 96 0
91 99 0
92 101 0
100 110 0
84 93 0
90 99 0
107 118 0
101 112 0
105 114 0
85 95 0
109 121 0
111 123 0
108 119 0
91 101 0
116 129 0
98 109 0
111 122 0
116 129 0
94 105 0
111 123 0
108 119 0
114 126 0
109 121 0
103 114 0
108 121 0
115 129 0
113 127 0
105 117 0
101 112 0
121 135 0
113 126 0
110 122 0
117 132 0
115 127 0
115 128 0
119 134 0
115 130 0
111 125 0
114 127 0
105 117 0
104 114 0
91 104 0
104 117 0
112 126 0
106 120 0
123 138 0
98 110 0
103 117 0
112 127 0
121 137 0
108 122 0
118 132 0
120 135 0
124 140 0
98 112 0
106 120 0
114 129 0
117 134 0
96 109 0
112 127 0
94 107 0
115 131 0
103 118 0
115 131 0
105 118 0
108 124 0
103 118 0
110 124 0
114 127 0
102 116 0
94 108 0
104 118 0
108 123 0
102 115 0
108 123 0
127 144 0
105 118 0
107 121 0
97 110 0
95 107 0
95 106 0
101 114 0
109 122 0
104 118 0
100 115 0
95 107 0
95 108 0
90 103 0
89 98 0
74 86 0
67 77 0
97 109 0
88 98 0
93 105 0
92 104 0
99 111 0
105 118 0
84 96 0
95 108 0
81 91 0
99 112 0
88 100 0
98 109 0
94 106 0
99 110 0
85 98 0
62 72 0
87 100 0
104 115 0
83 93 0
100 112 0
83 95 0
83 97 0
80 87 0
81 88 0
97 108 0
86 98 0
84 96 0
98 110 0
78 90 0
111 121 0
109 119 0
101 114 0
93 105 0
86 97 0
96 106 0
90 100 0
97 109 0
89 99 0
89 102 0
107 121 0
109 121 0
100 111 0
105 118 0
101 112 0
115 128 0
109 121 0
92 102 0
109 120 0
114 126 0
116 124 0
107 119 0
113 129 0
94 107 0
111 122 0
110 115 0
105 119 0
109 121 0
110 118 0
110 121 0
122 131 0
111 121 0
128 140 0
111 121 0
107 119 0
108 118 0
120 131 0
91 99 0
107 116 0
117 127 0
109 116 0
107 113 0
108 116 0
113 124 0
128 136 0
121 129 0
109 116 0
118 126 0
116 124 0
107 112 0
118 126 0
117 124 0
96 101 0
106 112 0
101 107 0
115 118 0
116 120 0
125 133 0
99 103 0
107 112 0
96 102 0
102 103 0
98 98 0
110 114 0
101 102 0
121 123 0
114 116 0
96 98 0
113 119 0
92 84 0
103 102 0
99 96 0
105 104 0
105 105 0
103 101 0
98 96 0
106 104 0
104 101 0
106 101 0
98 93 0
88 83 0
96 91 0
86 84 0
101 98 0
91 78 0
85 74 0
87 81 0
94 88 0
94 85 0
85 82 0
91 84 0
70 57 0
74 61 0
73 51 0
79 59 0
74 48 0
86 66 1
85 57 1
85 59 1
78 55 0
79 60 1
87 65 1
88 62 0
78 59 0
74 57 0
95 74 0
67 48 0
86 61 1
99 79 0
95 73 1
95 78 0
86 73 0
91 71 0
89 71 0
87 70 0
77 58 0
88 69 0
87 69 0
85 66 0
83 63 0
84 64 0
88 68 1
90 72 0
87 67 1
88 69 1
105 86 0
82 61 0
90 74 0
84 65 0
110 93 1
87 63 1
88 75 0
93 75 1
105 90 0
96 74 1
96 77 1
110 96 0
102 84 1
99 82 0
103 84 1
93 69 1
101 87 0
99 81 0
95 79 0
95 74 0
103 80 1
104 86 1
106 84 1
103 83 0
100 83 0
108 91 1
109 94 0
114 99 0
114 97 0
97 74 1
105 85 1
103 84 1
107 90 0
94 71 1
105 83 0
105 87 1
105 83 0
101 78 1
101 84 0
107 86 1
107 88 0
111 92 1
114 91 1
101 76 1
113 88 1
108 87 0
113 96 0
107 85 0
118 106 0
126 122 0
134 140 0
149 164 0
143 161 0
154 172 0
158 180 0
157 175 0
163 182 0
150 166 0
157 175 0
156 178 0
158 177 0
158 179 0
149 167 0
159 180 0
163 185 0
162 183 0
158 179 0
150 171 0
156 176 0
154 174 0
139 156 17
127 143 17
123 138 40
110 121 53
105 116 43
116 129 41
115 127 71
107 118 68
118 131 63
108 121 65
97 107 58
109 122 59
113 124 57
100 111 56
107 120 44
99 111 45
102 113 52
93 104 61
108 119 59
111 124 47
117 130 47
107 120 44
108 120 50
95 106 42
119 132 39
93 103 54
106 119 56
105 117 36
102 113 61
104 116 55
91 101 47
103 116 65
93 103 55
101 113 29
96 108 50
101 113 57
107 120 47
83 93 58
107 118 59
105 116 52
92 100 40
94 104 55
90 101 44
104 116 45
94 105 58
108 120 55
101 113 44
96 107 53
98 108 59
95 105 45
95 106 59
94 104 61
99 110 51
94 105 47
88 98 44
84 93 47
94 105 46
88 98 49
88 97 51
87 96 42
89 98 60
90 99 51
99 108 36
92 101 57
78 87 57
89 98 58
91 100 63
91 100 57
96 104 60
95 104 63
78 87 57
92 101 65
81 89 48
78 85 47
73 81 58
69 76 51
78 85 48
73 80 25
68 74 0
91 100 0
81 89 0
85 94 0
86 95 0
93 102 0
93 101 0
92 101 0
78 86 0
91 100 0
90 99 0
105 116 0
88 97 0
106 117 0
107 117 0
107 118 0
122 135 0
119 132 0
99 109 0
111 122 0
117 129 0
103 116 0
101 111 0
86 95 0
112 124 0
110 122 0
100 114 0
111 124 0
116 129 0
116 129 0
115 128 0
105 120 0
108 120 0
119 131 0
112 125 0
125 140 0
98 109 0
110 123 0
108 121 0
128 142 0
99 111 0
105 116 0
98 110 0
108 122 0
125 140 0
115 129 0
110 123 0
125 139 0
110 123 0
103 117 0
113 127 0
101 115 0
126 140 0
127 144 0
93 106 0
114 128 0
121 137 0
114 130 0
117 133 0
127 144 0
104 118 0
118 134 0
101 115 0
101 116 0
100 115 0
96 109 0
112 129 0
131 147 0
118 132 0
101 114 0
117 131 0
97 110 0
114 129 0
106 120 0
96 110 0
102 116 0
102 116 0
103 117 0
104 117 0
79 93 0
101 115 0
98 111 0
103 117 0
101 113 0
101 116 0
109 122 0
104 118 0
108 120 0
100 114 0
87 98 0
88 102 0
105 118 0
84 95 0
90 101 0
105 119 0
98 111 0
109 124 0
83 96 0
94 106 0
93 105 0
86 97 0
98 111 0
96 109 0
93 106 0
88 100 0
95 108 0
86 98 0
98 111 0
96 109 0
92 104 0
88 101 0
65 75 0
94 106 0
118 130 0
83 94 0
79 88 0
87 97 0
108 120 0
90 105 0
88 98 0
95 106 0
98 110 0
103 116 0
98 108 0
90 97 0
89 103 0
101 114 0
91 104 0
96 111 0
94 108 0
103 114 0
91 104 0
117 129 0
95 106 0
83 93 0
111 124 0
103 113 0
102 114 0
91 104 0
110 122 0
101 112 0
123 134 0
113 123 0
100 111 0
102 111 0
107 118 0
126 139 0
103 112 0
105 119 0
98 107 0
114 127 0
111 126 0
111 120 0
121 132 0
121 130 0
123 137 0
124 137 0
112 119 0
108 117 0
100 110 0
111 121 0
100 108 0
120 131 0
124 137 0
119 129 0
120 130 0
110 120 0
121 130 0
121 132 0
115 125 0
118 124 0
122 130 0
116 125 0
117 128 0
114 123 0
117 125 0
111 121 0
115 124 0
117 125 0
101 109 0
108 116 0
108 116 0
114 119 0
106 111 0
114 122 0
106 111 0
117 125 0
110 113 0
120 127 0
108 114 0
107 110 0
117 125 0
100 106 0
100 99 0
99 101 0
111 112 0
99 102 0
108 111 0
107 113 0
111 113 0
104 101 0
98 95 0
103 99 0
100 102 0
97 95 0
98 94 0
102 100 0
101 96 0
89 79 0
95 87 0
98 91 0
98 97 0
96 92 0
102 101 0
94 88 0
96 92 0
94 86 0
80 70 0
79 71 0
92 85 0
99 89 0
71 53 0
76 64 0
72 63 0
83 65 0
83 66 0
91 71 0
78 55 0
83 57 1
91 63 1
96 72 1
80 53 1
81 55 1
92 68 1
84 66 0
84 56 1
81 60 1
92 73 0
84 64 0
87 68 0
90 68 0
90 71 0
94 77 0
95 80 1
102 84 0
92 76 0
85 65 0
92 74 1
89 71 0
93 72 0
90 71 1
100 80 0
86 65 1
99 81 1
104 88 0
78 57 1
99 81 0
79 61 0
95 74 1
89 69 0
95 79 0
93 78 1
95 78 0
92 70 0
110 86 1
103 87 0
108 93 1
91 70 1
101 79 1
92 73 1
99 76 1
104 89 0
105 84 1
100 81 1
98 76 1
102 81 1
95 75 0
105 87 1
112 95 0
100 78 1
96 76 0
103 83 1
111 93 0
102 81 0
107 90 0
108 92 0
109 90 1
100 83 0
97 74 1
111 93 0
104 81 1
102 75 1
112 93 1
113 95 1
116 96 1
105 86 1
110 91 0
127 118 0
129 126 0
139 146 0
161 179 0
155 172 0
154 170 0
146 161 0
153 166 0
151 166 0
162 181 0
154 171 0
156 170 0
153 171 0
155 172 0
166 187 0
148 167 0
155 177 0
156 177 0
148 168 0
144 162 0
160 180 0
148 167 0
147 167 0
161 182 0
156 176 0
151 169 0
148 166 0
152 171 0
149 168 0
144 162 27
129 144 30
120 134 50
106 119 48
100 110 51
104 116 49
112 125 47
109 120 56
101 112 59
118 131 65
107 118 74
106 118 58
109 120 45
103 115 60
108 120 65
101 112 50
111 124 35
101 112 49
94 105 52
108 120 63
98 109 61
97 108 57
103 114 46
97 108 54
101 111 56
94 105 55
111 123 58
98 110 53
96 107 64
88 98 64
102 113 62
102 111 41
94 105 66
102 113 72
102 113 66
105 118 58
98 109 55
93 103 56
88 98 48
96 107 56
106 116 50
103 114 54
96 107 60
92 101 56
93 103 63
91 101 58
98 108 31
102 113 55
84 93 56
93 102 49
93 102 60
98 108 40
92 102 51
93 103 49
93 104 47
95 106 42
90 100 53
86 95 43
84 93 54
89 99 64
89 99 52
79 88 63
93 102 72
87 95 61
73 80 51
78 85 61
77 85 54
82 91 35
79 86 30
68 75 16
81 88 15
71 79 0
87 94 0
87 96 0
92 101 0
94 104 0
78 85 0
97 106 0
84 93 0
85 92 0
98 107 0
92 101 0
102 114 0
97 105 0
95 105 0
100 110 0
96 106 0
93 102 0
109 119 0
105 116 0
95 106 0
106 116 0
109 119 0
101 113 0
108 120 0
111 123 0
113 126 0
110 122 0
108 121 0
110 123 0
119 132 0
108 121 0
100 112 0
116 131 0
110 123 0
112 124 0
113 125 0
105 117 0
109 121 0
118 133 0
118 133 0
111 125 0
111 126 0
125 139 0
105 120 0
109 122 0
109 123 0
116 131 0
121 138 0
114 130 0
116 131 0
95 110 0
122 139 0
103 118 0
112 125 0
123 139 0
122 136 0
99 114 0
121 136 0
105 118 0
130 146 0
110 126 0
115 130 0
106 120 0
114 130 0
117 134 0
110 126 0
119 136 0
134 151 0
111 126 0
110 126 0
114 131 0
115 129 0
111 127 0
122 138 0
111 126 0
123 139 0
107 122 0
104 118 0
124 139 0
93 106 0
119 133 0
112 126 0
108 124 0
113 128 0
95 110 0
91 105 0
101 116 0
115 132 0
116 131 0
107 121 0
82 94 0
102 115 0
105 119 0
103 115 0
120 136 0
105 120 0
88 101 0
109 123 0
93 105 0
109 121 0
94 108 0
92 104 0
100 115 0
102 117 0
107 119 0
97 109 0
94 106 0
79 91 0
96 107 0
94 105 0
92 105 0
92 106 0
104 118 0
86 98 0
96 108 0
100 114 0
98 111 0
101 112 0
95 107 0
97 110 0
90 101 0
96 109 0
119 132 0
110 123 0
88 100 0
100 114 0
101 113 0
91 105 0
107 117 0
97 108 0
100 113 0
90 102 0
84 98 0
108 122 0
104 115 0
95 105 0
121 137 0
95 105 0
122 137 0
109 125 0
114 126 0
112 125 0
101 111 0
110 120 0
101 112 0
94 104 0
115 127 0
118 132 0
110 123 0
125 137 0
108 117 0
115 124 0
113 124 0
122 135 0
103 114 0
124 137 0
110 119 0
114 127 0
101 113 0
100 113 0
123 133 0
112 125 0
112 125 0
115 123 0
106 113 0
120 128 0
117 128 0
122 133 0
125 133 0
112 121 0
129 135 0
118 127 0
107 118 0
120 134 0
109 114 0
110 120 0
120 130 0
100 106 0
114 120 0
124 130 0
111 121 0
124 129 0
107 115 0
117 126 0
130 139 0
105 107 0
132 142 0
110 117 0
106 109 0
114 120 0
107 112 0
108 109 0
115 121 0
116 120 0
94 96 0
111 116 0
116 115 0
116 123 0
100 102 0
111 112 0
98 96 0
108 111 0
99 97 0
110 114 0
111 112 0
99 96 0
105 102 0
95 87 0
102 102 0
99 98 0
115 111 0
94 92 0
105 103 0
99 95 0
98 93 0
77 70 0
103 102 0
101 101 0
90 82 0
92 80 0
93 83 0
86 79 0
93 89 0
84 71 0
70 59 0
100 94 0
81 74 0
84 75 0
75 67 0
88 76 0
73 55 0
58 38 0
67 41 0
74 50 0
78 53 1
90 74 0
94 78 0
98 74 1
87 62 1
87 63 1
86 66 1
87 74 0
88 67 0
88 66 1
101 86 0
95 70 1
90 67 1
79 64 0
102 83 0
92 70 0
94 71 1
89 71 0
94 75 0
87 60 1
100 83 0
85 62 0
89 63 1
99 82 0
85 61 0
93 72 0
103 86 1
98 73 1
97 76 0
103 82 1
97 75 1
105 84 1
105 86 1
95 68 1
101 79 1
99 81 1
94 72 1
100 83 0
106 88 1
104 79 1
95 74 1
99 83 0
106 86 1
97 74 1
110 93 0
109 90 1
111 90 1
107 85 1
102 82 0
102 87 0
103 87 0
101 77 1
103 83 1
117 93 1
108 89 1
111 93 1
110 91 1
105 83 1
103 78 1
107 87 0
102 81 0
119 105 0
102 88 0
124 126 0
146 153 0
151 160 0
149 163 0
146 158 0
161 175 0
147 157 0
156 168 0
142 156 0
152 167 0
157 171 0
148 166 0
149 166 0
154 173 0
160 177 0
163 183 0
157 176 0
154 174 0
150 170 0
157 177 0
148 167 0
152 173 0
151 170 0
161 181 0
156 174 0
152 173 0
146 165 0
141 160 0
152 170 0
155 174 0
155 174 0
145 164 0
143 161 0
150 169 0
148 166 0
138 156 1
129 145 23
126 141 27
118 132 30
109 121 34
98 109 51
114 126 57
97 108 48
100 110 51
105 115 65
104 114 62
111 123 47
104 114 72
103 115 61
112 123 51
103 115 43
108 119 58
97 108 71
97 107 54
105 117 52
91 101 37
94 104 57
99 109 42
99 110 51
106 116 39
87 96 58
101 113 32
97 108 60
103 114 44
92 102 52
109 121 48
110 121 40
106 117 63
97 107 62
94 104 41
90 100 57
101 112 59
84 93 45
99 109 53
97 107 58
91 100 59
101 112 55
85 94 54
97 106 58
98 109 42
93 101 57
85 94 45
89 99 57
94 105 56
99 108 58
93 102 47
88 97 53
95 104 62
87 96 57
86 94 64
88 96 57
82 90 58
88 97 53
71 78 46
74 81 49
83 90 35
76 84 26
69 76 15
84 92 0
88 97 0
66 73 0
72 80 0
96 106 0
107 117 0
91 99 0
86 95 0
97 108 0
83 92 0
88 97 0
100 110 0
97 107 0
89 98 0
114 125 0
101 112 0
95 106 0
105 116 0
102 113 0
108 120 0
103 114 0
100 110 0
104 116 0
110 122 0
107 118 0
101 113 0
99 110 0
92 102 0
102 113 0
112 125 0
112 124 0
122 136 0
123 137 0
98 111 0
108 121 0
106 117 0
107 120 0
113 126 0
117 130 0
124 138 0
117 131 0
120 133 0
107 120 0
115 126 0
121 135 0
127 142 0
107 120 0
132 148 0
103 116 0
114 129 0
123 138 0
136 153 0
117 132 0
128 145 0
113 128 0
112 127 0
108 122 0
115 131 0
129 145 0
115 128 0
110 124 0
109 123 0
113 128 0
109 125 0
110 125 0
115 129 0
114 130 0
125 139 0
120 135 0
108 123 0
122 137 0
115 130 0
100 114 0
110 124 0
98 113 0
122 140 0
121 136 0
107 123 0
115 130 0
106 120 0
125 139 0
108 125 0
114 128 0
123 138 0
114 128 0
105 118 0
107 121 0
110 123 0
108 124 0
118 134 0
106 121 0
100 115 0
109 124 0
120 136 0
88 101 0
90 102 0
120 136 0
97 113 0
89 103 0
109 123 0
111 126 0
92 105 0
92 105 0
97 109 0
98 112 0
108 121 0
105 118 0
79 91 0
110 125 0
104 117 0
100 115 0
99 111 0
106 119 0
79 90 0
114 128 0
97 109 0
110 124 0
93 103 0
86 98 0
99 109 0
89 101 0
98 109 0
83 93 0
94 107 0
103 117 0
102 115 0
93 104 0
103 113 0
112 124 0
108 122 0
92 104 0
97 111 0
77 90 0
93 105 0
95 107 0
98 111 0
109 121 0
117 129 0
118 135 0
111 123 0
101 114 0
108 122 0
103 115 0
93 101 0
95 109 0
110 125 0
109 124 0
111 123 0
118 131 0
100 109 0
109 121 0
95 105 0
107 121 0
107 123 0
102 112 0
94 104 0
108 119 0
108 123 0
109 121 0
108 119 0
112 122 0
118 130 0
110 122 0
116 127 0
120 130 0
112 123 0
116 124 0
110 122 0
102 114 0
106 114 0
109 120 0
126 138 0
112 122 0
117 127 0
117 129 0
109 118 0
101 111 0
103 109 0
127 138 0
119 126 0
121 129 0
106 115 0
113 120 0
119 130 0
120 127 0
130 142 0
103 112 0
114 120 0
111 121 0
111 119 0
114 119 0
94 98 0
114 126 0
114 122 0
97 104 0
120 131 0
123 129 0
119 126 0
128 129 0
114 121 0
116 122 0
95 100 0
106 111 0
123 131 0
120 126 0
120 119 0
99 100 0
109 113 0
106 111 0
93 93 0
93 86 0
118 116 0
109 106 0
107 106 0
111 112 0
96 96 0
119 120 0
107 108 0
105 102 0
92 83 0
105 103 0
92 86 0
96 94 0
88 83 0
90 82 0
85 74 0
91 84 0
88 78 0
99 93 0
88 81 0
91 81 0
100 92 0
96 89 0
92 81 0
77 67 0
86 75 0
80 70 0
76 67 0
71 57 0
68 48 0
85 70 0
89 71 0
85 63 0
83 62 0
95 73 0
83 60 0
84 64 0
85 65 0
95 74 1
91 69 1
98 73 1
95 72 1
94 73 1
99 78 1
86 66 1
89 62 0
86 68 0
93 71 1
92 77 0
83 62 0
99 81 0
87 65 1
90 70 0
97 78 1
103 84 0
86 62 0
99 79 1
94 76 0
102 83 0
93 69 0
103 84 1
91 72 0
89 66 1
103 86 0
97 78 0
96 78 0
86 65 0
115 97 1
96 77 1
91 68 0
104 83 1
106 92 1
94 75 0
100 74 1
93 63 1
98 75 1
100 80 1
98 75 0
96 76 1
104 78 1
103 84 0
106 83 1
112 95 1
87 64 0
102 78 0
104 86 0
114 99 0
110 107 0
122 122 0
128 137 0
151 160 0
151 166 0
155 167 0
147 161 0
150 165 0
153 168 0
155 170 0
147 162 0
144 157 0
158 174 0
154 170 0
160 175 0
154 171 0
155 172 0
161 180 0
151 167 0
161 178 0
152 167 0
153 165 0
147 165 0
150 170 0
157 177 0
156 177 0
157 177 0
152 170 0
160 180 0
146 163 0
152 171 0
144 163 0
148 168 0
154 172 0
152 170 0
149 166 0
153 173 0
158 179 0
147 164 0
147 164 0
146 163 0
154 173 0
144 162 0
145 163 0
148 164 0
142 160 0
129 144 11
114 127 30
124 139 25
101 112 41
109 121 23
111 124 48
108 121 48
107 118 38
107 119 58
109 119 60
100 111 63
102 113 58
95 104 64
107 119 66
105 115 54
90 100 55
101 112 47
111 121 67
109 121 74
108 119 62
91 100 53
98 109 55
104 115 70
111 123 57
96 105 59
89 98 51
92 101 53
90 99 52
100 109 61
101 111 65
92 101 59
88 97 51
89 98 60
101 110 47
88 98 50
97 106 66
96 105 54
102 114 72
94 104 51
96 106 50
83 91 62
88 97 58
92 101 47
78 85 50
88 97 49
80 89 54
82 89 43
71 78 37
81 89 30
84 92 25
82 90 30
76 84 21
109 119 3
83 91 0
89 98 0
81 90 0
90 97 0
79 88 0
98 106 0
97 106 0
94 103 0
81 90 0
97 106 0
96 107 0
87 95 0
94 103 0
97 106 0
97 106 0
102 112 0
93 104 0
87 98 0
93 103 0
103 113 0
110 123 0
107 119 0
107 118 0
101 112 0
101 110 0
96 106 0
108 120 0
106 116 0
117 129 0
107 119 0
107 120 0
121 134 0
112 125 0
96 109 0
110 124 0
125 138 0
110 124 0
118 132 0
108 120 0
106 117 0
104 118 0
117 131 0
105 118 0
106 118 0
115 128 0
124 138 0
106 121 0
121 137 0
114 128 0
111 126 0
111 124 0
114 128 0
115 130 0
117 132 0
107 121 0
119 135 0
114 127 0
120 134 0
130 146 0
115 129 0
108 121 0
104 118 0
119 135 0
122 136 0
131 147 0
134 151 0
115 130 0
106 119 0
113 128 0
122 138 0
108 121 0
118 133 0
106 122 0
115 131 0
118 135 0
107 123 0
120 136 0
116 132 0
110 123 0
118 134 0
117 137 0
108 125 0
127 144 0
128 146 0
115 130 0
105 119 0
117 133 0
128 145 0
108 123 0
94 108 0
102 116 0
118 134 0
112 127 0
107 122 0
109 123 0
113 128 0
109 125 0
99 115 0
105 121 0
90 103 0
109 124 0
111 126 0
111 127 0
113 128 0
120 136 0
105 118 0
86 99 0
101 115 0
95 110 0
116 131 0
108 121 0
92 103 0
99 115 0
114 128 0
100 112 0
107 121 0
105 118 0
113 126 0
104 119 0
99 111 0
93 105 0
99 112 0
105 118 0
95 109 0
110 124 0
84 97 0
102 117 0
110 122 0
103 116 0
98 107 0
94 105 0
98 113 0
102 116 0
118 130 0
109 121 0
105 119 0
107 120 0
98 111 0
77 90 0
99 112 0
118 130 0
100 111 0
105 117 0
113 128 0
109 121 0
107 119 0
103 111 0
118 134 0
105 114 0
98 112 0
103 115 0
83 94 0
122 135 0
127 141 0
114 127 0
109 124 0
112 126 0
124 136 0
117 131 0
104 116 0
123 137 0
108 120 0
122 133 0
122 136 0
104 111 0
118 134 0
129 142 0
112 124 0
129 145 0
117 129 0
110 119 0
119 131 0
103 110 0
119 130 0
119 130 0
129 140 0
122 134 0
125 137 0
129 141 0
117 124 0
115 127 0
135 147 0
111 120 0
109 120 0
117 126 0
110 116 0
123 131 0
124 131 0
118 123 0
115 124 0
120 132 0
121 130 0
120 127 0
120 130 0
124 134 0
123 132 0
103 107 0
118 125 0
111 118 0
103 105 0
121 122 0
120 128 0
95 98 0
112 118 0
122 125 0
116 118 0
116 119 0
116 120 0
113 119 0
117 124 0
114 117 0
107 111 0
108 111 0
99 103 0
122 122 0
105 105 0
114 116 0
111 113 0
103 101 0
108 107 0
118 119 0
84 83 0
92 94 0
104 104 0
102 102 0
102 99 0
104 99 0
92 86 0
103 103 0
102 97 0
102 99 0
97 91 0
111 107 0
99 94 0
99 96 0
104 97 0
108 105 0
101 94 0
93 87 0
80 68 0
89 79 0
94 84 0
79 65 0
87 77 0
95 85 0
87 78 0
80 77 0
76 63 0
89 77 0
80 68 0
87 73 0
84 64 0
81 60 0
87 64 0
80 57 0
91 66 1
93 74 0
93 73 1
95 70 1
84 64 0
94 66 1
92 74 0
89 71 1
95 75 1
106 87 0
86 65 1
93 75 1
106 85 1
102 77 1
108 86 1
97 73 1
101 78 1
102 82 0
94 77 1
87 60 1
104 84 1
105 83 1
96 71 1
100 76 1
103 78 1
101 79 1
100 73 1
103 85 0
91 67 1
110 87 1
104 83 1
89 63 0
99 80 0
102 76 1
102 83 1
101 79 0
107 87 0
108 84 0
98 78 0
113 104 0
116 108 0
120 114 0
139 139 0
136 142 0
146 154 0
142 152 0
160 175 0
151 166 0
147 163 0
141 150 0
150 164 0
152 164 0
149 163 0
150 160 0
140 151 0
143 155 0
148 158 0
144 155 0
151 162 0
161 180 0
148 162 0
153 169 0
152 166 0
158 175 0
152 167 0
149 165 0
153 167 0
153 169 0
146 164 0
150 168 0
153 173 0
147 165 0
152 173 0
147 166 0
156 175 0
154 172 0
148 166 0
150 168 0
157 176 0
154 173 0
144 162 0
151 170 0
153 171 0
151 170 0
150 170 0
147 166 0
144 163 0
143 160 0
136 152 0
150 167 0
147 164 0
142 160 0
138 156 0
140 157 0
132 147 0
143 159 0
138 154 0
140 157 0
139 155 14
106 118 17
117 129 14
132 146 22
125 140 36
114 125 41
93 103 42
106 116 53
98 109 52
96 105 50
85 94 45
99 111 31
88 98 51
92 101 54
96 105 60
95 104 63
108 119 54
96 106 73
95 103 37
87 95 42
91 100 58
83 91 54
87 95 61
89 98 56
85 94 59
90 98 54
89 98 60
91 99 64
86 95 47
93 102 58
99 107 54
96 105 37
84 92 38
92 101 42
78 86 36
94 103 34
102 112 30
102 110 33
104 113 14
92 100 15
86 94 7
99 109 0
98 107 0
87 96 0
91 100 0
93 101 0
93 101 0
92 100 0
89 97 0
106 114 0
97 106 0
98 107 0
96 105 0
103 113 0
92 101 0
109 119 0
100 110 0
93 102 0
96 106 0
113 124 0
105 116 0
101 111 0
111 123 0
105 116 0
107 118 0
107 120 0
107 118 0
122 136 0
112 126 0
106 117 0
96 107 0
111 124 0
107 120 0
104 114 0
107 120 0
106 117 0
122 134 0
112 124 0
100 113 0
123 138 0
127 141 0
126 140 0
105 118 0
106 119 0
118 132 0
110 123 0
114 128 0
113 126 0
117 130 0
113 126 0
113 126 0
109 123 0
116 131 0
116 129 0
97 111 0
99 112 0
107 121 0
102 116 0
124 140 0
109 124 0
116 131 0
136 154 0
107 121 0
121 136 0
128 144 0
118 132 0
104 117 0
131 146 0
126 142 0
117 130 0
119 136 0
130 146 0
114 129 0
120 137 0
116 130 0
119 134 0
115 131 0
114 129 0
127 142 0
118 135 0
112 127 0
102 117 0
121 139 0
110 125 0
126 143 0
128 145 0
121 137 0
116 134 0
115 131 0
125 141 0
122 138 0
115 130 0
117 133 0
125 143 0
115 131 0
109 124 0
101 116 0
122 138 0
112 130 0
111 125 0
91 104 0
100 115 0
115 131 0
109 124 0
114 129 0
108 122 0
123 138 0
94 109 0
101 116 0
89 102 0
105 120 0
117 131 0
97 110 0
117 133 0
107 122 0
99 110 0
110 123 0
114 127 0
108 124 0
100 113 0
125 140 0
103 116 0
110 126 0
93 108 0
110 123 0
109 122 0
97 110 0
97 110 0
86 96 0
112 127 0
121 135 0
98 111 0
91 104 0
112 126 0
95 109 0
96 110 0
108 120 0
94 105 0
101 114 0
98 112 0
104 117 0
103 116 0
95 109 0
108 121 0
106 119 0
107 121 0
111 125 0
97 109 0
118 132 0
105 121 0
113 128 0
86 96 0
116 133 0
106 118 0
109 119 0
116 129 0
117 129 0
117 131 0
117 130 0
121 134 0
127 140 0
117 131 0
130 143 0
126 141 0
127 138 0
115 128 0
121 134 0
117 131 0
112 126 0
90 100 0
118 132 0
126 139 0
113 126 0
112 123 0
115 129 0
118 130 0
124 137 0
105 117 0
126 140 0
116 129 0
122 135 0
116 126 0
116 128 0
114 126 0
99 107 0
114 126 0
119 130 0
118 128 0
124 139 0
117 128 0
114 122 0
114 121 0
115 123 0
120 129 0
114 127 0
122 137 0
118 127 0
112 120 0
121 128 0
121 128 0
127 135 0
119 124 0
119 130 0
114 117 0
128 138 0
114 122 0
107 109 0
129 134 0
119 128 0
110 113 0
128 136 0
112 117 0
109 110 0
118 122 0
127 137 0
118 124 0
113 118 0
122 126 0
118 123 0
114 115 0
108 111 0
115 118 0
111 113 0
110 111 0
105 103 0
112 110 0
105 105 0
112 113 0
100 96 0
94 92 0
105 101 0
98 95 0
109 110 0
122 123 0
116 115 0
100 96 0
107 102 0
101 96 0
112 111 0
103 100 0
98 89 0
106 105 0
107 101 0
86 77 0
97 91 0
91 87 0
95 89 0
87 77 0
102 96 0
102 98 0
111 106 0
105 96 0
88 83 0
81 73 0
94 84 0
86 76 0
99 91 0
101 99 0
98 92 0
92 83 0
79 69 0
77 62 0
96 85 0
92 72 0
98 83 0
86 71 0
81 60 0
74 61 0
84 65 0
88 71 0
93 72 0
89 63 0
94 75 0
89 68 0
87 65 0
81 57 0
94 71 0
95 73 0
94 75 0
96 71 1
101 79 1
97 79 1
94 70 0
98 77 0
90 67 0
90 65 1
101 78 0
87 60 0
100 81 0
96 70 0
101 84 0
93 71 0
99 86 0
112 99 0
120 113 0
111 103 0
115 112 0
133 138 0
126 127 0
128 130 0
133 141 0
133 140 0
146 154 0
148 158 0
148 164 0
137 143 0
142 153 0
150 159 0
147 159 0
153 165 0
142 152 0
149 161 0
151 159 0
153 165 0
144 155 0
151 162 0
141 150 0
147 158 0
146 157 0
146 159 0
155 172 0
143 154 0
156 171 0
154 168 0
151 166 0
154 169 0
153 168 0
155 172 0
152 167 0
149 163 0
156 177 0
152 172 0
148 167 0
147 164 0
142 159 0
151 169 0
153 171 0
149 168 0
149 168 0
153 172 0
154 172 0
149 167 0
145 162 0
153 173 0
152 170 0
136 152 0
140 157 0
141 157 0
143 161 0
136 153 0
148 165 0
142 159 0
154 173 0
145 164 0
153 172 0
150 167 0
141 157 0
135 151 0
137 152 0
136 152 0
139 156 0
131 146 0
139 155 0
132 148 0
134 148 0
115 127 0
133 148 0
126 139 0
133 147 0
134 149 0
136 149 6
121 134 14
128 141 14
141 156 18
120 132 16
113 125 23
107 118 27
122 135 18
112 123 13
100 110 34
110 121 24
88 98 28
108 119 17
112 123 25
107 117 31
104 114 19
108 118 14
111 121 6
112 123 15
121 131 0
106 118 1
96 106 0
107 117 0
92 101 0
107 117 0
101 110 0
98 106 0
107 116 0
104 113 0
95 104 0
103 112 0
97 107 0
103 113 0
106 115 0
99 110 0
103 112 0
103 111 0
98 108 0
101 111 0
96 106 0
95 103 0
101 111 0
100 110 0
96 106 0
97 105 0
90 100 0
99 109 0
102 112 0
90 98 0
104 115 0
109 120 0
102 112 0
97 106 0
101 113 0
96 106 0
120 133 0
122 135 0
101 112 0
107 120 0
111 123 0
115 126 0
111 123 0
103 114 0
125 138 0
110 123 0
115 129 0
124 138 0
104 115 0
100 113 0
115 129 0
127 141 0
119 133 0
120 135 0
117 132 0
125 140 0
112 126 0
114 127 0
129 144 0
113 127 0
120 134 0
126 140 0
122 136 0
111 127 0
105 121 0
118 131 0
109 124 0
118 132 0
119 135 0
115 131 0
113 128 0
121 135 0
127 142 0
138 156 0
111 124 0
110 124 0
109 125 0
116 130 0
130 147 0
121 138 0
107 121 0
122 138 0
107 121 0
125 141 0
126 143 0
101 116 0
106 121 0
116 130 0
123 139 0
110 127 0
114 131 0
119 137 0
116 133 0
124 142 0
113 131 0
109 126 0
121 137 0
118 132 0
124 140 0
121 137 0
115 131 0
113 129 0
126 143 0
106 121 0
112 127 0
113 131 0
119 135 0
109 123 0
116 132 0
116 133 0
111 127 0
103 120 0
124 140 0
115 130 0
120 137 0
106 123 0
99 116 0
105 121 0
102 117 0
110 123 0
123 141 0
97 113 0
116 134 0
115 131 0
113 126 0
107 120 0
88 101 0
104 118 0
93 105 0
102 118 0
110 125 0
103 118 0
103 115 0
112 129 0
107 121 0
111 124 0
119 132 0
107 121 0
104 117 0
116 131 0
90 103 0
109 123 0
94 109 0
99 113 0
103 117 0
109 123 0
101 114 0
105 121 0
105 116 0
101 112 0
110 122 0
105 119 0
106 122 0
95 110 0
109 124 0
92 105 0
85 96 0
89 104 0
116 130 0
113 127 0
97 111 0
126 142 0
107 120 0
104 116 0
120 136 0
112 127 0
108 122 0
102 112 0
119 131 0
123 135 0
117 130 0
118 128 0
123 137 0
114 125 0
116 129 0
119 133 0
117 129 0
122 135 0
116 129 0
113 126 0
115 128 0
113 126 0
119 129 0
119 129 0
124 138 0
104 114 0
115 129 0
122 136 0
123 136 0
130 144 0
122 134 0
118 131 0
110 122 0
123 136 0
108 118 0
113 123 0
125 134 0
107 116 0
113 123 0
113 121 0
109 117 0
124 135 0
107 117 0
120 133 0
118 128 0
101 113 0
110 118 0
113 123 0
126 137 0
101 109 0
133 146 0
117 125 0
122 135 0
117 124 0
125 132 0
106 112 0
127 136 0
118 124 0
123 132 0
126 133 0
116 128 0
118 126 0
132 143 0
124 128 0
116 118 0
120 127 0
121 122 0
114 114 0
127 135 0
115 119 0
102 105 0
110 114 0
106 106 0
121 127 0
112 116 0
96 91 0
107 104 0
103 101 0
111 113 0
118 122 0
109 109 0
106 101 0
116 120 0
110 107 0
104 107 0
110 111 0
95 90 0
110 107 0
103 100 0
103 102 0
98 98 0
93 86 0
104 101 0
100 95 0
94 90 0
97 91 0
109 105 0
96 87 0
104 97 0
106 103 0
99 91 0
104 101 0
106 96 0
103 99 0
96 88 0
100 96 0
99 89 0
99 92 0
87 77 0
95 88 0
101 92 0
110 109 0
96 87 0
100 96 0
102 95 0
121 119 0
98 94 0
100 92 0
109 103 0
96 90 0
94 81 0
103 98 0
106 99 0
103 96 0
101 92 0
110 107 0
108 101 0
87 71 0
99 86 0
106 96 0
105 100 0
111 100 0
108 98 0
113 108 0
111 105 0
114 111 0
113 113 0
115 107 0
122 117 0
115 115 0
127 132 0
128 129 0
134 134 0
136 142 0
133 141 0
120 123 0
132 134 0
132 133 0
140 149 0
127 128 0
136 144 0
142 147 0
141 148 0
141 154 0
143 152 0
136 142 0
133 140 0
131 140 0
137 145 0
148 159 0
148 157 0
145 155 0
151 164 0
147 159 0
142 154 0
138 143 0
144 153 0
152 164 0
142 152 0
147 156 0
149 160 0
151 164 0
143 156 0
141 150 0
153 171 0
147 161 0
156 173 0
159 176 0
156 173 0
145 156 0
153 167 0
146 163 0
154 175 0
153 172 0
147 163 0
141 158 0
155 175 0
148 167 0
155 174 0
153 172 0
155 174 0
145 164 0
153 172 0
147 164 0
155 174 0
135 152 0
149 166 0
154 173 0
143 160 0
144 161 0
146 164 0
151 168 0
144 161 0
150 169 0
142 159 0
130 145 0
134 149 0
132 148 0
140 157 0
138 154 0
137 152 0
149 167 0
130 145 0
134 149 0
144 160 0
132 147 0
143 159 0
132 146 0
138 153 0
129 143 0
121 134 0
134 149 0
129 142 0
119 132 0
131 144 0
113 125 0
121 133 0
132 146 0
125 138 0
121 134 0
110 121 0
123 135 0
115 127 0
115 126 0
115 127 0
103 113 0
112 124 0
101 112 0
106 116 0
120 133 0
112 122 0
101 111 0
110 121 0
95 105 0
103 113 0
111 121 0
103 113 0
90 99 0
101 110 0
108 117 0
118 129 0
96 106 0
106 116 0
108 117 0
101 112 0
101 109 0
108 117 0
103 113 0
82 90 0
103 112 0
102 111 0
115 126 0
100 112 0
112 122 0
102 112 0
110 121 0
99 109 0
94 106 0
107 117 0
104 115 0
89 99 0
114 126 0
116 127 0
111 122 0
107 118 0
107 118 0
101 112 0
110 121 0
90 99 0
108 122 0
101 112 0
109 119 0
116 127 0
122 137 0
120 134 0
118 131 0
111 124 0
126 140 0
102 114 0
107 119 0
118 131 0
119 135 0
112 126 0
123 138 0
97 109 0
117 129 0
128 144 0
116 130 0
120 135 0
109 123 0
125 141 0
123 137 0
119 134 0
120 136 0
123 137 0
127 143 0
107 122 0
126 143 0
128 144 0
120 134 0
117 133 0
100 112 0
121 136 0
116 131 0
130 146 0
127 143 0
131 149 0
118 133 0
130 148 0
112 128 0
125 140 0
117 133 0
127 143 0
127 145 0
119 134 0
111 128 0
119 136 0
130 147 0
119 133 0
114 130 0
121 137 0
126 143 0
107 122 0
123 140 0
140 158 0
130 146 0
127 142 0
112 128 0
123 139 0
120 137 0
112 127 0
124 139 0
111 127 0
121 137 0
114 130 0
116 132 0
128 144 0
124 140 0
124 138 0
107 124 0
123 140 0
129 145 0
123 136 0
111 127 0
103 118 0
108 123 0
109 123 0
106 119 0
125 141 0
126 142 0
116 133 0
108 121 0
107 121 0
110 125 0
102 115 0
75 86 0
102 116 0
103 120 0
104 118 0
108 123 0
103 118 0
111 127 0
97 109 0
123 139 0
98 109 0
114 129 0
124 138 0
89 102 0
103 118 0
98 112 0
93 107 0
107 120 0
101 116 0
115 131 0
110 122 0
110 124 0
99 111 0
118 131 0
105 117 0
112 125 0
100 115 0
110 125 0
109 123 0
89 99 0
117 132 0
110 126 0
110 125 0
117 132 0
115 130 0
104 118 0
110 122 0
100 115 0
107 119 0
119 133 0
109 123 0
99 113 0
122 140 0
128 144 0
105 118 0
118 133 0
123 140 0
117 131 0
112 127 0
114 129 0
106 119 0
127 140 0
117 129 0
124 138 0
114 129 0
120 137 0
130 144 0
132 144 0
115 127 0
123 133 0
122 135 0
120 134 0
116 129 0
118 131 0
115 127 0
114 128 0
119 130 0
104 115 0
120 134 0
136 150 0
132 145 0
116 127 0
133 146 0
123 139 0
119 127 0
124 137 0
131 143 0
108 120 0
124 130 0
123 131 0
110 119 0
132 146 0
123 134 0
118 128 0
132 143 0
127 137 0
120 130 0
122 132 0
124 133 0
123 130 0
116 125 0
113 122 0
117 126 0
114 122 0
116 123 0
116 120 0
105 112 0
111 115 0
126 137 0
127 134 0
121 132 0
125 133 0
119 126 0
118 123 0
119 119 0
125 136 0
128 128 0
123 129 0
111 115 0
119 124 0
117 119 0
110 113 0
138 145 0
102 101 0
109 114 0
120 123 0
107 109 0
111 115 0
99 97 0
112 112 0
121 119 0
102 102 0
120 123 0
108 106 0
110 103 0
112 108 0
114 109 0
102 97 0
103 101 0
120 118 0
106 106 0
101 94 0
96 89 0
102 97 0
99 98 0
101 97 0
99 91 0
106 106 0
93 83 0
101 97 0
100 95 0
96 91 0
102 102 0
90 84 0
97 90 0
107 101 0
108 103 0
110 100 0
111 107 0
96 88 0
99 93 0
98 91 0
101 98 0
99 93 0
104 97 0
114 113 0
90 82 0
109 106 0
112 110 0
95 88 0
110 106 0
107 102 0
121 117 0
113 110 0
128 130 0
127 126 0
116 113 0
120 120 0
121 120 0
122 120 0
116 115 0
127 123 0
124 124 0
132 131 0
122 125 0
136 138 0
140 143 0
131 130 0
132 132 0
134 133 0
134 138 0
123 124 0
131 137 0
136 141 0
130 135 0
132 137 0
136 146 0
142 149 0
143 151 0
139 148 0
128 131 0
136 143 0
142 153 0
142 151 0
135 141 0
136 143 0
151 161 0
152 164 0
152 163 0
150 160 0
154 165 0
151 163 0
150 161 0
143 152 0
139 151 0
149 156 0
150 162 0
148 160 0
155 170 0
143 155 0
150 164 0
149 162 0
146 160 0
151 162 0
144 158 0
147 159 0
150 166 0
156 175 0
153 171 0
158 178 0
147 167 0
154 174 0
150 168 0
143 159 0
153 172 0
144 163 0
151 172 0
143 160 0
154 172 0
152 169 0
153 171 0
135 151 0
139 156 0
154 172 0
138 154 0
134 149 0
150 167 0
139 155 0
144 160 0
145 163 0
145 161 0
136 151 0
133 148 0
143 159 0
142 157 0
143 158 0
140 157 0
140 156 0
126 140 0
130 145 0
130 145 0
133 147 0
130 144 0
131 146 0
138 152 0
134 147 0
137 152 0
122 133 0
133 148 0
117 130 0
129 142 0
110 122 0
121 133 0
127 140 0
117 128 0
116 127 0
111 123 0
116 128 0
107 118 0
110 121 0
115 128 0
117 129 0
100 110 0
114 126 0
118 129 0
109 120 0
98 108 0
106 117 0
103 114 0
125 137 0
107 117 0
101 112 0
108 118 0
108 117 0
113 125 0
106 117 0
104 114 0
102 112 0
109 119 0
104 113 0
100 110 0
100 110 0
99 108 0
120 132 0
111 122 0
107 118 0
95 104 0
119 131 0
112 123 0
116 128 0
100 111 0
107 119 0
117 129 0
111 123 0
97 107 0
112 123 0
105 115 0
108 120 0
121 134 0
123 137 0
91 100 0
108 120 0
115 127 0
101 113 0
127 141 0
118 131 0
120 133 0
108 119 0
123 137 0
109 121 0
104 117 0
120 135 0
115 128 0
120 134 0
121 136 0
133 149 0
124 138 0
119 132 0
122 135 0
118 132 0
119 132 0
121 138 0
129 143 0
121 136 0
116 130 0
121 136 0
123 139 0
106 119 0
130 145 0
108 122 0
120 136 0
133 150 0
115 130 0
126 143 0
125 141 0
129 145 0
110 124 0
129 144 0
118 133 0
125 141 0
114 131 0
125 141 0
120 136 0
139 156 0
112 127 0
117 134 0
125 142 0
119 136 0
120 135 0
121 138 0
106 120 0
122 139 0
121 136 0
120 136 0
127 144 0
119 135 0
114 129 0
121 138 0
116 132 0
116 132 0
121 138 0
114 131 0
116 133 0
122 138 0
121 138 0
110 125 0
115 130 0
120 135 0
137 155 0
122 138 0
110 126 0
114 130 0
130 147 0
120 136 0
113 129 0
119 136 0
125 141 0
126 142 0
119 135 0
99 112 0
119 134 0
115 132 0
115 131 0
122 136 0
127 143 0
104 118 0
110 124 0
110 127 0
115 129 0
100 113 0
101 117 0
99 113 0
105 119 0
113 128 0
103 117 0
112 127 0
109 121 0
98 112 0
111 126 0
119 134 0
108 121 0
102 117 0
107 121 0
116 132 0
101 116 0
120 137 0
98 115 0
111 127 0
124 139 0
119 135 0
106 120 0
107 123 0
99 113 0
129 144 0
106 118 0
118 133 0
116 132 0
109 125 0
110 121 0
119 132 0
124 141 0
95 106 0
131 146 0
111 127 0
119 135 0
100 115 0
95 108 0
117 133 0
117 132 0
123 138 0
120 131 0
107 123 0
128 145 0
108 120 0
119 136 0
118 135 0
109 120 0
124 141 0
112 129 0
123 138 0
109 121 0
113 127 0
120 133 0
124 139 0
112 123 0
118 131 0
119 135 0
105 115 0
110 123 0
122 136 0
123 137 0
117 129 0
104 116 0
120 135 0
111 123 0
122 134 0
128 143 0
122 132 0
119 132 0
126 138 0
113 128 0
111 122 0
117 130 0
122 135 0
124 135 0
113 124 0
117 132 0
127 138 0
113 126 0
110 118 0
125 136 0
117 130 0
115 127 0
108 113 0
121 130 0
129 144 0
131 146 0
116 124 0
113 122 0
122 130 0
123 130 0
109 112 0
117 127 0
126 136 0
114 124 0
109 116 0
122 132 0
130 142 0
122 129 0
109 116 0
132 141 0
112 119 0
112 118 0
138 150 0
118 127 0
117 124 0
120 129 0
130 140 0
103 105 0
124 124 0
122 128 0
117 122 0
98 95 0
113 113 0
115 119 0
132 136 0
112 113 0
121 123 0
112 113 0
117 121 0
108 109 0
112 118 0
107 105 0
112 112 0
121 123 0
110 111 0
110 113 0
107 104 0
109 103 0
112 112 0
109 109 0
111 108 0
97 95 0
111 106 0
93 90 0
119 118 0
102 102 0
103 100 0
98 91 0
102 99 0
96 90 0
102 96 0
108 104 0
109 107 0
95 88 0
104 98 0
95 86 0
108 101 0
110 109 0
105 101 0
111 108 0
109 101 0
107 104 0
109 107 0
108 102 0
116 114 0
102 96 0
115 112 0
117 116 0
121 120 0
112 111 0
98 94 0
120 120 0
117 116 0
116 112 0
134 135 0
130 131 0
129 129 0
104 100 0
124 124 0
132 132 0
113 113 0
119 117 0
124 122 0
123 125 0
118 115 0
131 139 0
125 129 0
123 124 0
132 132 0
137 142 0
132 136 0
130 133 0
135 141 0
121 122 0
141 148 0
129 132 0
131 138 0
148 154 0
147 158 0
149 161 0
134 139 0
138 145 0
125 129 0
132 138 0
141 153 0
137 146 0
132 136 0
140 149 0
154 164 0
134 141 0
147 159 0
142 154 0
141 147 0
152 164 0
147 160 0
152 164 0
144 156 0
148 159 0
144 157 0
145 156 0
146 159 0
147 159 0
151 164 0
159 175 0
150 161 0
154 165 0
156 176 0
146 165 0
147 166 0
145 162 0
132 149 0
142 161 0
148 164 0
147 166 0
156 176 0
152 171 0
150 168 0
146 165 0
158 177 0
144 162 0
145 163 0
143 160 0
138 155 0
158 176 0
135 152 0
143 161 0
142 160 0
144 160 0
143 160 0
136 152 0
132 148 0
144 160 0
134 150 0
127 141 0
131 147 0
140 155 0
141 157 0
137 153 0
132 146 0
121 134 0
118 131 0
129 141 0
134 147 0
131 145 0
119 133 0
125 138 0
127 140 0
122 134 0
134 149 0
127 141 0
113 125 0
125 138 0
120 132 0
128 141 0
112 124 0
109 120 0
115 127 0
112 124 0
132 145 0
112 124 0
121 133 0
121 133 0
110 121 0
113 124 0
119 131 0
107 119 0
122 134 0
112 124 0
104 114 0
104 114 0
112 123 0
92 102 0
96 106 0
115 126 0
109 120 0
101 111 0
104 116 0
113 124 0
108 119 0
95 106 0
104 116 0
90 100 0
105 115 0
102 113 0
119 131 0
125 137 0
127 140 0
102 113 0
101 111 0
116 128 0
104 115 0
101 112 0
108 121 0
109 120 0
125 137 0
111 122 0
108 120 0
120 134 0
113 127 0
113 125 0
109 120 0
110 123 0
105 117 0
121 137 0
110 124 0
111 122 0
103 114 0
121 135 0
111 124 0
111 124 0
110 123 0
129 144 0
138 153 0
119 133 0
106 122 0
128 143 0
111 123 0
120 133 0
106 120 0
126 140 0
117 131 0
112 126 0
115 128 0
126 141 0
102 116 0
110 124 0
115 129 0
123 138 0
123 138 0
111 126 0
132 147 0
111 125 0
116 130 0
127 144 0
123 139 0
110 125 0
135 152 0
120 134 0
128 145 0
110 126 0
119 134 0
128 144 0
125 142 0
116 131 0
111 125 0
117 132 0
118 135 0
129 147 0
125 139 0
130 148 0
114 130 0
123 136 0
116 130 0
122 138 0
125 142 0
118 134 0
120 135 0
126 142 0
123 138 0
115 131 0
126 144 0
134 152 0
111 125 0
119 137 0
124 140 0
121 138 0
122 138 0
118 135 0
113 128 0
110 125 0
105 121 0
136 155 0
120 137 0
112 127 0
119 136 0
111 126 0
113 130 0
112 128 0
117 132 0
103 118 0
120 136 0
108 123 0
121 137 0
115 131 0
116 131 0
118 134 0
115 131 0
111 126 0
111 125 0
124 140 0
116 130 0
97 109 0
107 122 0
106 121 0
107 120 0
112 126 0
107 121 0
107 122 0
108 123 0
115 130 0
120 135 0
103 119 0
110 124 0
103 117 0
119 134 0
108 124 0
107 122 0
113 126 0
118 133 0
106 120 0
111 124 0
108 123 0
110 126 0
110 126 0
97 110 0
114 129 0
130 146 0
118 132 0
111 125 0
125 137 0
123 140 0
103 116 0
123 138 0
118 131 0
104 119 0
125 140 0
123 140 0
127 145 0
123 139 0
100 112 0
107 119 0
115 128 0
105 118 0
108 122 0
119 132 0
121 135 0
110 124 0
138 155 0
118 134 0
111 126 0
133 150 0
111 123 0
129 144 0
120 134 0
113 124 0
121 134 0
117 131 0
116 127 0
116 129 0
118 132 0
113 127 0
109 120 0
118 131 0
122 134 0
121 132 0
123 136 0
129 146 0
113 125 0
132 147 0
129 143 0
119 128 0
121 131 0
117 127 0
141 156 0
129 140 0
124 133 0
120 131 0
136 147 0
129 139 0
118 127 0
130 142 0
119 127 0
106 116 0
115 126 0
125 137 0
122 133 0
121 131 0
127 139 0
116 129 0
130 143 0
112 122 0
129 139 0
128 138 0
123 131 0
138 147 0
133 145 0
128 141 0
126 133 0
113 117 0
134 144 0
131 141 0
129 136 0
114 119 0
92 93 0
113 115 0
115 122 0
119 123 0
116 124 0
125 129 0
116 116 0
112 120 0
118 121 0
107 110 0
116 119 0
117 119 0
109 113 0
115 121 0
107 109 0
119 125 0
113 114 0
115 118 0
124 128 0
111 109 0
111 107 0
108 105 0
115 113 0
116 122 0
109 110 0
93 90 0
122 126 0
109 109 0
123 123 0
115 108 0
108 108 0
103 93 0
109 101 0
121 122 0
108 105 0
120 117 0
108 98 0
98 93 0
100 94 0
111 110 0
112 115 0
118 117 0
106 100 0
106 100 0
94 88 0
103 96 0
101 96 0
109 108 0
108 108 0
100 95 0
102 94 0
106 102 0
108 107 0
111 110 0
110 107 0
117 116 0
122 122 0
108 103 0
107 104 0
105 100 0
106 100 0
119 119 0
118 115 0
106 106 0
113 113 0
124 123 0
137 139 0
125 124 0
117 110 0
114 113 0
132 131 0
132 135 0
127 123 0
127 135 0
129 133 0
137 142 0
132 131 0
131 136 0
141 150 0
142 145 0
126 128 0
134 139 0
139 146 0
139 147 0
126 130 0
137 144 0
135 141 0
141 147 0
147 156 0
149 156 0
141 151 0
122 130 0
139 146 0
146 157 0
157 169 0
146 154 0
142 153 0
135 142 0
144 156 0
149 157 0
152 161 0
147 158 0
147 155 0
148 158 0
156 171 0
150 163 0
150 164 0
149 162 0
141 151 0
151 163 0
146 160 0
140 151 0
146 162 0
157 177 0
149 168 0
139 156 0
154 173 0
153 171 0
150 168 0
151 170 0
141 159 0
147 165 0
152 171 0
152 171 0
148 165 0
142 159 0
150 167 0
149 167 0
142 159 0
142 159 0
147 164 0
144 159 0
140 157 0
139 155 0
133 149 0
142 158 0
133 148 0
141 158 0
138 154 0
133 149 0
136 152 0
133 147 0
141 158 0
137 151 0
131 145 0
137 153 0
136 150 0
121 134 0
140 155 0
116 129 0
134 148 0
119 133 0
126 140 0
128 141 0
134 147 0
123 135 0
125 137 0
135 147 0
125 136 0
125 139 0
127 139 0
118 130 0
107 118 0
113 125 0
119 131 0
119 132 0
128 140 0
126 138 0
119 131 0
115 128 0
95 105 0
121 134 0
114 125 0
109 121 0
108 118 0
94 103 0
108 119 0
111 123 0
102 112 0
106 117 0
110 121 0
106 117 0
101 110 0
105 117 0
112 124 0
100 111 0
103 112 0
105 116 0
117 129 0
111 122 0
122 135 0
110 121 0
112 124 0
110 121 0
110 122 0
116 128 0
106 118 0
120 134 0
109 120 0
119 131 0
102 113 0
108 120 0
119 131 0
120 131 0
107 120 0
105 117 0
112 123 0
128 142 0
115 128 0
116 129 0
117 131 0
111 124 0
106 118 0
123 136 0
123 137 0
115 129 0
112 126 0
127 140 0
132 148 0
105 117 0
115 130 0
121 135 0
110 122 0
113 128 0
118 132 0
116 131 0
129 144 0
122 136 0
125 142 0
115 130 0
123 137 0
127 143 0
130 148 0
130 146 0
112 125 0
136 154 0
124 141 0
126 142 0
113 128 0
130 146 0
124 141 0
122 138 0
141 158 0
113 128 0
116 131 0
118 134 0
114 130 0
111 125 0
111 129 0
125 143 0
113 128 0
122 137 0
122 136 0
126 142 0
122 137 0
127 143 0
107 122 0
130 146 0
135 152 0
122 139 0
123 140 0
119 135 0
121 137 0
113 127 0
99 113 0
122 138 0
129 146 0
110 128 0
109 126 0
124 138 0
124 144 0
134 148 0
121 137 0
125 143 0
118 134 0
108 123 0
114 129 0
115 130 0
126 142 0
113 130 0
117 132 0
121 135 0
138 155 0
129 146 0
119 135 0
124 140 0
126 143 0
127 144 0
123 140 0
114 130 0
112 127 0
135 150 0
115 131 0
112 125 0
104 118 0
127 145 0
125 138 0
118 135 0
105 121 0
120 138 0
129 146 0
120 137 0
122 137 0
122 139 0
115 132 0
110 125 0
98 115 0
100 113 0
108 122 0
103 117 0
114 129 0
119 134 0
118 134 0
115 130 0
124 140 0
102 116 0
115 132 0
131 148 0
113 128 0
112 128 0
118 135 0
110 124 0
120 136 0
113 129 0
119 134 0
107 123 0
110 123 0
131 146 0
98 110 0
104 119 0
106 120 0
110 124 0
107 121 0
114 127 0
135 152 0
110 124 0
114 127 0
114 130 0
108 122 0
115 132 0
99 113 0
113 128 0
123 139 0
122 137 0
137 151 0
110 123 0
113 126 0
133 150 0
117 129 0
103 115 0
126 140 0
120 137 0
108 121 0
112 124 0
112 125 0
107 120 0
115 129 0
133 145 0
129 144 0
113 129 0
119 133 0
123 139 0
120 132 0
124 136 0
121 134 0
119 132 0
125 137 0
118 132 0
132 148 0
127 143 0
103 109 0
125 137 0
116 127 0
120 133 0
129 143 0
131 142 0
124 137 0
134 150 0
118 127 0
128 142 0
125 135 0
110 120 0
114 123 0
116 126 0
124 136 0
135 146 0
125 134 0
111 118 0
129 140 0
117 124 0
114 126 0
121 129 0
124 136 0
118 128 0
134 145 0
129 140 0
116 126 0
122 132 0
102 111 0
126 130 0
114 123 0
124 126 0
118 125 0
107 111 0
122 131 0
118 126 0
128 137 0
127 134 0
122 129 0
110 113 0
119 123 0
122 127 0
124 127 0
114 119 0
124 127 0
133 136 0
113 115 0
134 137 0
121 120 0
119 115 0
127 129 0
110 111 0
116 115 0
118 112 0
103 105 0
111 113 0
120 121 0
109 105 0
106 102 0
116 118 0
118 115 0
121 120 0
118 119 0
110 105 0
116 115 0
114 111 0
96 88 0
109 107 0
116 115 0
117 117 0
104 101 0
114 115 0
101 97 0
105 102 0
109 108 0
112 110 0
133 136 0
123 121 0
108 101 0
116 113 0
105 98 0
113 109 0
108 105 0
123 123 0
104 95 0
113 112 0
108 106 0
118 112 0
115 109 0
129 131 0
100 97 0
116 112 0
116 114 0
130 132 0
127 127 0
118 118 0
109 103 0
132 131 0
125 127 0
119 118 0
115 115 0
128 125 0
120 120 0
115 118 0
132 137 0
124 127 0
124 125 0
133 136 0
139 143 0
128 129 0
135 136 0
135 141 0
135 139 0
140 146 0
132 138 0
141 149 0
142 146 0
134 141 0
142 151 0
148 153 0
142 149 0
141 150 0
142 150 0
138 145 0
140 152 0
146 152 0
137 144 0
153 167 0
145 158 0
150 166 0
137 150 0
138 150 0
144 155 0
144 157 0
162 175 0
151 162 0
153 166 0
142 153 0
156 172 0
145 155 0
152 165 0
137 148 0
146 157 0
150 169 0
150 169 0
153 172 0
147 165 0
145 163 0
150 168 0
152 172 0
140 156 0
149 167 0
154 172 0
146 163 0
151 168 0
144 162 0
152 170 0
137 153 0
140 158 0
143 160 0
146 163 0
136 152 0
133 147 0
138 154 0
141 156 0
140 155 0
144 161 0
141 158 0
144 160 0
132 147 0
139 154 0
144 160 0
134 150 0
125 139 0
133 148 0
129 143 0
129 143 0
139 155 0
121 134 0
111 121 0
133 147 0
130 144 0
127 140 0
114 124 0
118 130 0
133 147 0
115 126 0
116 127 0
111 122 0
119 131 0
121 132 0
118 131 0
125 138 0
124 136 0
106 118 0
115 127 0
119 131 0
109 121 0
130 143 0
109 120 0
117 127 0
121 133 0
131 144 0
113 123 0
108 120 0
110 122 0
107 118 0
109 120 0
108 120 0
115 125 0
119 131 0
109 120 0
115 127 0
113 125 0
118 130 0
106 117 0
112 125 0
110 122 0
107 118 0
107 117 0
110 122 0
109 122 0
105 117 0
121 133 0
114 125 0
111 122 0
132 146 0
124 138 0
124 136 0
112 123 0
112 124 0
118 130 0
114 126 0
125 139 0
114 127 0
105 117 0
118 130 0
119 133 0
127 140 0
112 124 0
117 130 0
109 121 0
117 131 0
123 135 0
122 136 0
121 136 0
116 129 0
125 139 0
121 134 0
118 131 0
132 148 0
123 138 0
115 129 0
121 134 0
120 134 0
122 139 0
128 144 0
130 146 0
121 136 0
118 134 0
111 128 0
118 133 0
130 147 0
125 139 0
124 141 0
124 141 0
138 154 0
122 139 0
116 131 0
127 144 0
133 149 0
119 133 0
129 145 0
121 136 0
102 114 0
120 136 0
113 129 0
126 143 0
136 153 0
122 137 0
113 127 0
132 149 0
113 127 0
135 152 0
111 128 0
128 146 0
118 135 0
125 143 0
132 148 0
118 134 0
124 140 0
121 138 0
116 131 0
125 142 0
129 145 0
122 140 0
132 150 0
131 149 0
107 121 0
112 127 0
125 143 0
119 136 0
126 141 0
119 134 0
104 119 0
131 149 0
128 146 0
114 128 0
121 136 0
139 159 0
112 128 0
127 141 0
114 131 0
107 121 0
119 136 0
118 134 0
119 138 0
106 122 0
100 114 0
114 130 0
111 126 0
116 129 0
118 135 0
124 139 0
115 132 0
102 119 0
105 119 0
120 136 0
108 123 0
112 126 0
103 116 0
124 139 0
113 127 0
121 138 0
110 126 0
112 129 0
109 125 0
121 137 0
100 114 0
120 137 0
107 121 0
122 138 0
107 121 0
117 134 0
117 133 0
124 140 0
134 149 0
121 139 0
114 129 0
112 128 0
119 136 0
120 134 0
111 128 0
107 124 0
123 139 0
104 116 0
109 124 0
106 119 0
114 128 0
129 145 0
121 137 0
105 120 0
119 133 0
134 150 0
120 136 0
114 128 0
126 143 0
129 143 0
119 137 0
118 130 0
114 127 0
128 146 0
110 128 0
103 116 0
130 146 0
118 132 0
119 134 0
120 134 0
120 135 0
118 132 0
125 140 0
115 131 0
116 130 0
118 129 0
108 119 0
116 129 0
129 146 0
111 122 0
123 136 0
124 138 0
132 149 0
128 144 0
127 142 0
124 137 0
131 146 0
125 138 0
128 140 0
122 133 0
121 133 0
142 159 0
121 136 0
114 127 0
121 134 0
124 134 0
132 145 0
128 140 0
113 123 0
131 143 0
113 123 0
131 143 0
131 143 0
129 138 0
127 137 0
120 132 0
126 136 0
129 137 0
136 152 0
121 135 0
132 144 0
130 144 0
123 136 0
130 143 0
136 151 0
126 135 0
114 120 0
104 111 0
117 123 0
122 132 0
121 130 0
119 126 0
111 118 0
132 145 0
122 128 0
125 128 0
113 119 0
127 138 0
123 130 0
120 127 0
116 121 0
126 134 0
118 124 0
118 122 0
116 121 0
124 130 0
112 112 0
124 132 0
116 119 0
129 129 0
117 119 0
112 117 0
119 117 0
120 122 0
118 124 0
100 100 0
122 124 0
119 116 0
116 118 0
113 113 0
114 115 0
128 132 0
113 108 0
117 116 0
105 100 0
113 111 0
109 105 0
110 107 0
112 110 0
121 120 0
109 111 0
112 110 0
115 112 0
100 93 0
106 105 0
116 116 0
107 105 0
104 98 0
107 105 0
105 103 0
108 100 0
119 116 0
115 116 0
113 107 0
120 121 0
115 111 0
108 105 0
112 109 0
115 111 0
119 118 0
110 108 0
115 116 0
118 115 0
124 124 0
121 122 0
119 121 0
120 121 0
126 126 0
127 126 0
132 136 0
117 117 0
114 109 0
113 110 0
133 135 0
115 112 0
128 125 0
118 114 0
126 126 0
138 140 0
125 123 0
138 144 0
129 131 0
145 152 0
125 130 0
135 143 0
127 128 0
138 142 0
135 144 0
141 146 0
136 140 0
136 140 0
137 146 0
132 137 0
124 125 0
134 139 0
142 150 0
142 150 0
146 157 0
135 144 0
137 147 0
141 151 0
142 150 0
154 167 0
143 153 0
140 146 0
147 159 0
155 165 0
149 159 0
142 149 0
141 150 0
155 168 0
136 148 0
157 171 0
148 162 0
151 164 0
148 165 0
150 168 0
140 156 0
139 157 0
140 159 0
144 162 0
145 164 0
146 164 0
140 158 0
149 167 0
139 155 0
137 153 0
149 167 0
146 163 0
153 171 0
145 162 0
146 163 0
147 163 0
141 158 0
142 159 0
131 145 0
152 169 0
141 156 0
144 160 0
130 144 0
134 149 0
138 154 0
133 147 0
133 147 0
129 143 0
139 155 0
132 146 0
127 140 0
137 152 0
129 143 0
120 132 0
123 136 0
127 141 0
125 138 0
122 132 0
122 134 0
122 134 0
119 132 0
127 139 0
121 134 0
135 149 0
116 129 0
125 139 0
116 129 0
118 130 0
110 122 0
122 134 0
116 130 0
112 124 0
129 143 0
112 123 0
118 131 0
114 125 0
117 129 0
122 135 0
108 118 0
115 127 0
122 134 0
111 122 0
109 119 0
117 129 0
107 117 0
112 123 0
109 121 0
112 124 0
109 120 0
110 121 0
119 131 0
127 140 0
113 125 0
122 134 0
109 120 0
107 118 0
122 135 0
117 129 0
125 138 0
119 133 0
125 139 0
113 126 0
110 123 0
119 133 0
107 120 0
118 132 0
122 136 0
116 128 0
118 131 0
118 131 0
116 129 0
135 152 0
118 130 0
125 139 0
127 142 0
106 119 0
129 142 0
113 126 0
109 121 0
129 144 0
129 144 0
142 159 0
122 136 0
125 141 0
135 153 0
111 125 0
128 144 0
121 137 0
132 148 0
118 133 0
135 152 0
122 137 0
128 142 0
126 142 0
115 130 0
129 146 0
128 144 0
117 132 0
123 137 0
127 144 0
116 130 0
121 135 0
115 129 0
117 131 0
116 132 0
121 140 0
127 142 0
126 142 0
121 136 0
129 145 0
137 155 0
125 140 0
128 143 0
120 135 0
142 161 0
128 144 0
124 140 0
126 143 0
116 132 0
121 138 0
133 150 0
117 132 0
123 140 0
122 139 0
120 135 0
128 146 0
115 132 0
131 149 0
125 141 0
120 137 0
129 146 0
122 140 0
122 138 0
139 157 0
113 129 0
135 153 0
122 136 0
130 148 0
123 139 0
127 142 0
115 130 0
118 134 0
127 146 0
118 133 0
106 122 0
126 144 0
116 132 0
115 131 0
128 146 0
105 120 0
114 128 0
126 141 0
108 122 0
107 121 0
138 155 0
115 130 0
125 141 0
111 129 0
119 135 0
113 131 0
125 141 0
113 129 0
107 121 0
125 142 0
110 125 0
117 133 0
118 134 0
110 125 0
112 130 0
115 131 0
119 135 0
108 122 0
119 136 0
111 127 0
110 125 0
125 140 0
116 133 0
132 146 0
130 144 0
122 139 0
117 136 0
105 117 0
122 138 0
130 148 0
107 121 0
119 135 0
120 137 0
113 129 0
127 142 0
119 135 0
117 132 0
125 145 0
108 124 0
114 128 0
119 134 0
112 127 0
120 138 0
109 125 0
97 110 0
124 141 0
119 134 0
90 102 0
111 126 0
118 131 0
108 122 0
131 147 0
128 143 0
114 128 0
114 128 0
124 139 0
105 119 0
127 144 0
129 142 0
116 132 0
120 134 0
136 152 0
126 141 0
113 128 0
111 124 0
136 150 0
106 121 0
125 139 0
109 122 0
134 151 0
122 135 0
123 134 0
127 140 0
120 132 0
119 131 0
109 120 0
132 148 0
129 142 0
129 142 0
114 128 0
114 126 0
126 141 0
124 136 0
130 143 0
111 121 0
122 134 0
131 143 0
123 136 0
113 125 0
127 138 0
120 131 0
132 145 0
122 134 0
130 145 0
110 120 0
116 128 0
138 153 0
124 138 0
127 139 0
109 117 0
127 138 0
125 135 0
127 140 0
118 130 0
121 133 0
136 148 0
135 151 0
117 128 0
123 131 0
121 128 0
121 130 0
122 134 0
135 145 0
122 126 0
116 120 0
121 126 0
131 137 0
113 117 0
122 124 0
110 116 0
125 134 0
110 111 0
122 131 0
116 124 0
124 133 0
122 124 0
127 132 0
118 120 0
103 108 0
119 124 0
127 135 0
104 109 0
125 131 0
116 120 0
128 133 0
116 117 0
122 127 0
119 119 0
127 129 0
120 124 0
114 120 0
113 108 0
134 135 0
114 117 0
116 117 0
125 120 0
126 125 0
127 125 0
115 109 0
118 118 0
116 114 0
116 114 0
113 114 0
108 104 0
123 120 0
116 118 0
124 126 0
111 109 0
124 126 0
121 115 0
124 122 0
96 90 0
120 115 0
121 120 0
117 115 0
134 139 0
119 113 0
102 98 0
117 116 0
126 124 0
125 124 0
125 121 0
113 107 0
113 109 0
118 114 0
108 104 0
116 117 0
115 111 0
124 123 0
126 123 0
120 117 0
120 119 0
132 130 0
125 127 0
121 118 0
139 144 0
133 135 0
131 132 0
124 127 0
132 130 0
136 140 0
119 115 0
124 125 0
138 145 0
123 128 0
138 140 0
134 137 0
137 142 0
139 146 0
140 145 0
139 143 0
136 144 0
149 159 0
147 153 0
138 146 0
126 130 0
140 149 0
137 145 0
141 150 0
138 148 0
150 157 0
145 157 0
151 164 0
146 155 0
149 159 0
148 159 0
144 152 0
145 159 0
139 151 0
149 164 0
154 168 0
153 168 0
136 145 0
142 153 0
150 168 0
146 162 0
146 164 0
145 163 0
155 173 0
148 166 0
143 162 0
138 153 0
150 167 0
145 163 0
147 163 0
149 165 0
139 155 0
139 155 0
142 159 0
137 153 0
132 148 0
135 149 0
143 159 0
131 146 0
139 155 0
132 147 0
143 160 0
136 151 0
136 150 0
130 143 0
126 140 0
129 143 0
131 144 0
124 138 0
144 159 0
124 137 0
129 142 0
132 147 0
123 136 0
127 141 0
125 138 0
114 127 0
132 145 0
124 137 0
133 148 0
131 144 0
124 137 0
121 133 0
125 137 0
128 141 0
118 130 0
129 142 0
126 138 0
110 121 0
120 132 0
122 134 0
116 127 0
122 134 0
120 133 0
118 130 0
124 136 0
117 127 0
111 123 0
109 120 0
115 126 0
109 121 0
125 139 0
104 115 0
113 124 0
113 124 0
116 128 0
121 133 0
115 127 0
134 147 0
112 125 0
109 120 0
113 125 0
115 127 0
105 116 0
114 128 0
114 127 0
128 140 0
120 132 0
122 135 0
120 133 0
116 128 0
115 127 0
117 131 0
117 131 0
119 130 0
106 119 0
120 134 0
117 131 0
123 138 0
120 134 0
122 136 0
116 129 0
127 141 0
115 126 0
118 132 0
116 131 0
121 136 0
123 138 0
119 130 0
121 135 0
121 136 0
115 127 0
125 141 0
128 142 0
125 141 0
125 141 0
111 125 0
130 145 0
130 146 0
134 151 0
133 150 0
123 136 0
128 144 0
104 118 0
140 157 0
142 160 0
130 147 0
125 140 0
120 137 0
125 142 0
123 142 0
114 130 0
122 139 0
108 121 0
132 149 0
122 137 0
127 144 0
130 147 0
106 121 0
104 118 0
124 141 0
117 132 0
124 140 0
127 143 0
124 140 0
127 144 0
131 146 0
126 141 0
133 150 0
117 132 0
126 144 0
127 144 0
126 142 0
139 158 0
138 155 0
120 137 0
118 135 0
130 147 0
126 141 0
128 146 0
128 144 0
127 145 0
133 150 0
131 150 0
117 133 0
125 142 0
132 149 0
128 145 0
138 156 0
126 143 0
131 149 0
121 138 0
119 137 0
144 164 0
130 148 0
131 148 0
125 143 0
119 135 0
115 131 0
123 139 0
112 127 0
118 135 0
115 133 0
124 140 0
101 117 0
122 139 0
124 140 0
123 140 0
118 133 0
126 144 0
120 137 0
121 138 0
115 131 0
128 147 0
122 138 0
122 137 0
116 132 0
124 138 0
120 135 0
126 141 0
117 133 0
118 133 0
124 141 0
113 128 0
122 139 0
115 130 0
125 140 0
103 118 0
112 127 0
111 125 0
111 124 0
120 138 0
124 140 0
123 140 0
112 126 0
126 144 0
124 140 0
119 137 0
115 129 0
101 116 0
110 123 0
121 137 0
107 120 0
128 146 0
109 121 0
111 123 0
104 118 0
125 144 0
127 144 0
127 144 0
117 130 0
119 132 0
126 143 0
130 147 0
125 141 0
113 127 0
120 136 0
119 134 0
112 125 0
113 125 0
126 142 0
112 125 0
109 123 0
107 120 0
131 146 0
118 132 0
115 128 0
126 144 0
112 127 0
127 142 0
123 139 0
126 142 0
128 142 0
118 132 0
129 145 0
133 149 0
127 141 0
125 142 0
117 129 0
128 142 0
127 142 0
108 116 0
137 153 0
121 134 0
109 122 0
134 151 0
123 138 0
123 132 0
129 144 0
115 126 0
131 145 0
134 146 0
118 127 0
118 127 0
131 146 0
119 130 0
131 142 0
128 143 0
122 137 0
128 140 0
124 138 0
127 139 0
133 146 0
134 143 0
115 123 0
135 145 0
125 136 0
126 135 0
124 132 0
126 136 0
119 130 0
121 135 0
115 125 0
127 140 0
119 129 0
117 126 0
126 140 0
126 136 0
132 142 0
121 128 0
139 148 0
113 123 0
111 116 0
138 148 0
134 145 0
119 127 0
119 124 0
132 140 0
133 143 0
121 127 0
114 117 0
117 122 0
112 119 0
122 129 0
115 119 0
118 123 0
127 129 0
142 149 0
133 139 0
117 119 0
125 130 0
122 125 0
115 115 0
129 136 0
125 125 0
112 113 0
121 124 0
130 134 0
121 121 0
119 116 0
114 115 0
105 102 0
109 106 0
113 112 0
123 124 0
109 103 0
130 130 0
118 121 0
105 100 0
126 125 0
114 113 0
119 118 0
124 124 0
115 115 0
106 97 0
123 126 0
115 114 0
127 131 0
105 102 0
115 112 0
108 106 0
125 126 0
122 121 0
127 126 0
118 117 0
114 113 0
111 104 0
110 110 0
112 108 0
122 119 0
108 103 0
122 121 0
109 104 0
126 128 0
122 121 0
139 142 0
119 118 0
121 123 0
123 124 0
121 119 0
126 124 0
122 125 0
136 141 0
142 149 0
126 132 0
129 127 0
135 138 0
128 126 0
126 127 0
120 118 0
121 117 0
134 135 0
154 162 0
127 130 0
135 137 0
131 134 0
134 139 0
137 142 0
134 143 0
133 142 0
145 150 0
136 137 0
138 147 0
140 150 0
139 147 0
128 127 0
147 154 0
141 151 0
148 162 0
148 159 0
145 155 0
128 135 0
147 156 0
146 155 0
142 152 0
136 141 0
140 152 0
151 161 0
144 154 0
143 160 0
149 167 0
151 169 0
150 169 0
148 166 0
156 174 0
137 153 0
148 165 0
132 147 0
150 166 0
141 159 0
149 167 0
142 159 0
148 166 0
136 152 0
147 164 0
151 168 0
137 154 0
131 147 0
141 156 0
134 149 0
135 151 0
136 151 0
147 164 0
133 148 0
146 162 0
138 153 0
129 144 0
133 148 0
137 152 0
135 150 0
131 144 0
118 131 0
128 143 0
124 136 0
136 150 0
130 145 0
118 132 0
120 132 0
118 131 0
125 138 0
122 135 0
132 146 0
140 154 0
131 144 0
134 148 0
119 132 0
134 148 0
108 119 0
112 124 0
108 120 0
116 128 0
119 131 0
124 138 0
131 144 0
115 127 0
118 129 0
131 144 0
125 137 0
128 140 0
109 120 0
108 119 0
123 135 0
130 143 0
123 135 0
120 133 0
121 133 0
130 143 0
113 125 0
115 127 0
119 131 0
112 124 0
126 140 0
124 137 0
121 134 0
123 136 0
124 137 0
120 133 0
111 122 0
123 136 0
119 132 0
133 148 0
113 127 0
124 138 0
119 131 0
127 139 0
124 138 0
123 137 0
128 143 0
129 144 0
131 146 0
118 133 0
120 133 0
107 120 0
135 151 0
119 134 0
129 146 0
133 149 0
126 141 0
129 147 0
128 144 0
116 131 0
111 124 0
128 141 0
133 148 0
134 152 0
129 146 0
117 133 0
122 139 0
120 135 0
119 134 0
117 131 0
131 148 0
126 142 0
118 134 0
123 139 0
132 147 0
121 136 0
131 148 0
138 156 0
126 144 0
139 157 0
133 151 0
122 137 0
131 148 0
128 146 0
134 150 0
124 140 0
122 136 0
134 152 0
130 147 0
132 150 0
125 143 0
125 142 0
125 142 0
123 137 0
130 146 0
124 141 0
133 149 0
116 130 0
133 153 0
130 147 0
133 151 0
114 129 0
123 139 0
113 127 0
124 141 0
120 138 0
135 154 0
119 136 0
119 135 0
116 132 0
134 151 0
111 126 0
110 125 0
133 150 0
135 154 0
126 144 0
129 145 0
116 133 0
125 144 0
113 129 0
126 145 0
126 143 0
131 149 0
139 157 0
111 126 0
139 157 0
120 135 0
126 145 0
117 134 0
126 142 0
130 147 0
126 142 0
119 134 0
121 136 0
110 125 0
113 131 0
119 137 0
121 139 0
109 124 0
121 137 0
118 133 0
108 125 0
118 134 0
108 124 0
123 142 0
113 127 0
111 125 0
118 134 0
117 133 0
119 133 0
118 134 0
120 138 0
121 139 0
113 129 0
131 147 0
115 131 0
117 132 0
122 138 0
114 130 0
121 136 0
114 130 0
123 141 0
126 142 0
115 130 0
125 143 0
105 119 0
115 133 0
113 128 0
132 147 0
101 116 0
119 134 0
119 132 0
111 127 0
117 130 0
103 118 0
118 133 0
112 127 0
115 130 0
107 122 0
104 119 0
131 147 0
103 116 0
123 138 0
129 144 0
125 141 0
117 132 0
132 149 0
135 151 0
127 142 0
125 140 0
118 134 0
111 126 0
123 139 0
119 136 0
115 128 0
118 135 0
130 147 0
119 135 0
118 132 0
125 143 0
123 136 0
131 146 0
116 128 0
121 136 0
115 130 0
122 136 0
118 131 0
118 130 0
129 145 0
124 136 0
126 141 0
135 152 0
118 129 0
134 149 0
124 135 0
117 131 0
110 120 0
114 127 0
112 123 0
114 128 0
129 143 0
132 145 0
132 147 0
132 141 0
114 129 0
113 125 0
133 148 0
120 132 0
129 141 0
126 140 0
135 149 0
128 138 0
136 147 0
130 141 0
129 141 0
127 137 0
135 147 0
127 133 0
115 129 0
125 133 0
122 131 0
134 146 0
122 132 0
118 130 0
126 134 0
128 140 0
140 150 0
122 131 0
128 138 0
125 137 0
118 124 0
125 137 0
118 125 0
124 134 0
116 124 0
133 143 0
123 130 0
128 138 0
114 118 0
122 129 0
130 139 0
125 131 0
135 147 0
119 126 0
121 125 0
124 129 0
127 131 0
115 121 0
121 126 0
129 135 0
114 118 0
112 115 0
115 118 0
124 133 0
123 126 0
120 122 0
115 114 0
124 128 0
128 131 0
117 114 0
129 133 0
118 118 0
118 119 0
116 115 0
126 131 0
118 120 0
117 120 0
103 99 0
120 121 0
117 118 0
130 134 0
123 125 0
135 134 0
114 111 0
122 121 0
118 117 0
112 106 0
128 124 0
122 119 0
123 121 0
114 113 0
131 135 0
107 108 0
119 119 0
119 122 0
118 117 0
122 120 0
125 125 0
127 124 0
122 121 0
121 120 0
127 126 0
111 107 0
126 125 0
121 114 0
123 125 0
122 118 0
130 131 0
135 137 0
117 117 0
128 131 0
132 135 0
144 147 0
135 137 0
126 128 0
138 142 0
143 147 0
147 153 0
135 141 0
132 139 0
145 152 0
131 131 0
137 144 0
133 138 0
139 142 0
146 156 0
153 159 0
139 147 0
139 145 0
145 155 0
141 152 0
138 143 0
145 158 0
145 152 0
133 144 0
138 142 0
132 136 0
148 159 0
137 148 0
141 150 0
143 153 0
152 165 0
139 147 0
142 153 0
147 158 0
152 164 0
143 154 0
147 160 0
146 164 0
140 158 0
145 162 0
140 156 0
144 161 0
141 158 0
137 153 0
147 166 0
140 157 0
138 155 0
152 169 0
140 157 0
146 163 0
140 157 0
130 144 0
149 166 0
148 163 0
138 154 0
131 146 0
129 142 0
121 134 0
137 152 0
131 146 0
139 154 0
136 151 0
140 156 0
116 130 0
135 150 0
145 162 0
134 147 0
130 144 0
123 136 0
134 149 0
119 132 0
130 145 0
120 132 0
127 141 0
112 123 0
125 138 0
132 146 0
129 141 0
112 124 0
126 139 0
119 130 0
122 135 0
125 138 0
129 142 0
129 142 0
127 141 0
117 128 0
105 116 0
132 145 0
127 140 0
119 131 0
123 135 0
111 122 0
132 145 0
117 129 0
117 129 0
119 131 0
121 133 0
122 135 0
126 139 0
111 123 0
123 135 0
124 139 0
122 135 0
117 130 0
124 137 0
103 115 0
108 118 0
122 134 0
126 140 0
109 119 0
108 119 0
109 121 0
119 132 0
136 150 0
113 125 0
123 138 0
118 130 0
120 133 0
116 128 0
125 139 0
122 136 0
126 141 0
124 138 0
109 122 0
117 131 0
125 139 0
128 143 0
128 141 0
121 136 0
127 142 0
123 137 0
115 129 0
119 132 0
119 133 0
119 135 0
128 142 0
128 144 0
127 143 0
124 139 0
119 132 0
129 144 0
122 138 0
124 139 0
141 159 0
127 144 0
124 141 0
127 143 0
120 137 0
132 149 0
125 142 0
131 147 0
137 153 0
118 135 0
123 139 0
137 156 0
134 151 0
132 150 0
125 142 0
125 142 0
137 153 0
123 138 0
128 144 0
124 141 0
116 132 0
119 135 0
133 152 0
128 145 0
108 123 0
134 150 0
128 145 0
130 147 0
120 136 0
129 146 0
117 134 0
126 143 0
140 160 0
120 137 0
123 138 0
127 145 0
117 132 0
125 140 0
130 148 0
131 151 0
129 145 0
134 152 0
126 144 0
143 162 0
125 141 0
127 144 0
112 128 0
133 151 0
127 146 0
125 142 0
127 144 0
115 129 0
132 150 0
116 132 0
112 127 0
129 147 0
111 127 0
116 132 0
129 147 0
116 134 0
128 146 0
125 140 0
127 145 0
126 144 0
125 139 0
113 130 0
120 137 0
124 142 0
133 150 0
119 135 0
119 135 0
106 125 0
133 149 0
115 130 0
115 131 0
123 139 0
118 135 0
125 142 0
118 135 0
110 126 0
117 132 0
141 160 0
107 122 0
123 138 0
128 144 0
117 134 0
125 142 0
134 153 0
113 129 0
114 130 0
129 146 0
125 144 0
119 135 0
109 122 0
107 123 0
118 135 0
110 124 0
116 131 0
128 145 0
119 132 0
123 140 0
111 125 0
124 141 0
125 141 0
111 127 0
129 142 0
120 136 0
121 135 0
116 130 0
100 112 0
126 142 0
124 142 0
111 126 0
116 131 0
132 149 0
125 142 0
114 130 0
122 136 0
129 145 0
116 130 0
115 131 0
124 139 0
115 132 0
101 115 0
129 145 0
118 133 0
130 146 0
123 136 0
113 127 0
125 138 0
122 139 0
122 138 0
128 146 0
131 147 0
118 135 0
113 127 0
114 130 0
130 145 0
124 142 0
135 151 0
130 145 0
123 139 0
122 135 0
121 134 0
124 142 0
133 149 0
130 145 0
131 148 0
132 149 0
123 137 0
136 151 0
124 135 0
127 142 0
127 142 0
130 144 0
126 138 0
131 148 0
110 118 0
133 146 0
131 145 0
114 128 0
130 142 0
135 152 0
128 142 0
120 132 0
107 112 0
123 136 0
140 152 0
122 132 0
132 144 0
127 140 0
148 165 0
113 124 0
140 150 0
128 139 0
125 133 0
121 131 0
118 124 0
119 125 0
119 130 0
131 143 0
127 136 0
121 131 0
119 131 0
126 135 0
120 128 0
116 126 0
114 123 0
116 125 0
118 126 0
132 139 0
136 147 0
129 141 0
122 130 0
138 148 0
124 134 0
125 132 0
142 154 0
130 139 0
120 126 0
124 129 0
128 137 0
117 123 0
126 133 0
125 129 0
131 137 0
134 142 0
125 127 0
124 131 0
125 129 0
125 130 0
124 129 0
134 139 0
112 114 0
116 114 0
122 125 0
121 124 0
116 121 0
118 117 0
138 141 0
120 122 0
119 119 0
116 114 0
119 119 0
129 131 0
118 117 0
122 121 0
126 130 0
115 113 0
125 130 0
117 113 0
121 119 0
117 112 0
118 115 0
133 135 0
131 134 0
130 131 0
122 123 0
112 109 0
130 131 0
125 123 0
121 120 0
122 125 0
127 127 0
120 122 0
119 120 0
131 133 0
121 120 0
118 117 0
117 115 0
131 134 0
131 136 0
131 136 0
116 115 0
119 114 0
121 117 0
129 131 0
131 131 0
118 117 0
136 137 0
146 155 0
130 129 0
131 138 0
136 142 0
130 131 0
132 136 0
135 138 0
131 137 0
144 148 0
134 137 0
129 130 0
124 128 0
150 162 0
130 137 0
130 135 0
133 141 0
140 146 0
139 148 0
143 155 0
139 142 0
147 153 0
135 138 0
146 156 0
130 137 0
148 156 0
150 162 0
154 164 0
149 158 0
150 160 0
137 149 0
144 151 0
142 151 0
146 158 0
146 165 0
155 173 0
141 157 0
155 173 0
138 153 0
138 155 0
147 164 0
151 169 0
140 157 0
139 156 0
144 162 0
148 166 0
135 152 0
140 156 0
147 163 0
140 156 0
141 157 0
144 160 0
133 148 0
144 159 0
142 157 0
147 163 0
138 153 0
134 150 0
144 159 0
131 146 0
138 154 0
133 148 0
128 141 0
122 135 0
128 141 0
144 159 0
139 153 0
132 148 0
123 136 0
138 152 0
130 144 0
133 147 0
132 146 0
126 141 0
127 142 0
129 142 0
119 133 0
129 143 0
129 142 0
107 121 0
127 140 0
132 144 0
122 135 0
124 138 0
126 139 0
129 142 0
124 138 0
124 137 0
125 137 0
113 124 0
119 132 0
131 145 0
122 134 0
123 137 0
125 139 0
120 132 0
124 137 0
116 130 0
119 133 0
121 134 0
127 141 0
111 123 0
123 135 0
116 126 0
119 133 0
119 132 0
116 129 0
112 125 0
112 125 0
125 140 0
121 135 0
113 125 0
127 141 0
127 142 0
119 134 0
123 136 0
133 147 0
125 139 0
122 137 0
115 128 0
117 130 0
119 131 0
122 135 0
125 139 0
129 145 0
124 139 0
130 146 0
141 158 0
126 140 0
118 133 0
125 140 0
120 136 0
113 128 0
122 136 0
116 129 0
127 142 0
122 136 0
127 143 0
133 148 0
126 141 0
121 137 0
130 145 0
133 148 0
137 155 0
130 146 0
140 156 0
128 145 0
130 147 0
128 145 0
119 136 0
130 142 0
122 141 0
126 142 0
130 147 0
128 144 0
123 140 0
125 141 0
111 126 0
123 139 0
129 146 0
134 152 0
126 144 0
133 152 0
125 139 0
130 148 0
121 137 0
128 145 0
129 146 0
124 140 0
146 167 0
129 145 0
142 160 0
112 129 0
131 149 0
127 143 0
119 135 0
128 144 0
125 142 0
128 146 0
132 150 0
124 143 0
128 143 0
123 140 0
118 135 0
128 147 0
129 147 0
119 135 0
131 147 0
125 142 0
128 146 0
129 146 0
120 139 0
116 133 0
124 141 0
125 142 0
119 135 0
131 148 0
128 146 0
115 130 0
125 143 0
127 145 0
132 150 0
136 153 0
116 131 0
114 130 0
115 131 0
123 140 0
113 130 0
116 131 0
124 142 0
122 138 0
125 141 0
120 137 0
133 153 0
124 142 0
127 143 0
130 146 0
112 127 0
123 139 0
108 125 0
125 143 0
121 138 0
127 144 0
123 140 0
136 155 0
119 136 0
117 131 0
123 138 0
114 131 0
113 129 0
126 142 0
118 133 0
120 137 0
120 133 0
118 134 0
111 127 0
128 147 0
118 134 0
128 141 0
118 135 0
131 149 0
116 130 0
125 141 0
111 126 0
124 141 0
113 129 0
124 142 0
117 130 0
125 140 0
131 150 0
123 138 0
107 118 0
123 140 0
117 132 0
125 139 0
131 149 0
129 145 0
125 140 0
113 127 0
94 108 0
128 144 0
109 122 0
139 157 0
131 150 0
117 129 0
124 140 0
122 137 0
106 120 0
119 134 0
124 142 0
126 140 0
104 119 0
122 138 0
116 131 0
111 124 0
132 148 0
140 157 0
146 165 0
118 133 0
111 121 0
131 146 0
130 145 0
133 148 0
129 141 0
122 138 0
114 125 0
122 137 0
118 133 0
120 133 0
143 160 0
133 147 0
136 151 0
109 116 0
116 128 0
135 150 0
132 145 0
126 141 0
126 137 0
131 145 0
125 141 0
134 147 0
121 130 0
122 131 0
118 130 0
126 141 0
122 132 0
117 130 0
135 145 0
138 151 0
99 107 0
116 124 0
134 148 0
136 149 0
122 135 0
127 138 0
134 151 0
135 150 0
129 140 0
113 123 0
129 142 0
129 143 0
121 130 0
138 153 0
121 131 0
117 125 0
135 146 0
121 126 0
134 147 0
122 131 0
136 152 0
122 127 0
127 135 0
123 133 0
124 135 0
114 121 0
117 122 0
135 147 0
132 144 0
131 140 0
122 129 0
134 145 0
118 121 0
112 115 0
128 133 0
119 123 0
126 132 0
131 140 0
121 127 0
123 127 0
131 142 0
134 140 0
129 136 0
116 116 0
128 134 0
124 129 0
122 127 0
126 130 0
128 129 0
117 118 0
123 129 0
126 129 0
116 116 0
119 122 0
129 131 0
125 126 0
127 127 0
124 124 0
129 134 0
124 123 0
122 122 0
115 116 0
124 123 0
123 126 0
122 124 0
119 121 0
127 128 0
116 116 0
126 130 0
123 124 0
124 122 0
120 122 0
138 140 0
138 142 0
130 138 0
117 114 0
115 111 0
126 124 0
125 125 0
115 115 0
127 128 0
125 125 0
124 125 0
126 132 0
116 116 0
120 119 0
132 135 0
119 120 0
130 132 0
137 140 0
132 140 0
129 134 0
130 131 0
133 135 0
126 126 0
140 142 0
137 139 0
138 144 0
135 142 0
138 143 0
146 154 0
135 140 0
149 151 0
140 149 0
145 154 0
131 138 0
144 152 0
138 142 0
136 137 0
130 136 0
133 140 0
142 151 0
144 154 0
142 149 0
143 150 0
140 148 0
152 163 0
142 154 0
150 163 0
135 142 0
142 152 0
145 154 0
142 154 0
138 149 0
156 169 0
155 174 0
143 160 0
133 149 0
145 163 0
139 155 0
146 164 0
145 162 0
138 154 0
141 155 0
144 159 0
149 166 0
139 154 0
131 147 0
144 161 0
144 160 0
124 138 0
130 145 0
146 162 0
147 164 0
137 152 0
139 154 0
139 153 0
116 129 0
125 140 0
133 149 0
134 148 0
135 149 0
133 148 0
125 139 0
137 152 0
141 156 0
122 136 0
133 148 0
127 143 0
126 140 0
131 144 0
136 149 0
131 144 0
132 146 0
122 135 0
128 142 0
131 144 0
129 142 0
125 138 0
119 132 0
116 128 0
133 145 0
112 125 0
130 144 0
123 136 0
124 136 0
121 135 0
126 140 0
116 128 0
132 146 0
119 130 0
129 142 0
125 137 0
127 140 0
141 154 0
125 138 0
118 130 0
107 120 0
121 135 0
111 124 0
129 143 0
120 132 0
125 139 0
136 151 0
118 132 0
113 126 0
129 145 0
128 141 0
124 138 0
122 136 0
127 141 0
125 140 0
124 138 0
127 140 0
121 135 0
112 125 0
134 150 0
128 144 0
117 131 0
130 144 0
127 142 0
124 139 0
109 122 0
139 154 0
126 139 0
132 148 0
122 138 0
132 147 0
131 147 0
124 139 0
138 155 0
130 146 0
129 143 0
108 122 0
138 156 0
131 149 0
130 145 0
123 137 0
119 135 0
126 142 0
131 149 0
129 145 0
141 157 0
138 153 0
134 152 0
128 144 0
141 158 0
135 151 0
134 152 0
120 135 0
131 148 0
141 158 0
132 151 0
124 139 0
121 136 0
129 145 0
133 152 0
129 146 0
124 139 0
131 148 0
123 139 0
141 159 0
139 157 0
121 139 0
123 142 0
130 148 0
130 147 0
129 146 0
130 148 0
128 145 0
116 132 0
111 126 0
128 146 0
128 145 0
117 133 0
143 161 0
117 135 0
122 140 0
123 141 0
119 136 0
127 143 0
131 149 0
125 142 0
125 141 0
121 138 0
124 140 0
126 143 0
122 140 0
131 148 0
131 147 0
134 152 0
118 136 0
133 152 0
128 146 0
119 136 0
127 143 0
114 130 0
112 129 0
117 132 0
117 134 0
135 153 0
107 122 0
115 133 0
111 127 0
128 146 0
121 137 0
121 138 0
132 149 0
109 126 0
120 137 0
117 135 0
131 148 0
108 123 0
117 133 0
135 152 0
123 140 0
113 130 0
120 136 0
116 132 0
111 126 0
123 140 0
122 137 0
113 129 0
128 143 0
91 106 0
114 129 0
113 127 0
129 148 0
120 135 0
117 133 0
118 134 0
129 147 0
115 130 0
120 137 0
109 123 0
125 142 0
130 148 0
115 133 0
121 136 0
117 136 0
104 118 0
103 118 0
121 136 0
117 133 0
113 128 0
125 141 0
124 139 0
132 148 0
116 131 0
125 143 0
124 140 0
132 148 0
119 134 0
120 132 0
130 146 0
132 149 0
112 128 0
123 138 0
133 149 0
135 151 0
121 133 0
111 126 0
120 138 0
134 153 0
126 141 0
130 147 0
129 144 0
127 143 0
118 134 0
112 127 0
126 142 0
124 139 0
122 138 0
128 144 0
122 139 0
135 151 0
127 144 0
127 143 0
124 139 0
122 137 0
117 131 0
116 130 0
132 145 0
114 127 0
125 137 0
116 130 0
114 128 0
106 122 0
138 155 0
118 133 0
132 147 0
136 150 0
124 140 0
129 144 0
129 143 0
132 145 0
136 152 0
130 146 0
136 151 0
126 142 0
124 137 0
126 138 0
122 136 0
130 145 0
121 132 0
138 153 0
119 133 0
131 143 0
124 137 0
131 143 0
113 123 0
128 136 0
122 134 0
127 141 0
127 142 0
137 151 0
122 136 0
138 154 0
127 140 0
118 130 0
122 128 0
135 146 0
137 148 0
127 138 0
132 142 0
124 134 0
142 155 0
134 148 0
111 117 0
130 142 0
116 126 0
133 143 0
142 152 0
110 117 0
136 146 0
130 136 0
113 122 0
131 140 0
132 144 0
122 132 0
135 146 0
129 139 0
125 134 0
125 131 0
135 140 0
130 137 0
118 125 0
127 133 0
134 142 0
127 132 0
129 136 0
135 145 0
126 131 0
121 126 0
120 122 0
121 129 0
127 132 0
131 138 0
120 122 0
118 122 0
117 122 0
137 146 0
117 115 0
137 141 0
138 146 0
122 124 0
117 119 0
124 124 0
118 118 0
129 129 0
127 130 0
130 133 0
128 132 0
125 129 0
134 143 0
121 124 0
124 123 0
130 128 0
124 125 0
120 120 0
126 125 0
125 126 0
122 121 0
129 131 0
131 131 0
124 123 0
128 130 0
127 133 0
120 120 0
102 98 0
124 128 0
132 133 0
126 129 0
148 153 0
126 128 0
129 131 0
127 129 0
128 129 0
133 134 0
137 138 0
129 131 0
129 131 0
133 137 0
123 128 0
127 132 0
128 130 0
126 127 0
125 126 0
123 123 0
136 139 0
137 142 0
136 138 0
136 143 0
145 152 0
141 150 0
145 153 0
131 133 0
145 155 0
141 149 0
144 154 0
132 138 0
148 158 0
140 146 0
152 165 0
133 140 0
140 143 0
132 137 0
145 155 0
147 158 0
141 153 0
143 152 0
151 164 0
145 155 0
144 151 0
138 150 0
136 153 0
143 161 0
140 157 0
147 163 0
140 157 0
129 143 0
155 173 0
128 142 0
149 165 0
137 153 0
146 163 0
135 152 0
136 150 0
135 152 0
139 155 0
135 151 0
130 144 0
134 150 0
127 141 0
137 151 0
136 151 0
133 148 0
135 149 0
136 152 0
137 153 0
134 148 0
134 149 0
138 155 0
132 146 0
138 152 0
124 138 0
132 147 0
138 153 0
130 142 0
125 138 0
137 151 0
134 148 0
137 151 0
134 149 0
128 142 0
125 139 0
135 150 0
137 152 0
118 130 0
124 138 0
132 145 0
130 145 0
133 147 0
126 139 0
117 129 0
137 153 0
132 146 0
126 139 0
124 137 0
121 134 0
128 142 0
123 136 0
119 132 0
112 124 0
133 146 0
121 135 0
133 148 0
119 131 0
119 132 0
135 150 0
129 144 0
111 124 0
124 138 0
124 138 0
118 133 0
125 139 0
123 136 0
115 127 0
131 146 0
133 149 0
126 139 0
138 154 0
126 141 0
126 141 0
134 151 0
135 151 0
137 153 0
138 154 0
139 155 0
134 150 0
133 149 0
140 158 0
123 138 0
137 153 0
133 149 0
126 141 0
119 134 0
123 138 0
129 146 0
125 139 0
124 138 0
115 129 0
124 139 0
140 156 0
132 149 0
140 157 0
134 151 0
132 149 0
123 139 0
134 151 0
120 135 0
112 128 0
144 163 0
126 142 0
129 144 0
133 150 0
134 151 0
138 156 0
129 144 0
129 146 0
121 136 0
138 157 0
133 151 0
127 142 0
126 144 0
130 146 0
119 133 0
125 142 0
122 136 0
122 138 0
136 153 0
131 149 0
130 148 0
115 131 0
133 151 0
126 141 0
132 147 0
129 148 0
136 155 0
129 146 0
128 143 0
131 150 0
131 149 0
107 123 0
138 157 0
133 150 0
115 130 0
126 143 0
121 138 0
134 153 0
124 139 0
115 132 0
121 136 0
126 144 0
120 137 0
141 157 0
128 146 0
125 143 0
133 152 0
127 145 0
123 139 0
137 155 0
125 142 0
129 146 0
130 149 0
124 139 0
135 154 0
129 147 0
118 135 0
129 147 0
135 153 0
131 150 0
135 154 0
138 157 0
118 135 0
128 146 0
126 145 0
126 142 0
118 135 0
124 140 0
133 152 0
123 138 0
104 121 0
140 157 0
128 144 0
130 146 0
128 143 0
119 135 0
136 155 0
139 158 0
120 137 0
122 138 0
116 132 0
120 135 0
120 137 0
115 130 0
119 137 0
124 139 0
139 158 0
128 147 0
122 137 0
110 127 0
123 137 0
125 142 0
130 148 0
119 137 0
115 133 0
125 142 0
115 132 0
117 133 0
123 140 0
125 142 0
121 136 0
115 132 0
127 145 0
113 128 0
107 122 0
126 144 0
126 144 0
115 128 0
108 121 0
119 132 0
118 132 0
126 144 0
128 145 0
113 131 0
127 143 0
104 117 0
124 141 0
119 135 0
119 132 0
143 158 0
132 151 0
131 150 0
136 153 0
126 143 0
135 153 0
129 143 0
126 143 0
127 143 0
118 133 0
124 139 0
133 149 0
122 138 0
121 137 0
126 141 0
142 158 0
136 151 0
126 142 0
130 145 0
130 147 0
125 137 0
139 155 0
131 146 0
123 133 0
140 153 0
131 145 0
124 140 0
119 133 0
125 139 0
123 136 0
127 143 0
131 144 0
118 132 0
128 143 0
131 146 0
119 133 0
119 132 0
125 139 0
110 122 0
124 138 0
124 135 0
132 148 0
127 141 0
135 150 0
137 153 0
134 147 0
115 126 0
125 139 0
123 134 0
131 142 0
131 144 0
130 144 0
122 134 0
131 138 0
133 144 0
135 147 0
137 150 0
128 142 0
137 153 0
133 145 0
127 136 0
131 143 0
140 152 0
127 140 0
137 150 0
120 128 0
127 139 0
130 140 0
115 124 0
134 145 0
130 141 0
136 151 0
123 133 0
126 137 0
120 127 0
129 140 0
139 152 0
126 132 0
132 140 0
124 130 0
126 133 0
124 132 0
137 149 0
126 132 0
129 137 0
132 142 0
129 135 0
127 134 0
124 129 0
137 143 0
130 137 0
118 125 0
107 109 0
117 124 0
130 138 0
124 130 0
139 147 0
125 130 0
122 123 0
131 134 0
119 122 0
120 126 0
129 135 0
131 130 0
138 137 0
132 135 0
118 120 0
118 118 0
124 128 0
115 116 0
138 145 0
114 114 0
145 150 0
130 133 0
134 140 0
112 108 0
118 117 0
129 130 0
124 124 0
122 118 0
118 121 0
126 126 0
120 120 0
115 117 0
122 122 0
113 112 0
128 130 0
125 124 0
126 127 0
129 130 0
125 128 0
135 135 0
143 149 0
130 134 0
119 116 0
141 144 0
141 144 0
122 120 0
128 131 0
124 125 0
132 134 0
132 138 0
141 147 0
138 139 0
136 136 0
140 145 0
140 143 0
144 147 0
126 129 0
130 136 0
133 139 0
149 154 0
128 128 0
142 145 0
137 146 0
122 125 0
142 148 0
149 156 0
133 140 0
141 146 0
132 135 0
143 149 0
139 143 0
137 141 0
129 133 0
143 149 0
137 143 0
144 150 0
146 156 0
146 157 0
141 147 0
151 165 0
143 152 0
145 158 0
136 152 0
152 171 0
146 164 0
150 168 0
144 161 0
136 151 0
147 163 0
146 164 0
141 158 0
151 168 0
140 156 0
144 162 0
148 166 0
133 147 0
135 150 0
130 144 0
129 144 0
131 146 0
133 146 0
137 152 0
141 156 0
137 153 0
140 155 0
132 146 0
147 162 0
133 147 0
127 141 0
119 133 0
136 151 0
141 156 0
134 149 0
130 145 0
139 152 0
128 141 0
133 147 0
114 126 0
128 141 0
133 147 0
118 131 0
120 132 0
125 138 0
131 144 0
129 141 0
119 132 0
125 137 0
131 145 0
120 132 0
124 138 0
126 139 0
130 145 0
137 151 0
119 132 0
125 137 0
124 137 0
121 135 0
126 141 0
133 147 0
120 133 0
142 158 0
127 141 0
128 142 0
129 144 0
125 138 0
117 129 0
125 139 0
126 139 0
124 139 0
116 130 0
118 132 0
126 139 0
114 128 0
124 139 0
131 145 0
134 150 0
122 136 0
131 148 0
109 121 0
115 129 0
120 136 0
122 136 0
127 144 0
138 155 0
131 146 0
125 139 0
120 135 0
128 143 0
129 144 0
146 163 0
134 150 0
128 144 0
109 122 0
118 133 0
126 144 0
108 122 0
127 142 0
137 154 0
125 140 0
145 162 0
134 151 0
122 138 0
133 148 0
140 157 0
133 148 0
134 149 0
135 150 0
125 141 0
132 149 0
126 142 0
124 140 0
137 153 0
132 150 0
109 124 0
142 162 0
124 139 0
132 149 0
133 149 0
130 147 0
132 151 0
133 149 0
146 165 0
140 157 0
138 154 0
137 158 0
130 147 0
127 142 0
131 149 0
106 120 0
130 145 0
133 150 0
130 147 0
123 140 0
127 144 0
132 149 0
122 139 0
142 162 0
126 145 0
123 141 0
123 139 0
130 148 0
122 139 0
120 138 0
134 151 0
130 148 0
136 153 0
126 143 0
122 139 0
122 140 0
125 141 0
121 137 0
137 155 0
129 146 0
128 145 0
138 157 0
126 142 0
123 141 0
122 138 0
121 135 0
130 148 0
135 154 0
131 148 0
131 148 0
128 146 0
130 151 0
131 148 0
129 147 0
136 155 0
129 146 0
134 151 0
122 138 0
129 147 0
121 138 0
125 142 0
121 135 0
134 152 0
130 148 0
125 142 0
124 143 0
131 147 0
123 140 0
141 158 0
119 135 0
113 128 0
104 121 0
123 137 0
133 151 0
134 153 0
108 124 0
112 127 0
112 129 0
132 148 0
130 148 0
117 132 0
115 131 0
124 142 0
116 133 0
123 140 0
119 136 0
113 127 0
120 137 0
129 147 0
131 147 0
123 138 0
124 143 0
118 135 0
123 140 0
117 132 0
128 145 0
113 129 0
109 124 0
126 142 0
118 134 0
122 140 0
117 132 0
133 149 0
123 138 0
118 134 0
115 130 0
121 137 0
134 152 0
132 149 0
137 157 0
116 132 0
120 135 0
117 133 0
118 134 0
120 136 0
110 124 0
114 126 0
130 147 0
128 143 0
123 137 0
126 143 0
135 151 0
129 145 0
124 137 0
118 129 0
133 150 0
125 141 0
132 149 0
122 136 0
128 144 0
141 157 0
132 148 0
126 141 0
129 145 0
129 142 0
119 133 0
133 149 0
133 150 0
133 146 0
126 143 0
124 139 0
129 146 0
122 138 0
137 149 0
128 142 0
129 146 0
132 148 0
146 164 0
125 139 0
125 142 0
140 156 0
128 140 0
132 147 0
129 143 0
134 148 0
135 151 0
120 133 0
111 128 0
131 144 0
135 147 0
143 155 0
116 127 0
133 148 0
140 156 0
136 145 0
132 143 0
134 149 0
134 149 0
128 143 0
134 149 0
133 146 0
132 147 0
133 147 0
133 144 0
121 134 0
127 139 0
124 132 0
128 139 0
139 147 0
124 137 0
141 149 0
133 146 0
136 149 0
138 148 0
126 137 0
123 133 0
131 143 0
119 132 0
116 124 0
122 127 0
142 155 0
117 122 0
132 144 0
125 133 0
126 134 0
130 141 0
137 146 0
123 132 0
129 136 0
133 141 0
112 122 0
122 132 0
131 142 0
130 140 0
136 142 0
121 128 0
138 146 0
122 124 0
132 140 0
118 118 0
117 124 0
122 126 0
124 128 0
124 132 0
132 139 0
119 119 0
119 124 0
121 125 0
130 136 0
126 131 0
125 129 0
117 121 0
127 130 0
126 130 0
131 137 0
124 125 0
118 120 0
129 135 0
134 135 0
113 116 0
120 120 0
130 132 0
124 125 0
132 134 0
139 145 0
120 124 0
131 133 0
133 138 0
117 119 0
128 129 0
124 125 0
122 125 0
126 130 0
143 149 0
130 129 0
115 113 0
134 133 0
126 125 0
142 148 0
115 116 0
133 136 0
132 137 0
139 142 0
120 121 0
120 120 0
132 133 0
129 131 0
134 137 0
130 135 0
131 136 0
121 123 0
140 145 0
131 136 0
143 149 0
141 148 0
145 150 0
131 135 0
141 145 0
141 145 0
138 142 0
137 141 0
139 146 0
139 143 0
142 150 0
134 138 0
132 134 0
143 151 0
141 150 0
137 145 0
135 144 0
136 142 0
135 144 0
140 146 0
142 150 0
136 143 0
143 152 0
148 160 0
152 164 0
140 147 0
144 161 0
154 171 0
150 167 0
143 159 0
144 162 0
141 158 0
142 159 0
148 166 0
144 162 0
141 158 0
137 153 0
128 142 0
130 145 0
146 162 0
139 156 0
137 152 0
135 150 0
148 163 0
137 152 0
139 155 0
126 139 0
139 155 0
123 136 0
133 149 0
127 141 0
132 147 0
140 155 0
145 161 0
128 142 0
132 147 0
131 145 0
137 152 0
123 138 0
149 164 0
131 145 0
143 158 0
132 146 0
137 152 0
128 142 0
116 130 0
140 155 0
135 149 0
122 135 0
133 148 0
137 152 0
128 142 0
124 138 0
131 146 0
120 135 0
114 128 0
125 141 0
128 142 0
123 137 0
139 154 0
119 132 0
134 147 0
121 136 0
116 130 0
132 146 0
135 150 0
129 143 0
131 146 0
130 144 0
130 144 0
120 134 0
118 131 0
128 143 0
117 131 0
127 143 0
120 134 0
126 141 0
133 147 0
111 125 0
134 149 0
128 143 0
119 132 0
119 133 0
130 147 0
122 136 0
130 146 0
128 144 0
132 149 0
131 146 0
122 137 0
132 148 0
133 149 0
136 153 0
132 147 0
130 146 0
135 151 0
138 155 0
139 156 0
137 155 0
134 151 0
128 144 0
114 128 0
123 137 0
131 149 0
129 145 0
136 152 0
125 143 0
128 144 0
119 135 0
130 149 0
124 140 0
132 150 0
128 144 0
130 146 0
136 153 0
138 153 0
129 145 0
138 156 0
134 150 0
127 143 0
115 132 0
125 139 0
137 156 0
141 160 0
136 154 0
126 144 0
149 168 0
129 145 0
134 152 0
130 147 0
120 136 0
129 145 0
122 138 0
120 135 0
128 146 0
118 135 0
138 156 0
129 146 0
132 151 0
118 135 0
131 148 0
142 161 0
125 139 0
135 152 0
120 138 0
119 137 0
124 140 0
131 149 0
116 132 0
121 138 0
134 151 0
131 150 0
133 153 0
130 148 0
128 146 0
135 154 0
129 144 0
134 151 0
121 136 0
128 142 0
130 147 0
132 147 0
135 155 0
138 154 0
130 146 0
135 153 0
134 153 0
121 138 0
129 147 0
130 147 0
135 153 0
137 157 0
135 152 0
127 143 0
128 145 0
118 135 0
134 150 0
142 162 0
139 157 0
130 151 0
121 138 0
119 137 0
132 150 0
128 147 0
137 157 0
109 127 0
127 146 0
134 149 0
139 159 0
115 131 0
118 133 0
123 139 0
120 138 0
105 121 0
119 136 0
124 139 0
135 154 0
126 143 0
116 129 0
127 144 0
120 133 0
100 114 0
117 133 0
127 145 0
132 152 0
121 137 0
122 139 0
120 136 0
131 147 0
119 136 0
119 134 0
113 130 0
119 136 0
123 141 0
137 154 0
117 133 0
115 131 0
117 134 0
115 129 0
116 132 0
119 137 0
133 151 0
121 139 0
110 126 0
125 143 0
132 149 0
123 140 0
116 131 0
141 159 0
128 142 0
124 140 0
121 139 0
110 125 0
124 140 0
121 139 0
124 139 0
126 139 0
128 146 0
125 141 0
136 154 0
131 147 0
134 151 0
125 142 0
126 138 0
124 139 0
134 151 0
127 142 0
127 143 0
128 143 0
136 152 0
122 138 0
119 133 0
128 145 0
138 155 0
124 138 0
133 149 0
138 152 0
120 133 0
129 143 0
129 145 0
134 149 0
124 140 0
120 135 0
117 131 0
129 142 0
120 133 0
135 149 0
119 132 0
129 143 0
136 152 0
131 148 0
134 150 0
115 125 0
124 135 0
123 139 0
129 141 0
129 143 0
137 155 0
132 148 0
135 148 0
121 132 0
141 155 0
123 136 0
132 147 0
126 138 0
129 142 0
137 148 0
127 136 0
122 133 0
128 142 0
128 138 0
136 148 0
116 126 0
131 143 0
137 147 0
117 128 0
132 143 0
118 128 0
132 144 0
123 136 0
124 134 0
134 148 0
138 150 0
129 143 0
115 123 0
128 137 0
130 144 0
127 139 0
126 133 0
128 136 0
139 151 0
122 130 0
120 128 0
123 134 0
121 131 0
129 138 0
138 149 0
132 142 0
129 139 0
127 137 0
128 136 0
135 144 0
138 148 0
136 148 0
133 142 0
127 130 0
138 146 0
110 118 0
127 133 0
127 130 0
127 133 0
123 126 0
138 145 0
119 125 0
118 123 0
122 126 0
129 130 0
131 136 0
136 142 0
126 130 0
123 123 0
135 143 0
125 125 0
131 134 0
140 151 0
128 134 0
127 130 0
139 144 0
130 133 0
124 129 0
132 135 0
115 114 0
135 144 0
112 109 0
129 130 0
119 122 0
120 118 0
134 136 0
130 133 0
128 136 0
141 147 0
120 118 0
135 138 0
136 141 0
121 124 0
124 126 0
122 123 0
132 133 0
126 127 0
121 123 0
125 123 0
122 124 0
137 143 0
123 123 0
138 143 0
127 130 0
133 140 0
123 131 0
129 129 0
126 128 0
124 127 0
126 129 0
129 136 0
142 149 0
140 143 0
135 139 0
140 144 0
133 139 0
136 139 0
128 134 0
153 161 0
148 156 0
142 152 0
136 144 0
137 144 0
135 142 0
125 129 0
131 139 0
142 152 0
138 144 0
134 143 0
138 145 0
144 153 0
139 146 0
131 139 0
146 154 0
149 166 0
143 160 0
151 168 0
139 157 0
143 160 0
139 155 0
147 164 0
135 151 0
142 158 0
142 158 0
128 142 0
137 153 0
145 161 0
145 162 0
138 154 0
140 156 0
147 162 0
152 169 0
134 149 0
121 135 0
137 153 0
131 147 0
131 146 0
141 156 0
139 154 0
141 157 0
139 155 0
143 160 0
136 151 0
131 145 0
134 148 0
134 148 0
137 152 0
127 141 0
136 151 0
134 148 0
137 152 0
144 161 0
132 147 0
121 135 0
128 141 0
132 148 0
125 138 0
127 141 0
139 154 0
130 144 0
122 135 0
129 144 0
131 145 0
120 133 0
121 135 0
119 134 0
126 141 0
122 135 0
118 131 0
126 140 0
128 143 0
114 127 0
127 142 0
124 139 0
135 150 0
128 143 0
127 142 0
120 134 0
137 153 0
124 137 0
135 149 0
139 154 0
127 143 0
147 162 0
132 147 0
128 143 0
135 152 0
128 142 0
131 146 0
139 155 0
122 137 0
114 128 0
133 147 0
128 143 0
132 149 0
125 141 0
129 145 0
136 152 0
121 136 0
133 148 0
119 134 0
132 147 0
135 151 0
129 144 0
134 147 0
130 146 0
137 154 0
134 151 0
133 151 0
126 141 0
129 145 0
121 134 0
132 148 0
127 142 0
133 150 0
131 147 0
138 154 0
128 145 0
140 158 0
138 155 0
134 152 0
131 148 0
133 150 0
143 161 0
131 149 0
139 157 0
137 155 0
124 141 0
139 157 0
129 147 0
127 145 0
125 143 0
143 162 0
125 141 0
119 136 0
136 153 0
127 144 0
136 154 0
136 154 0
130 147 0
133 151 0
118 134 0
141 160 0
118 134 0
130 148 0
135 154 0
123 140 0
123 140 0
139 157 0
136 154 0
136 153 0
119 136 0
140 160 0
140 157 0
132 147 0
113 130 0
120 139 0
126 142 0
128 146 0
124 137 0
125 141 0
139 156 0
131 149 0
134 152 0
132 150 0
141 161 0
144 163 0
126 142 0
117 132 0
122 139 0
121 138 0
118 135 0
131 149 0
121 137 0
112 127 0
129 147 0
118 137 0
126 144 0
125 144 0
133 151 0
124 142 0
134 151 0
132 150 0
129 147 0
120 140 0
120 137 0
133 152 0
122 136 0
132 150 0
129 145 0
123 139 0
131 149 0
125 144 0
134 149 0
123 139 0
131 149 0
130 145 0
121 136 0
128 146 0
124 142 0
127 145 0
129 149 0
127 145 0
123 140 0
119 135 0
106 122 0
111 127 0
129 146 0
135 155 0
104 118 0
117 132 0
116 132 0
132 151 0
124 143 0
106 122 0
107 120 0
113 129 0
134 153 0
117 135 0
130 147 0
123 139 0
126 143 0
109 126 0
120 135 0
126 142 0
119 137 0
127 144 0
118 133 0
126 143 0
116 132 0
115 130 0
119 136 0
127 144 0
118 131 0
126 142 0
122 136 0
141 158 0
130 146 0
130 148 0
126 141 0
113 129 0
124 142 0
124 139 0
128 144 0
111 127 0
133 151 0
134 151 0
132 148 0
106 116 0
132 146 0
114 127 0
127 145 0
139 154 0
114 128 0
132 144 0
129 145 0
124 139 0
129 144 0
144 159 0
122 138 0
128 144 0
139 158 0
122 136 0
124 137 0
134 149 0
129 145 0
130 147 0
113 124 0
120 134 0
139 157 0
126 139 0
121 138 0
126 135 0
112 126 0
129 144 0
128 143 0
123 138 0
135 151 0
118 133 0
133 151 0
120 134 0
128 138 0
129 144 0
109 119 0
131 147 0
125 138 0
124 138 0
128 139 0
131 143 0
124 136 0
140 153 0
122 132 0
140 155 0
127 138 0
109 118 0
135 149 0
132 145 0
130 141 0
132 145 0
134 148 0
122 135 0
131 146 0
119 129 0
136 147 0
149 164 0
132 147 0
122 130 0
130 139 0
121 131 0
133 145 0
127 136 0
126 137 0
135 151 0
127 137 0
138 151 0
135 147 0
138 147 0
124 134 0
126 134 0
139 149 0
132 146 0
118 120 0
124 136 0
137 147 0
133 146 0
126 133 0
123 131 0
139 150 0
128 138 0
125 136 0
121 128 0
121 126 0
131 141 0
139 148 0
126 137 0
122 123 0
131 139 0
127 134 0
127 134 0
135 144 0
121 126 0
129 134 0
138 142 0
134 141 0
134 142 0
140 149 0
118 122 0
140 146 0
134 140 0
122 128 0
128 132 0
134 138 0
128 131 0
137 141 0
120 126 0
130 134 0
129 135 0
133 141 0
121 125 0
122 125 0
124 127 0
122 123 0
123 128 0
117 118 0
124 127 0
127 129 0
122 121 0
133 139 0
142 149 0
127 133 0
124 128 0
126 127 0
131 135 0
114 114 0
126 128 0
127 129 0
137 146 0
136 141 0
136 141 0
132 135 0
141 146 0
120 122 0
132 137 0
137 140 0
144 149 0
128 131 0
138 144 0
128 133 0
134 138 0
133 137 0
134 138 0
134 137 0
126 129 0
135 143 0
135 141 0
138 145 0
143 151 0
133 139 0
134 138 0
137 141 0
137 137 0
138 145 0
134 139 0
138 143 0
148 155 0
135 141 0
145 155 0
146 157 0
130 135 0
134 139 0
130 134 0
141 148 0
136 145 0
149 162 0
143 159 0
147 165 0
138 154 0
135 149 0
150 166 0
141 157 0
139 155 0
136 153 0
139 155 0
146 163 0
147 162 0
142 158 0
141 158 0
141 156 0
134 148 0
144 161 0
139 155 0
138 153 0
143 160 0
135 151 0
136 151 0
132 147 0
137 152 0
125 139 0
129 144 0
135 150 0
142 158 0
132 146 0
121 135 0
134 149 0
137 152 0
127 142 0
131 147 0
127 141 0
127 143 0
131 145 0
129 144 0
133 148 0
113 126 0
135 151 0
131 146 0
133 147 0
138 155 0
122 136 0
132 147 0
130 145 0
132 146 0
122 136 0
135 148 0
127 140 0
133 148 0
134 149 0
130 146 0
128 144 0
105 117 0
122 136 0
110 123 0
127 142 0
133 147 0
131 145 0
114 127 0
123 138 0
133 148 0
119 134 0
129 145 0
134 149 0
142 158 0
135 150 0
127 142 0
135 150 0
133 149 0
133 147 0
134 149 0
120 136 0
136 151 0
134 149 0
114 127 0
125 142 0
130 144 0
125 140 0
126 141 0
131 146 0
141 159 0
132 150 0
123 137 0
126 141 0
123 137 0
134 151 0
136 153 0
135 153 0
130 146 0
134 151 0
126 142 0
135 150 0
125 142 0
118 133 0
125 139 0
141 159 0
130 146 0
138 156 0
140 157 0
123 140 0
126 142 0
128 144 0
128 146 0
129 146 0
136 155 0
129 145 0
130 147 0
117 133 0
132 150 0
131 149 0
137 155 0
128 145 0
136 152 0
133 150 0
131 147 0
132 149 0
130 147 0
143 161 0
130 148 0
124 141 0
123 141 0
139 156 0
132 149 0
136 155 0
119 135 0
126 142 0
137 155 0
129 147 0
123 140 0
132 150 0
125 141 0
129 146 0
130 148 0
126 143 0
128 145 0
128 145 0
131 149 0
118 135 0
131 148 0
131 149 0
131 147 0
124 142 0
137 156 0
120 137 0
124 140 0
128 147 0
132 152 0
135 154 0
128 147 0
122 141 0
127 144 0
129 145 0
131 150 0
120 137 0
134 150 0
135 153 0
125 143 0
116 133 0
128 146 0
126 143 0
123 141 0
125 143 0
127 145 0
133 149 0
125 144 0
119 134 0
132 148 0
120 137 0
124 143 0
127 144 0
130 148 0
120 138 0
128 146 0
135 155 0
123 139 0
130 149 0
128 147 0
135 153 0
130 147 0
121 136 0
139 158 0
122 138 0
124 141 0
125 140 0
131 146 0
131 147 0
125 142 0
128 144 0
121 139 0
125 142 0
125 141 0
134 151 0
126 141 0
124 142 0
121 137 0
121 138 0
118 135 0
109 125 0
121 138 0
123 140 0
116 133 0
121 137 0
125 143 0
123 140 0
131 148 0
121 138 0
135 151 0
124 139 0
114 128 0
107 117 0
124 138 0
123 141 0
136 154 0
121 138 0
114 128 0
126 144 0
114 130 0
133 150 0
120 137 0
119 133 0
121 137 0
135 152 0
133 150 0
123 138 0
126 145 0
111 127 0
117 133 0
137 155 0
135 153 0
135 152 0
121 139 0
128 143 0
125 142 0
122 138 0
120 136 0
129 145 0
129 144 0
138 155 0
135 153 0
130 147 0
133 149 0
129 147 0
127 143 0
145 164 0
127 143 0
128 143 0
123 137 0
134 152 0
123 139 0
123 138 0
134 151 0
132 148 0
134 147 0
135 153 0
130 144 0
107 117 0
131 146 0
129 142 0
123 138 0
125 139 0
137 154 0
139 155 0
130 145 0
137 152 0
130 146 0
139 154 0
125 137 0
138 155 0
124 139 0
136 153 0
133 146 0
121 133 0
120 132 0
138 154 0
134 148 0
135 147 0
135 147 0
110 124 0
127 145 0
126 138 0
137 149 0
130 144 0
138 152 0
131 145 0
113 124 0
128 141 0
134 148 0
129 140 0
127 142 0
132 146 0
121 129 0
132 140 0
126 137 0
133 144 0
128 138 0
135 146 0
147 162 0
131 139 0
132 143 0
119 129 0
124 135 0
122 131 0
148 161 0
124 133 0
131 141 0
139 150 0
138 148 0
138 151 0
110 119 0
111 114 0
131 138 0
140 151 0
138 146 0
133 141 0
133 138 0
136 149 0
129 138 0
123 133 0
130 135 0
133 143 0
130 138 0
125 135 0
134 142 0
127 130 0
128 138 0
138 146 0
128 136 0
128 134 0
129 135 0
125 131 0
133 141 0
142 147 0
131 138 0
127 130 0
140 149 0
134 142 0
135 139 0
127 133 0
128 133 0
134 140 0
125 127 0
122 124 0
130 135 0
125 128 0
135 141 0
123 129 0
126 128 0
132 136 0
132 135 0
132 140 0
123 129 0
117 121 0
136 136 0
133 139 0
136 142 0
123 125 0
108 106 0
130 133 0
132 133 0
131 132 0
127 129 0
123 127 0
125 125 0
137 143 0
127 131 0
134 140 0
136 141 0
142 146 0
134 133 0
133 134 0
126 129 0
136 142 0
136 141 0
123 123 0
146 155 0
126 127 0
129 131 0
141 148 0
138 146 0
131 136 0
123 124 0
127 130 0
139 145 0
145 155 0
136 141 0
151 164 0
142 150 0
145 152 0
143 153 0
146 157 0
137 146 0
144 150 0
139 142 0
137 147 0
140 147 0
138 146 0
146 153 0
147 156 0
136 152 0
135 150 0
137 154 0
151 168 0
155 174 0
137 153 0
139 156 0
146 163 0
131 145 0
142 158 0
146 162 0
132 147 0
145 162 0
136 152 0
135 151 0
142 157 0
134 151 0
138 153 0
122 136 0
141 157 0
136 152 0
134 150 0
131 145 0
138 153 0
128 143 0
140 156 0
135 151 0
136 151 0
135 150 0
136 151 0
137 151 0
133 148 0
120 134 0
134 148 0
132 145 0
131 146 0
143 159 0
139 154 0
122 135 0
128 142 0
125 140 0
133 149 0
138 153 0
140 157 0
138 153 0
136 151 0
131 146 0
125 142 0
128 142 0
130 143 0
128 144 0
138 154 0
136 152 0
143 160 0
123 137 0
135 150 0
126 141 0
136 153 0
125 139 0
115 129 0
131 146 0
135 150 0
138 152 0
126 142 0
126 143 0
124 137 0
137 153 0
127 143 0
137 153 0
129 143 0
123 138 0
120 135 0
135 152 0
126 141 0
129 145 0
127 142 0
134 151 0
127 141 0
132 150 0
138 156 0
129 143 0
124 139 0
115 130 0
132 148 0
127 143 0
134 152 0
130 147 0
130 146 0
140 157 0
137 154 0
139 156 0
122 139 0
123 139 0
130 146 0
138 155 0
131 149 0
129 146 0
139 157 0
132 150 0
139 155 0
143 161 0
122 139 0
132 147 0
127 143 0
136 154 0
131 149 0
126 142 0
137 156 0
134 152 0
126 145 0
140 159 0
131 149 0
131 147 0
131 150 0
139 155 0
120 137 0
136 153 0
138 157 0
130 148 0
128 146 0
129 146 0
127 145 0
132 150 0
139 157 0
135 153 0
135 155 0
126 142 0
126 144 0
117 135 0
121 137 0
129 145 0
125 141 0
138 158 0
121 138 0
132 150 0
121 137 0
123 141 0
135 153 0
118 134 0
125 141 0
124 143 0
114 128 0
124 141 0
111 128 0
125 143 0
144 162 0
136 153 0
131 148 0
134 151 0
131 149 0
139 158 0
137 155 0
132 150 0
136 154 0
122 139 0
131 148 0
137 155 0
138 156 0
130 148 0
111 128 0
118 133 0
119 135 0
128 144 0
129 149 0
131 149 0
122 139 0
130 150 0
119 138 0
122 138 0
126 146 0
126 144 0
131 150 0
120 136 0
135 155 0
118 135 0
132 148 0
131 149 0
128 146 0
132 151 0
137 156 0
120 137 0
131 149 0
124 141 0
134 152 0
123 140 0
118 135 0
112 129 0
119 135 0
129 145 0
128 148 0
129 148 0
131 146 0
114 130 0
116 133 0
130 148 0
117 133 0
129 146 0
121 136 0
125 142 0
132 150 0
132 148 0
124 142 0
117 134 0
135 153 0
130 146 0
131 148 0
121 139 0
132 148 0
118 131 0
120 136 0
124 141 0
124 140 0
121 136 0
121 137 0
124 142 0
114 132 0
140 160 0
116 133 0
135 152 0
140 155 0
128 143 0
136 153 0
135 151 0
129 146 0
133 150 0
118 135 0
122 138 0
122 136 0
133 152 0
131 149 0
131 148 0
132 148 0
122 137 0
132 149 0
131 147 0
143 160 0
128 147 0
131 149 0
118 134 0
127 142 0
124 137 0
142 160 0
125 140 0
129 145 0
129 147 0
132 150 0
124 136 0
120 136 0
135 145 0
120 136 0
130 145 0
126 142 0
129 142 0
126 143 0
127 145 0
134 149 0
133 149 0
120 133 0
143 159 0
133 148 0
133 149 0
133 147 0
131 145 0
138 154 0
131 146 0
130 143 0
134 147 0
135 151 0
141 153 0
143 157 0
134 147 0
130 143 0
129 141 0
130 140 0
133 146 0
129 146 0
135 150 0
128 144 0
138 150 0
130 144 0
140 154 0
137 152 0
142 157 0
126 140 0
132 143 0
136 152 0
138 153 0
132 147 0
131 145 0
114 125 0
125 138 0
132 147 0
139 150 0
143 159 0
139 155 0
129 141 0
130 138 0
122 132 0
141 153 0
118 129 0
142 155 0
142 154 0
143 156 0
133 144 0
124 136 0
133 148 0
122 133 0
134 145 0
128 138 0
137 152 0
138 148 0
119 125 0
127 137 0
127 134 0
137 148 0
129 140 0
134 144 0
123 133 0
129 142 0
135 147 0
114 122 0
138 149 0
124 132 0
136 149 0
127 137 0
134 142 0
134 139 0
121 130 0
128 134 0
141 152 0
118 125 0
126 131 0
120 124 0
133 136 0
130 137 0
122 129 0
137 147 0
133 138 0
140 149 0
127 128 0
124 127 0
116 115 0
127 127 0
136 142 0
137 144 0
128 134 0
130 135 0
134 140 0
135 143 0
129 133 0
132 141 0
138 145 0
129 133 0
144 150 0
138 145 0
138 143 0
119 122 0
124 129 0
138 147 0
138 140 0
139 143 0
133 138 0
131 135 0
131 138 0
139 147 0
123 122 0
133 137 0
128 132 0
129 132 0
146 157 0
145 151 0
129 132 0
138 144 0
131 134 0
135 138 0
133 137 0
137 142 0
148 153 0
149 158 0
136 143 0
138 146 0
139 148 0
137 141 0
131 131 0
137 141 0
144 151 0
139 146 0
134 137 0
127 128 0
136 144 0
139 146 0
134 137 0
140 149 0
143 149 0
135 137 0
144 155 0
147 155 0
144 153 0
148 162 0
140 150 0
138 154 0
145 161 0
145 161 0
143 160 0
142 158 0
143 160 0
151 168 0
136 152 0
148 166 0
130 143 0
142 159 0
147 163 0
137 153 0
136 152 0
149 166 0
133 147 0
140 156 0
136 150 0
134 150 0
141 157 0
135 151 0
138 154 0
140 154 0
136 152 0
144 160 0
133 148 0
128 142 0
140 155 0
132 147 0
132 147 0
133 148 0
124 138 0
140 156 0
138 152 0
139 154 0
142 157 0
134 150 0
123 137 0
132 147 0
135 151 0
126 141 0
133 148 0
130 144 0
128 143 0
131 145 0
128 140 0
139 156 0
140 156 0
132 146 0
139 155 0
112 123 0
116 130 0
130 143 0
137 153 0
130 145 0
130 145 0
133 148 0
123 138 0
137 155 0
128 143 0
122 137 0
114 128 0
136 152 0
132 148 0
145 162 0
129 146 0
138 153 0
134 151 0
127 144 0
137 154 0
136 151 0
123 137 0
138 153 0
134 150 0
132 147 0
131 147 0
126 143 0
127 143 0
142 159 0
122 137 0
139 156 0
132 148 0
128 143 0
133 150 0
138 154 0
129 145 0
138 156 0
132 148 0
132 149 0
135 152 0
114 129 0
129 145 0
139 156 0
138 155 0
128 144 0
130 145 0
127 143 0
129 147 0
140 157 0
135 153 0
131 149 0
128 145 0
139 156 0
131 149 0
141 160 0
131 149 0
127 144 0
130 148 0
125 142 0
123 139 0
135 151 0
131 150 0
136 152 0
125 141 0
126 142 0
125 141 0
136 154 0
137 154 0
117 133 0
139 156 0
125 140 0
134 152 0
134 154 0
121 137 0
125 142 0
134 152 0
135 153 0
135 155 0
125 141 0
133 151 0
147 166 0
131 150 0
131 148 0
140 158 0
134 150 0
135 153 0
130 149 0
129 146 0
127 142 0
134 153 0
147 169 0
122 138 0
123 141 0
142 160 0
123 142 0
127 145 0
115 132 0
112 128 0
137 157 0
138 155 0
133 151 0
132 151 0
137 154 0
132 148 0
123 140 0
122 139 0
136 156 0
131 149 0
128 146 0
131 148 0
121 137 0
127 146 0
127 144 0
137 155 0
135 154 0
117 134 0
125 143 0
132 151 0
118 135 0
119 137 0
129 147 0
122 139 0
116 132 0
127 144 0
125 141 0
130 148 0
126 143 0
107 124 0
125 142 0
130 145 0
142 161 0
128 146 0
123 139 0
129 147 0
125 141 0
140 158 0
111 125 0
137 156 0
140 159 0
123 142 0
134 151 0
131 150 0
119 136 0
123 141 0
117 132 0
101 117 0
138 155 0
126 143 0
132 149 0
125 143 0
135 153 0
116 133 0
125 142 0
123 141 0
128 145 0
114 128 0
120 138 0
122 140 0
136 155 0
126 142 0
126 141 0
136 156 0
131 148 0
122 139 0
121 137 0
115 129 0
133 152 0
121 135 0
121 137 0
125 139 0
128 145 0
129 148 0
125 141 0
134 151 0
119 135 0
147 167 0
127 146 0
119 137 0
119 135 0
132 153 0
128 145 0
105 121 0
125 142 0
136 153 0
114 130 0
119 135 0
130 147 0
141 157 0
130 147 0
131 145 0
124 141 0
132 148 0
144 162 0
121 136 0
119 133 0
129 142 0
139 157 0
133 147 0
132 149 0
118 132 0
131 148 0
131 147 0
133 150 0
138 154 0
135 151 0
134 150 0
125 143 0
136 152 0
126 140 0
127 140 0
128 142 0
124 137 0
128 144 0
137 153 0
136 154 0
131 144 0
140 153 0
130 145 0
127 141 0
127 138 0
117 129 0
144 160 0
139 154 0
131 144 0
132 148 0
137 155 0
130 146 0
133 146 0
133 146 0
132 145 0
132 140 0
112 124 0
124 137 0
136 150 0
117 128 0
130 142 0
128 144 0
128 138 0
134 147 0
131 142 0
123 132 0
133 147 0
134 146 0
129 141 0
135 148 0
126 139 0
119 129 0
129 143 0
133 145 0
128 142 0
136 141 0
134 145 0
119 125 0
137 148 0
126 133 0
140 153 0
129 138 0
120 132 0
126 134 0
144 158 0
134 145 0
144 156 0
126 134 0
138 151 0
131 142 0
128 137 0
138 147 0
141 150 0
144 156 0
137 147 0
128 136 0
129 138 0
125 132 0
127 133 0
144 157 0
132 139 0
134 143 0
135 143 0
134 146 0
134 137 0
123 134 0
128 134 0
132 138 0
131 140 0
129 135 0
134 146 0
133 140 0
135 144 0
140 148 0
127 132 0
127 135 0
138 149 0
137 146 0
132 138 0
130 138 0
130 136 0
134 139 0
132 140 0
124 130 0
133 137 0
139 145 0
130 139 0
132 136 0
117 121 0
132 138 0
132 139 0
132 136 0
129 133 0
127 128 0
109 110 0
140 144 0
134 137 0
121 123 0
139 147 0
134 141 0
134 141 0
130 136 0
124 128 0
144 154 0
142 151 0
127 128 0
131 131 0
137 142 0
120 126 0
144 150 0
138 142 0
143 146 0
130 137 0
151 161 0
132 136 0
137 144 0
140 142 0
132 140 0
145 154 0
146 157 0
124 126 0
130 132 0
143 149 0
144 153 0
138 148 0
135 141 0
140 149 0
146 157 0
128 136 0
147 155 0
149 159 0
147 153 0
132 138 0
155 166 0
146 156 0
155 173 0
133 151 0
132 148 0
141 157 0
143 159 0
137 153 0
143 158 0
148 165 0
126 141 0
145 161 0
136 151 0
131 147 0
136 152 0
126 141 0
134 150 0
149 165 0
144 161 0
149 167 0
137 151 0
138 154 0
152 168 0
127 142 0
129 144 0
125 139 0
141 158 0
129 144 0
140 155 0
142 159 0
139 154 0
134 150 0
120 133 0
127 143 0
139 156 0
130 145 0
138 153 0
139 154 0
140 157 0
133 148 0
130 144 0
126 140 0
131 146 0
133 148 0
142 158 0
137 152 0
130 144 0
125 136 0
125 138 0
131 146 0
138 153 0
130 146 0
139 157 0
139 155 0
141 158 0
132 147 0
130 144 0
134 150 0
119 133 0
131 147 0
123 138 0
124 138 0
131 148 0
128 143 0
145 162 0
142 160 0
132 148 0
120 133 0
142 158 0
141 159 0
128 144 0
128 143 0
128 143 0
137 154 0
131 145 0
131 146 0
123 138 0
134 151 0
129 146 0
131 148 0
137 155 0
140 157 0
122 137 0
124 141 0
128 143 0
132 150 0
130 144 0
134 152 0
131 149 0
131 147 0
118 133 0
143 160 0
136 154 0
148 167 0
142 161 0
134 153 0
124 141 0
136 152 0
120 136 0
144 163 0
139 156 0
123 139 0
132 150 0
126 144 0
136 153 0
132 150 0
137 154 0
130 146 0
123 140 0
129 147 0
137 155 0
125 142 0
122 139 0
129 145 0
139 157 0
133 152 0
132 150 0
135 152 0
124 141 0
128 145 0
134 151 0
129 145 0
126 144 0
133 149 0
126 142 0
130 148 0
140 160 0
142 162 0
118 133 0
128 143 0
134 152 0
135 152 0
132 149 0
128 145 0
140 156 0
133 150 0
133 149 0
137 155 0
110 125 0
120 139 0
145 163 0
135 152 0
133 150 0
129 148 0
128 146 0
127 145 0
133 151 0
121 140 0
134 153 0
131 149 0
138 156 0
124 142 0
124 141 0
131 148 0
137 156 0
138 156 0
133 149 0
126 146 0
130 150 0
129 147 0
131 150 0
123 141 0
137 156 0
113 129 0
138 156 0
124 141 0
127 146 0
131 148 0
121 137 0
129 148 0
123 140 0
122 140 0
130 147 0
115 132 0
124 141 0
137 154 0
128 147 0
126 142 0
134 153 0
124 143 0
117 135 0
121 135 0
135 152 0
134 152 0
137 155 0
118 136 0
132 151 0
118 134 0
133 150 0
127 142 0
141 163 0
128 144 0
120 135 0
123 138 0
113 127 0
129 147 0
133 148 0
114 131 0
125 144 0
128 145 0
122 139 0
130 148 0
123 140 0
140 158 0
120 137 0
124 140 0
131 150 0
120 137 0
127 144 0
127 141 0
125 140 0
124 139 0
122 138 0
114 130 0
129 145 0
122 138 0
127 144 0
123 139 0
102 116 0
131 148 0
117 134 0
128 144 0
127 143 0
130 148 0
133 150 0
127 144 0
126 140 0
123 139 0
135 154 0
127 140 0
135 153 0
119 134 0
114 128 0
139 157 0
130 147 0
130 148 0
129 145 0
137 155 0
142 158 0
142 160 0
122 136 0
126 141 0
132 148 0
130 146 0
137 153 0
130 149 0
134 150 0
133 147 0
112 125 0
134 152 0
143 161 0
133 149 0
131 147 0
124 138 0
134 151 0
135 150 0
126 141 0
124 140 0
119 131 0
132 148 0
130 143 0
129 144 0
150 167 0
127 144 0
128 140 0
138 153 0
141 159 0
132 146 0
112 126 0
137 154 0
132 146 0
133 149 0
127 142 0
141 159 0
131 144 0
122 136 0
123 135 0
146 161 0
121 130 0
124 138 0
142 158 0
143 156 0
129 143 0
140 156 0
133 148 0
141 157 0
130 143 0
133 145 0
132 146 0
133 145 0
134 146 0
135 148 0
144 160 0
146 158 0
129 139 0
147 161 0
139 155 0
131 141 0
142 158 0
144 157 0
132 144 0
123 134 0
136 151 0
137 152 0
132 140 0
141 158 0
143 154 0
130 141 0
139 153 0
128 140 0
123 130 0
127 139 0
133 143 0
138 148 0
126 134 0
123 130 0
140 150 0
143 157 0
138 152 0
133 144 0
136 143 0
131 139 0
138 150 0
131 141 0
143 155 0
115 124 0
137 145 0
127 134 0
135 146 0
117 124 0
129 137 0
138 146 0
137 148 0
129 135 0
130 130 0
133 138 0
135 143 0
132 136 0
131 138 0
132 138 0
128 134 0
136 145 0
129 134 0
120 125 0
127 134 0
146 155 0
139 148 0
134 139 0
130 135 0
129 137 0
127 133 0
126 129 0
134 139 0
142 151 0
141 150 0
131 141 0
131 135 0
128 133 0
134 139 0
136 140 0
131 138 0
137 143 0
128 127 0
134 140 0
138 144 0
122 130 0
131 137 0
133 135 0
146 157 0
137 142 0
137 140 0
123 129 0
123 125 0
140 147 0
141 148 0
126 131 0
147 153 0
135 140 0
139 146 0
118 118 0
142 147 0
138 141 0
134 141 0
135 140 0
137 143 0
139 146 0
127 132 0
144 153 0
143 151 0
123 132 0
151 162 0
137 144 0
136 144 0
132 139 0
134 137 0
135 142 0
142 152 0
135 141 0
145 157 0
144 153 0
136 146 0
133 140 0
148 166 0
131 147 0
136 152 0
144 161 0
144 161 0
148 164 0
136 153 0
131 147 0
129 143 0
150 168 0
133 148 0
136 152 0
127 143 0
154 172 0
137 154 0
148 164 0
136 152 0
134 150 0
139 155 0
130 145 0
145 160 0
149 165 0
141 157 0
136 151 0
135 150 0
144 161 0
140 156 0
128 142 0
129 144 0
131 146 0
130 145 0
134 148 0
139 154 0
136 154 0
123 136 0
134 150 0
129 145 0
136 151 0
133 149 0
135 151 0
133 148 0
130 144 0
139 154 0
121 134 0
134 148 0
138 153 0
132 149 0
129 146 0
132 147 0
125 139 0
146 163 0
127 143 0
133 149 0
139 157 0
136 152 0
136 152 0
144 162 0
129 145 0
128 142 0
122 137 0
139 154 0
133 148 0
135 153 0
139 153 0
132 149 0
127 141 0
128 144 0
130 144 0
140 157 0
138 156 0
121 137 0
124 140 0
120 137 0
137 154 0
128 144 0
132 148 0
127 142 0
131 147 0
138 155 0
138 154 0
131 147 0
132 149 0
138 155 0
137 153 0
132 150 0
135 151 0
136 154 0
125 142 0
126 144 0
136 152 0
128 144 0
130 147 0
137 155 0
133 150 0
132 149 0
132 148 0
144 163 0
137 153 0
129 144 0
135 151 0
126 143 0
133 150 0
130 148 0
130 148 0
142 161 0
132 151 0
137 155 0
120 137 0
135 153 0
130 147 0
132 148 0
126 143 0
138 157 0
130 146 0
136 155 0
143 162 0
140 159 0
117 134 0
126 141 0
133 149 0
132 148 0
136 154 0
144 163 0
133 151 0
127 144 0
133 151 0
135 152 0
132 152 0
133 153 0
137 155 0
131 149 0
137 157 0
130 146 0
134 154 0
137 155 0
129 148 0
131 149 0
137 156 0
130 147 0
127 146 0
118 134 0
122 138 0
134 154 0
129 145 0
120 138 0
136 153 0
133 151 0
133 150 0
124 141 0
131 150 0
114 130 0
126 144 0
130 147 0
138 157 0
132 148 0
142 160 0
139 159 0
126 142 0
136 156 0
123 140 0
143 163 0
118 133 0
131 150 0
126 142 0
141 159 0
139 155 0
129 148 0
142 162 0
126 143 0
138 157 0
128 145 0
115 131 0
132 149 0
136 154 0
128 145 0
119 136 0
133 150 0
124 143 0
133 150 0
125 141 0
120 136 0
131 149 0
125 142 0
139 157 0
121 137 0
138 157 0
136 154 0
134 153 0
123 140 0
120 139 0
127 142 0
125 140 0
132 150 0
118 137 0
120 137 0
118 137 0
125 143 0
124 141 0
106 120 0
124 141 0
126 143 0
131 148 0
123 139 0
123 138 0
133 151 0
116 132 0
138 157 0
120 137 0
129 146 0
112 128 0
124 143 0
131 150 0
133 150 0
115 131 0
123 142 0
128 144 0
133 151 0
116 128 0
135 154 0
127 140 0
128 145 0
130 146 0
134 152 0
113 125 0
134 148 0
136 152 0
130 145 0
135 154 0
129 146 0
128 148 0
131 150 0
143 161 0
127 145 0
128 142 0
126 141 0
131 149 0
127 145 0
132 148 0
125 143 0
132 147 0
128 143 0
125 143 0
135 150 0
131 145 0
133 146 0
135 155 0
133 150 0
122 137 0
133 147 0
135 152 0
122 136 0
125 141 0
129 145 0
126 140 0
123 139 0
135 152 0
130 146 0
134 147 0
130 148 0
129 145 0
126 142 0
143 160 0
135 150 0
140 157 0
115 130 0
128 142 0
125 142 0
131 147 0
134 149 0
149 167 0
123 139 0
139 154 0
140 156 0
136 152 0
134 147 0
136 150 0
132 147 0
145 158 0
128 138 0
137 151 0
139 152 0
141 158 0
114 126 0
141 155 0
137 150 0
129 143 0
118 126 0
128 144 0
139 155 0
118 131 0
152 166 0
138 154 0
136 148 0
139 153 0
121 133 0
123 133 0
146 162 0
140 156 0
142 155 0
138 151 0
144 158 0
140 155 0
135 148 0
128 141 0
136 151 0
134 145 0
136 145 0
134 147 0
133 142 0
130 141 0
128 142 0
143 155 0
139 149 0
129 142 0
133 144 0
132 145 0
125 131 0
134 144 0
140 154 0
131 143 0
135 146 0
123 131 0
148 164 0
133 143 0
139 148 0
131 140 0
135 141 0
145 158 0
139 151 0
127 136 0
120 130 0
139 145 0
140 150 0
130 139 0
128 137 0
142 153 0
128 135 0
129 134 0
141 151 0
126 135 0
132 142 0
134 140 0
131 138 0
128 137 0
126 131 0
129 135 0
131 138 0
130 137 0
143 155 0
128 136 0
131 137 0
139 146 0
134 141 0
140 144 0
134 138 0
133 140 0
132 137 0
126 134 0
133 143 0
134 144 0
132 141 0
127 129 0
138 145 0
134 139 0
132 141 0
134 143 0
133 136 0
135 140 0
142 149 0
134 142 0
126 132 0
137 143 0
132 135 0
133 136 0
136 142 0
129 135 0
150 163 0
135 142 0
144 154 0
133 141 0
142 150 0
137 143 0
140 150 0
133 141 0
128 130 0
138 141 0
133 141 0
121 126 0
130 134 0
135 142 0
147 157 0
130 133 0
135 139 0
140 147 0
131 136 0
141 150 0
144 151 0
150 159 0
139 151 0
149 158 0
144 162 0
145 163 0
134 151 0
141 156 0
144 160 0
141 158 0
144 161 0
137 154 0
147 164 0
130 146 0
135 150 0
128 142 0
132 147 0
140 156 0
145 161 0
134 148 0
133 148 0
131 146 0
140 156 0
132 147 0
134 150 0
137 153 0
146 163 0
135 151 0
139 155 0
135 150 0
129 144 0
136 150 0
145 163 0
143 159 0
149 167 0
124 139 0
135 150 0
125 141 0
124 140 0
127 142 0
127 142 0
127 142 0
137 153 0
123 138 0
135 150 0
134 151 0
132 147 0
137 152 0
139 155 0
143 159 0
132 147 0
133 149 0
132 148 0
131 146 0
132 149 0
125 140 0
135 150 0
131 146 0
140 156 0
130 146 0
130 146 0
126 140 0
139 157 0
121 135 0
134 150 0
139 155 0
136 153 0
129 144 0
141 156 0
140 158 0
139 156 0
133 150 0
134 151 0
131 147 0
141 159 0
128 145 0
125 140 0
131 146 0
134 151 0
149 169 0
140 157 0
134 149 0
137 156 0
133 151 0
129 146 0
131 148 0
132 149 0
122 139 0
136 152 0
130 148 0
144 162 0
141 160 0
122 139 0
125 141 0
130 148 0
143 161 0
138 156 0
132 147 0
136 154 0
139 157 0
137 155 0
135 152 0
134 152 0
147 165 0
132 148 0
129 144 0
134 151 0
133 150 0
124 140 0
120 136 0
137 156 0
138 156 0
133 150 0
134 153 0
129 145 0
136 155 0
142 161 0
119 136 0
142 159 0
134 154 0
129 147 0
131 148 0
143 162 0
137 155 0
134 152 0
133 150 0
144 164 0
124 143 0
143 163 0
138 157 0
134 152 0
133 150 0
154 174 0
139 156 0
123 140 0
132 149 0
132 150 0
126 143 0
134 152 0
137 157 0
123 141 0
117 133 0
114 129 0
132 152 0
132 150 0
137 155 0
138 158 0
132 150 0
129 147 0
127 144 0
134 153 0
123 141 0
136 154 0
134 152 0
135 155 0
131 149 0
139 157 0
147 166 0
131 148 0
123 139 0
135 153 0
148 167 0
129 146 0
126 144 0
127 142 0
121 138 0
123 140 0
117 134 0
139 158 0
137 156 0
127 145 0
133 151 0
120 137 0
129 144 0
128 144 0
128 144 0
137 158 0
120 138 0
138 156 0
131 148 0
127 144 0
132 149 0
127 144 0
135 154 0
131 149 0
126 145 0
121 139 0
135 152 0
116 132 0
137 156 0
132 149 0
124 140 0
142 158 0
118 136 0
120 136 0
125 143 0
122 138 0
125 143 0
125 141 0
132 150 0
114 131 0
135 151 0
131 149 0
124 141 0
128 146 0
132 149 0
119 138 0
115 130 0
131 149 0
133 151 0
124 139 0
140 157 0
128 145 0
139 156 0
117 133 0
128 145 0
145 162 0
132 148 0
125 140 0
121 137 0
123 140 0
139 158 0
126 143 0
127 141 0
126 142 0
127 144 0
142 163 0
134 150 0
135 152 0
135 153 0
129 147 0
136 153 0
128 142 0
120 138 0
130 146 0
140 156 0
133 151 0
123 137 0
128 145 0
135 150 0
138 157 0
129 144 0
119 135 0
125 140 0
144 161 0
131 148 0
125 143 0
127 145 0
126 142 0
127 143 0
124 141 0
132 148 0
130 143 0
140 157 0
132 149 0
126 142 0
140 160 0
144 161 0
139 156 0
141 156 0
113 126 0
139 156 0
136 152 0
137 151 0
129 144 0
137 154 0
139 154 0
129 142 0
133 148 0
132 146 0
134 151 0
127 142 0
125 140 0
136 152 0
140 153 0
130 145 0
136 153 0
132 146 0
132 148 0
134 150 0
146 161 0
133 151 0
139 152 0
135 149 0
130 140 0
135 151 0
148 164 0
131 144 0
135 149 0
143 157 0
136 153 0
130 143 0
137 151 0
139 150 0
130 143 0
134 145 0
126 136 0
131 144 0
125 136 0
133 143 0
137 149 0
144 158 0
131 144 0
130 141 0
126 139 0
138 152 0
137 153 0
153 165 0
139 155 0
138 152 0
138 153 0
130 141 0
149 162 0
137 152 0
139 152 0
139 151 0
129 139 0
140 156 0
133 146 0
121 129 0
128 137 0
128 136 0
135 148 0
143 158 0
132 140 0
131 142 0
140 150 0
131 138 0
134 143 0
140 150 0
133 138 0
134 145 0
133 143 0
140 149 0
134 144 0
147 159 0
120 125 0
133 143 0
134 140 0
133 140 0
131 138 0
125 136 0
125 131 0
133 140 0
133 145 0
138 150 0
131 138 0
123 130 0
133 134 0
135 143 0
126 132 0
140 148 0
140 150 0
124 130 0
141 150 0
134 141 0
141 150 0
118 125 0
134 138 0
134 142 0
139 148 0
134 137 0
136 147 0
133 140 0
134 140 0
129 134 0
125 129 0
134 142 0
137 145 0
121 125 0
133 138 0
134 141 0
132 139 0
137 144 0
139 145 0
132 140 0
144 153 0
127 133 0
136 144 0
137 143 0
138 144 0
127 130 0
131 138 0
132 138 0
135 142 0
145 156 0
143 152 0
143 145 0
133 140 0
134 139 0
143 153 0
150 156 0
135 139 0
140 147 0
139 147 0
135 142 0
141 152 0
139 145 0
145 152 0
143 151 0
145 156 0
141 146 0
146 154 0
142 150 0
135 152 0
139 155 0
147 165 0
142 158 0
130 146 0
132 148 0
147 164 0
147 164 0
136 152 0
144 161 0
140 156 0
140 157 0
141 158 0
147 163 0
135 150 0
131 146 0
132 148 0
136 151 0
139 156 0
134 149 0
137 153 0
134 150 0
133 149 0
134 150 0
127 142 0
128 142 0
138 155 0
133 148 0
133 148 0
138 155 0
138 154 0
128 142 0
132 146 0
141 158 0
146 162 0
136 150 0
134 151 0
140 157 0
124 139 0
136 153 0
124 139 0
138 153 0
145 163 0
138 153 0
142 158 0
130 147 0
129 144 0
139 155 0
137 153 0
134 150 0
146 163 0
126 140 0
126 139 0
139 155 0
118 135 0
144 162 0
132 148 0
128 144 0
133 148 0
134 150 0
131 147 0
144 162 0
148 166 0
128 144 0
142 160 0
133 148 0
140 157 0
142 158 0
142 159 0
127 144 0
129 146 0
140 157 0
130 148 0
129 145 0
128 145 0
134 149 0
130 146 0
122 138 0
136 151 0
136 153 0
133 150 0
121 135 0
122 136 0
131 148 0
140 158 0
140 158 0
134 151 0
130 146 0
132 150 0
140 158 0
137 156 0
129 145 0
144 162 0
129 148 0
140 156 0
141 160 0
127 145 0
140 160 0
138 157 0
130 146 0
124 141 0
137 156 0
125 143 0
136 155 0
139 156 0
146 165 0
135 152 0
127 145 0
143 159 0
131 149 0
137 156 0
143 162 0
130 146 0
139 157 0
130 145 0
144 162 0
127 144 0
147 167 0
124 141 0
139 157 0
130 149 0
137 156 0
127 145 0
128 144 0
129 146 0
133 152 0
132 151 0
133 150 0
139 157 0
137 154 0
138 156 0
147 166 0
134 153 0
136 154 0
145 164 0
130 148 0
134 152 0
133 151 0
131 148 0
141 159 0
136 156 0
142 161 0
130 148 0
123 139 0
138 157 0
133 153 0
133 150 0
144 162 0
132 150 0
133 152 0
112 127 0
130 149 0
125 143 0
122 140 0
128 148 0
128 145 0
131 149 0
127 143 0
135 153 0
133 151 0
126 145 0
141 160 0
128 146 0
126 142 0
124 142 0
133 151 0
123 141 0
124 141 0
138 157 0
140 158 0
131 147 0
129 146 0
133 151 0
119 136 0
134 152 0
128 144 0
125 142 0
135 154 0
122 138 0
126 144 0
121 140 0
123 142 0
127 144 0
129 146 0
132 151 0
121 136 0
111 125 0
141 161 0
126 142 0
134 154 0
121 137 0
136 156 0
114 131 0
132 150 0
130 150 0
114 129 0
125 142 0
125 142 0
124 139 0
130 147 0
131 150 0
133 151 0
120 138 0
127 144 0
128 144 0
136 151 0
135 153 0
128 145 0
133 151 0
125 143 0
128 145 0
124 142 0
123 139 0
135 153 0
143 162 0
131 150 0
124 141 0
134 151 0
122 138 0
118 135 0
136 154 0
129 144 0
122 138 0
124 140 0
124 139 0
128 144 0
135 155 0
145 162 0
128 144 0
130 147 0
130 148 0
134 147 0
126 144 0
119 133 0
140 159 0
132 147 0
132 149 0
139 156 0
134 152 0
127 146 0
135 151 0
137 155 0
130 146 0
134 149 0
131 150 0
121 138 0
121 138 0
126 143 0
136 153 0
143 159 0
137 155 0
136 150 0
123 139 0
124 138 0
131 145 0
130 146 0
143 161 0
129 142 0
132 150 0
134 151 0
126 141 0
146 164 0
134 151 0
127 142 0
137 153 0
135 151 0
132 146 0
144 160 0
144 161 0
125 138 0
138 154 0
131 148 0
135 150 0
141 155 0
127 143 0
144 159 0
130 145 0
131 143 0
121 131 0
132 147 0
136 152 0
138 151 0
135 148 0
116 127 0
136 150 0
141 155 0
134 149 0
136 152 0
130 142 0
134 149 0
140 155 0
134 151 0
133 147 0
141 156 0
128 142 0
129 140 0
137 151 0
134 148 0
140 155 0
121 131 0
132 143 0
128 139 0
138 154 0
132 140 0
135 151 0
138 150 0
137 150 0
125 133 0
132 144 0
127 140 0
136 151 0
141 156 0
142 151 0
138 153 0
137 149 0
137 150 0
135 148 0
143 152 0
127 138 0
135 144 0
144 155 0
133 144 0
141 155 0
135 149 0
145 158 0
136 149 0
142 155 0
122 129 0
119 124 0
135 147 0
133 140 0
136 147 0
141 153 0
134 147 0
135 141 0
147 160 0
125 133 0
137 147 0
135 142 0
132 141 0
134 139 0
135 147 0
137 147 0
135 142 0
124 128 0
141 151 0
132 142 0
140 151 0
139 148 0
135 142 0
138 142 0
135 143 0
136 144 0
126 132 0
132 140 0
122 129 0
130 134 0
135 138 0
142 148 0
119 121 0
132 139 0
128 133 0
139 144 0
127 134 0
140 143 0
138 148 0
132 141 0
137 146 0
143 153 0
123 127 0
134 140 0
133 141 0
129 139 0
127 130 0
132 138 0
140 146 0
136 141 0
143 150 0
147 159 0
133 141 0
140 150 0
139 148 0
139 146 0
135 142 0
135 143 0
132 143 0
140 150 0
136 143 0
139 147 0
134 138 0
152 163 0
135 142 0
145 151 0
127 130 0
133 137 0
145 155 0
131 139 0
141 149 0
137 140 0
134 144 0
139 155 0
140 156 0
132 148 0
154 171 0
129 144 0
124 139 0
145 161 0
149 164 0
148 165 0
135 150 0
143 160 0
138 155 0
129 145 0
135 150 0
135 150 0
136 152 0
135 150 0
133 150 0
149 167 0
132 148 0
127 141 0
134 151 0
134 150 0
146 164 0
135 153 0
132 147 0
127 140 0
143 159 0
124 139 0
138 154 0
137 155 0
128 142 0
126 141 0
141 158 0
136 152 0
135 150 0
137 153 0
143 159 0
139 154 0
136 153 0
141 159 0
127 143 0
138 153 0
132 148 0
135 150 0
141 157 0
141 158 0
137 154 0
142 159 0
134 150 0
114 128 0
139 156 0
141 158 0
127 143 0
137 152 0
116 131 0
139 156 0
140 157 0
140 157 0
132 148 0
134 151 0
134 150 0
131 147 0
138 156 0
145 165 0
136 152 0
145 163 0
137 154 0
126 141 0
131 148 0
134 152 0
144 161 0
136 153 0
141 160 0
127 141 0
137 155 0
135 153 0
127 144 0
131 148 0
117 130 0
123 139 0
135 152 0
137 155 0
138 155 0
139 157 0
146 165 0
129 145 0
123 139 0
135 152 0
131 148 0
137 155 0
141 159 0
128 144 0
142 160 0
149 168 0
145 164 0
130 147 0
135 153 0
139 159 0
139 156 0
125 144 0
140 159 0
143 162 0
133 152 0
141 158 0
133 152 0
130 144 0
136 152 0
140 158 0
135 154 0
137 155 0
126 144 0
127 145 0
127 144 0
138 157 0
116 131 0
131 150 0
131 148 0
140 159 0
130 148 0
145 165 0
134 151 0
131 147 0
131 150 0
128 146 0
141 162 0
129 147 0
120 138 0
144 162 0
131 150 0
141 161 0
125 143 0
128 146 0
122 139 0
124 142 0
131 146 0
133 151 0
126 145 0
137 157 0
133 152 0
121 136 0
134 152 0
125 143 0
131 150 0
136 153 0
122 139 0
130 148 0
130 149 0
128 145 0
137 155 0
125 143 0
140 159 0
123 138 0
127 144 0
130 148 0
127 143 0
144 164 0
126 143 0
137 156 0
123 139 0
109 126 0
134 152 0
138 158 0
137 158 0
126 144 0
146 165 0
135 153 0
132 151 0
143 161 0
126 145 0
125 144 0
140 158 0
134 154 0
128 145 0
131 149 0
126 144 0
133 152 0
141 158 0
125 143 0
130 148 0
125 143 0
130 148 0
119 136 0
119 137 0
135 155 0
115 130 0
141 161 0
136 152 0
114 128 0
130 147 0
138 153 0
128 144 0
132 151 0
143 161 0
133 151 0
124 143 0
132 147 0
140 157 0
128 144 0
129 147 0
126 143 0
134 153 0
129 148 0
120 134 0
129 146 0
132 150 0
133 147 0
136 153 0
130 149 0
130 149 0
122 139 0
120 134 0
128 145 0
120 136 0
136 155 0
128 148 0
137 155 0
130 147 0
131 150 0
126 141 0
119 135 0
119 134 0
120 135 0
131 149 0
124 142 0
129 144 0
131 147 0
125 144 0
135 153 0
131 149 0
122 137 0
120 134 0
132 149 0
122 139 0
135 153 0
135 152 0
140 157 0
138 157 0
131 150 0
131 147 0
129 147 0
125 142 0
133 147 0
132 150 0
139 157 0
128 143 0
140 158 0
132 148 0
130 146 0
126 143 0
141 159 0
123 137 0
124 139 0
114 129 0
127 139 0
129 144 0
119 133 0
130 149 0
138 157 0
126 137 0
133 149 0
138 159 0
129 144 0
136 151 0
124 140 0
139 156 0
140 158 0
134 147 0
136 154 0
134 151 0
144 160 0
136 151 0
138 157 0
132 146 0
123 135 0
133 148 0
135 151 0
136 151 0
144 160 0
119 131 0
127 141 0
130 144 0
128 146 0
126 138 0
133 149 0
132 148 0
120 134 0
131 145 0
138 151 0
131 147 0
130 143 0
126 138 0
123 134 0
123 136 0
129 142 0
137 149 0
139 156 0
130 140 0
136 151 0
139 157 0
141 153 0
139 155 0
140 153 0
141 156 0
139 154 0
138 154 0
127 142 0
136 148 0
135 149 0
130 143 0
141 154 0
140 154 0
130 143 0
140 154 0
145 159 0
134 143 0
126 138 0
125 135 0
134 144 0
126 136 0
131 140 0
117 123 0
124 131 0
147 164 0
139 149 0
136 146 0
137 147 0
137 149 0
135 144 0
131 141 0
146 157 0
129 133 0
126 136 0
136 147 0
137 140 0
133 143 0
124 131 0
123 133 0
130 139 0
131 138 0
143 154 0
138 150 0
126 135 0
144 154 0
133 141 0
134 142 0
138 149 0
127 133 0
139 148 0
137 143 0
130 136 0
132 143 0
140 148 0
124 131 0
132 138 0
134 140 0
134 142 0
136 140 0
149 159 0
138 146 0
140 148 0
132 138 0
140 148 0
138 145 0
123 128 0
129 137 0
128 132 0
142 151 0
125 131 0
134 140 0
135 147 0
126 130 0
139 149 0
132 135 0
142 146 0
144 153 0
129 133 0
143 152 0
132 139 0
133 140 0
142 150 0
122 126 0
146 155 0
125 127 0
128 137 0
132 136 0
137 144 0
136 141 0
141 150 0
146 155 0
138 147 0
133 139 0
136 143 0
136 146 0
142 149 0
140 149 0
137 143 0
142 151 0
137 143 0
149 158 0
148 166 0
136 152 0
137 152 0
135 152 0
131 147 0
136 152 0
135 151 0
142 160 0
141 157 0
143 160 0
147 164 0
134 149 0
143 159 0
136 152 0
142 158 0
145 162 0
137 154 0
142 159 0
134 151 0
133 149 0
129 145 0
132 146 0
127 143 0
137 154 0
133 148 0
132 148 0
123 139 0
140 156 0
131 146 0
130 145 0
129 143 0
138 153 0
135 151 0
140 156 0
136 152 0
136 152 0
146 163 0
124 139 0
142 159 0
132 147 0
133 147 0
140 154 0
143 161 0
128 143 0
133 148 0
137 154 0
137 154 0
132 148 0
144 160 0
137 156 0
131 148 0
139 155 0
129 143 0
138 156 0
137 154 0
139 156 0
138 154 0
137 155 0
135 153 0
136 154 0
122 137 0
127 142 0
128 144 0
141 161 0
134 152 0
125 142 0
135 151 0
130 144 0
139 156 0
132 150 0
139 157 0
129 145 0
132 148 0
133 150 0
130 148 0
136 155 0
139 156 0
138 156 0
133 150 0
129 144 0
135 152 0
136 154 0
129 145 0
123 138 0
129 145 0
131 148 0
141 158 0
128 145 0
138 157 0
141 159 0
145 163 0
133 150 0
135 152 0
144 162 0
141 160 0
135 149 0
130 147 0
133 149 0
137 155 0
128 145 0
139 157 0
132 150 0
132 150 0
151 170 0
136 156 0
137 154 0
130 146 0
145 163 0
138 155 0
133 150 0
135 154 0
132 150 0
134 152 0
134 152 0
133 151 0
137 156 0
132 149 0
140 159 0
125 142 0
128 145 0
123 139 0
145 165 0
136 154 0
127 146 0
140 158 0
128 146 0
124 140 0
142 162 0
138 157 0
123 138 0
131 150 0
117 133 0
138 157 0
135 154 0
130 146 0
129 146 0
131 148 0
137 156 0
151 173 0
133 150 0
128 147 0
133 151 0
132 150 0
129 146 0
147 164 0
131 147 0
140 159 0
132 151 0
137 156 0
138 156 0
132 150 0
130 149 0
123 140 0
127 145 0
140 159 0
128 147 0
126 145 0
138 156 0
126 144 0
135 154 0
116 132 0
133 149 0
137 155 0
124 140 0
128 147 0
129 147 0
133 151 0
116 131 0
144 165 0
123 138 0
132 150 0
129 148 0
130 150 0
130 149 0
124 144 0
135 152 0
130 148 0
132 150 0
139 158 0
145 164 0
140 158 0
120 136 0
125 143 0
134 152 0
122 140 0
139 157 0
128 146 0
133 151 0
143 162 0
125 142 0
137 152 0
138 158 0
130 148 0
130 150 0
126 141 0
130 147 0
130 148 0
133 150 0
121 138 0
130 146 0
121 135 0
133 152 0
136 155 0
130 147 0
121 138 0
128 145 0
125 143 0
140 158 0
125 142 0
128 145 0
138 156 0
128 145 0
130 145 0
128 145 0
139 156 0
132 150 0
131 148 0
139 158 0
116 132 0
133 147 0
132 151 0
123 139 0
121 136 0
138 156 0
139 157 0
132 149 0
144 164 0
133 151 0
129 148 0
129 144 0
132 147 0
136 154 0
134 152 0
128 145 0
120 136 0
139 155 0
130 144 0
135 152 0
123 142 0
132 148 0
139 158 0
120 132 0
137 153 0
138 155 0
124 140 0
114 128 0
130 146 0
143 162 0
136 154 0
132 150 0
133 149 0
138 157 0
131 146 0
139 156 0
129 146 0
143 161 0
124 139 0
127 139 0
140 157 0
129 144 0
124 139 0
127 141 0
128 146 0
144 161 0
142 159 0
142 160 0
142 158 0
142 158 0
134 148 0
133 148 0
138 153 0
138 155 0
132 145 0
141 157 0
131 148 0
128 139 0
138 156 0
137 155 0
137 154 0
135 146 0
127 142 0
130 146 0
145 160 0
138 155 0
121 137 0
135 149 0
126 139 0
135 150 0
113 125 0
138 150 0
118 133 0
136 150 0
139 152 0
132 144 0
140 154 0
134 147 0
148 161 0
130 143 0
135 149 0
136 151 0
132 142 0
143 155 0
137 154 0
134 148 0
134 148 0
146 162 0
122 132 0
130 142 0
132 142 0
139 155 0
133 143 0
141 156 0
139 154 0
126 137 0
142 159 0
137 152 0
134 147 0
135 147 0
144 160 0
127 135 0
139 151 0
136 149 0
122 134 0
137 146 0
149 167 0
135 147 0
129 139 0
128 138 0
138 151 0
130 143 0
147 159 0
139 151 0
140 150 0
130 142 0
142 153 0
129 140 0
132 141 0
133 143 0
127 136 0
130 139 0
137 147 0
134 141 0
136 145 0
120 125 0
127 134 0
127 137 0
131 138 0
121 126 0
133 143 0
144 152 0
136 143 0
133 142 0
120 125 0
133 140 0
141 152 0
138 145 0
137 148 0
131 140 0
143 152 0
139 152 0
130 140 0
128 133 0
145 154 0
135 144 0
132 138 0
145 154 0
121 123 0
147 157 0
136 142 0
139 149 0
137 142 0
140 145 0
154 161 0
136 145 0
130 134 0
135 144 0
140 150 0
130 135 0
137 146 0
131 134 0
137 145 0
137 140 0
135 143 0
150 163 0
127 130 0
133 139 0
142 152 0
136 144 0
137 146 0
133 136 0
141 149 0
140 148 0
141 147 0
140 147 0
136 142 0
129 137 0
149 163 0
139 151 0
136 143 0
141 149 0
142 158 0
142 160 0
147 166 0
139 154 0
135 150 0
129 144 0
143 160 0
135 153 0
142 159 0
137 153 0
134 150 0
149 167 0
136 152 0
123 139 0
140 156 0
131 145 0
130 146 0
139 155 0
140 156 0
139 156 0
138 155 0
126 141 0
136 153 0
134 152 0
136 151 0
126 142 0
137 153 0
145 161 0
125 142 0
140 157 0
131 147 0
128 143 0
124 138 0
137 153 0
129 144 0
129 144 0
129 145 0
136 152 0
134 150 0
123 141 0
125 139 0
133 149 0
136 151 0
130 147 0
131 149 0
145 160 0
141 156 0
129 143 0
150 169 0
134 149 0
148 166 0
135 152 0
134 151 0
148 165 0
142 160 0
141 159 0
148 165 0
143 160 0
123 136 0
138 155 0
140 157 0
121 136 0
135 152 0
135 151 0
122 138 0
137 154 0
142 161 0
127 143 0
126 143 0
134 151 0
130 147 0
143 161 0
138 157 0
136 153 0
153 175 0
137 154 0
133 151 0
134 151 0
143 162 0
136 153 0
138 155 0
137 153 0
146 165 0
133 149 0
124 138 0
133 150 0
137 154 0
128 146 0
132 149 0
125 142 0
136 153 0
138 155 0
127 142 0
136 155 0
136 152 0
137 155 0
128 146 0
126 143 0
129 145 0
127 144 0
131 148 0
135 152 0
140 158 0
125 142 0
131 147 0
139 157 0
141 160 0
149 168 0
143 162 0
127 144 0
136 154 0
144 163 0
136 152 0
138 158 0
150 171 0
131 148 0
130 147 0
131 151 0
130 148 0
127 146 0
126 143 0
127 144 0
130 147 0
137 154 0
133 152 0
129 146 0
127 145 0
130 146 0
135 154 0
130 148 0
140 158 0
129 146 0
134 154 0
137 157 0
133 151 0
134 152 0
149 170 0
134 153 0
129 148 0
131 150 0
140 160 0
128 145 0
133 151 0
141 159 0
136 156 0
120 136 0
149 168 0
131 150 0
130 148 0
124 142 0
137 157 0
135 155 0
130 149 0
135 154 0
138 157 0
132 150 0
134 152 0
133 150 0
135 151 0
137 155 0
130 146 0
133 149 0
138 156 0
137 157 0
128 147 0
134 153 0
122 140 0
135 152 0
128 144 0
122 139 0
134 154 0
130 147 0
143 162 0
137 157 0
126 144 0
135 153 0
123 141 0
141 160 0
140 159 0
131 149 0
111 125 0
138 157 0
122 139 0
131 149 0
143 163 0
106 121 0
130 148 0
129 144 0
139 157 0
136 156 0
146 166 0
120 137 0
132 150 0
125 143 0
137 157 0
121 139 0
126 145 0
134 154 0
132 151 0
132 152 0
139 158 0
122 139 0
145 164 0
127 144 0
124 141 0
132 150 0
126 145 0
131 148 0
134 151 0
134 150 0
134 152 0
116 132 0
134 154 0
134 152 0
117 130 0
138 157 0
130 148 0
141 159 0
133 150 0
125 141 0
132 148 0
144 165 0
127 141 0
134 153 0
123 139 0
141 157 0
143 160 0
133 148 0
135 150 0
143 157 0
134 151 0
125 142 0
134 152 0
131 148 0
136 154 0
126 142 0
132 149 0
126 141 0
125 143 0
130 147 0
130 147 0
127 142 0
128 145 0
127 141 0
134 153 0
131 150 0
129 147 0
135 152 0
126 142 0
132 149 0
140 156 0
131 149 0
137 152 0
123 140 0
139 155 0
139 157 0
140 158 0
138 153 0
140 157 0
135 150 0
137 153 0
139 157 0
136 153 0
126 140 0
138 157 0
146 165 0
139 157 0
141 159 0
128 144 0
123 137 0
136 154 0
138 151 0
125 139 0
136 152 0
122 136 0
130 145 0
143 157 0
131 145 0
130 145 0
143 159 0
141 156 0
146 162 0
136 149 0
143 158 0
126 138 0
129 139 0
130 142 0
132 146 0
133 149 0
129 140 0
140 156 0
144 157 0
139 151 0
137 151 0
123 135 0
137 152 0
137 153 0
133 146 0
136 151 0
136 149 0
119 130 0
135 149 0
134 148 0
137 152 0
141 152 0
140 153 0
138 150 0
140 152 0
131 143 0
152 168 0
119 129 0
134 148 0
138 153 0
148 162 0
134 146 0
137 151 0
127 139 0
141 153 0
128 142 0
140 155 0
132 148 0
142 156 0
135 151 0
127 136 0
127 140 0
128 139 0
143 157 0
128 138 0
128 139 0
137 150 0
130 143 0
130 140 0
142 153 0
126 136 0
129 139 0
136 146 0
134 146 0
122 131 0
137 145 0
131 138 0
138 147 0
137 146 0
133 140 0
125 134 0
128 133 0
138 147 0
138 149 0
142 154 0
119 127 0
126 134 0
137 146 0
139 148 0
129 133 0
119 124 0
143 151 0
133 143 0
127 133 0
140 151 0
124 128 0
136 144 0
150 161 0
140 149 0
139 145 0
136 146 0
130 139 0
144 156 0
133 140 0
140 150 0
137 142 0
139 147 0
138 145 0
133 138 0
131 137 0
119 128 0
126 134 0
154 163 0
126 133 0
142 152 0
141 143 0
134 141 0
127 130 0
137 144 0
155 171 0
129 138 0
136 140 0
131 140 0
135 144 0
136 143 0
133 139 0
133 140 0
139 149 0
141 150 0
150 158 0
146 158 0
144 153 0
137 149 0
134 142 0
144 151 0
148 161 0
145 155 0
135 151 0
146 164 0
133 149 0
147 166 0
138 154 0
140 156 0
138 154 0
138 156 0
137 155 0
134 150 0
151 169 0
131 146 0
129 145 0
133 150 0
141 158 0
145 162 0
139 156 0
128 141 0
127 141 0
141 159 0
132 148 0
140 157 0
140 156 0
145 163 0
134 150 0
128 144 0
143 160 0
143 159 0
142 159 0
140 157 0
140 159 0
137 153 0
142 159 0
132 148 0
134 150 0
130 145 0
135 151 0
134 150 0
139 155 0
141 157 0
132 148 0
141 158 0
142 160 0
140 156 0
139 154 0
136 153 0
141 158 0
132 148 0
147 165 0
134 149 0
140 157 0
136 153 0
134 150 0
130 146 0
133 149 0
137 154 0
134 149 0
128 143 0
126 141 0
143 161 0
135 153 0
136 153 0
139 156 0
147 165 0
134 151 0
145 163 0
133 152 0
147 166 0
117 134 0
141 158 0
135 153 0
134 152 0
135 152 0
127 144 0
137 156 0
129 146 0
123 141 0
116 131 0
140 158 0
130 148 0
142 161 0
138 156 0
134 152 0
140 158 0
134 152 0
124 141 0
129 144 0
138 154 0
136 154 0
137 155 0
130 146 0
125 143 0
139 157 0
118 135 0
137 155 0
141 160 0
134 151 0
145 164 0
136 154 0
132 150 0
139 158 0
135 152 0
144 163 0
145 165 0
145 164 0
137 154 0
129 146 0
142 161 0
126 145 0
131 149 0
135 152 0
147 167 0
145 166 0
131 148 0
128 146 0
133 152 0
140 157 0
145 165 0
143 161 0
140 159 0
127 144 0
124 142 0
132 151 0
143 163 0
139 159 0
123 140 0
136 155 0
141 160 0
139 157 0
123 141 0
124 142 0
135 153 0
137 155 0
142 162 0
120 137 0
128 147 0
136 152 0
116 132 0
139 158 0
127 144 0
141 158 0
143 162 0
132 151 0
132 150 0
122 138 0
130 149 0
147 167 0
133 152 0
150 169 0
136 153 0
127 144 0
139 158 0
143 162 0
137 153 0
141 161 0
119 135 0
133 150 0
133 152 0
142 162 0
133 154 0
136 155 0
127 143 0
127 144 0
132 147 0
132 150 0
125 141 0
131 149 0
125 143 0
140 159 0
130 145 0
136 155 0
136 151 0
127 144 0
134 150 0
121 138 0
125 142 0
138 159 0
142 159 0
126 143 0
135 152 0
117 134 0
134 151 0
141 160 0
140 159 0
131 149 0
128 147 0
136 154 0
136 154 0
126 145 0
129 146 0
138 155 0
129 148 0
132 150 0
125 140 0
124 141 0
129 147 0
137 155 0
132 151 0
132 151 0
131 151 0
142 159 0
124 141 0
136 154 0
120 138 0
136 154 0
132 149 0
127 144 0
132 151 0
118 133 0
126 142 0
116 132 0
128 145 0
134 151 0
132 150 0
131 149 0
128 145 0
135 151 0
132 151 0
123 140 0
128 145 0
130 148 0
128 145 0
130 143 0
126 142 0
119 134 0
134 153 0
129 144 0
123 138 0
122 140 0
138 154 0
129 145 0
126 144 0
136 153 0
142 162 0
137 156 0
140 161 0
128 145 0
128 143 0
129 148 0
133 149 0
137 152 0
134 153 0
123 139 0
132 149 0
125 141 0
126 142 0
138 156 0
137 156 0
140 158 0
129 145 0
136 152 0
135 154 0
129 145 0
137 153 0
130 146 0
132 150 0
137 155 0
138 156 0
137 154 0
143 159 0
135 147 0
123 139 0
143 162 0
141 158 0
129 145 0
135 152 0
128 144 0
132 149 0
123 136 0
136 153 0
148 162 0
146 165 0
133 146 0
133 150 0
130 144 0
116 128 0
135 150 0
139 156 0
125 139 0
141 157 0
134 150 0
132 148 0
130 146 0
128 143 0
137 151 0
132 146 0
126 140 0
127 143 0
141 156 0
134 152 0
135 152 0
143 158 0
129 144 0
138 155 0
141 155 0
142 158 0
133 148 0
137 154 0
142 158 0
148 160 0
148 164 0
127 142 0
140 156 0
128 141 0
133 146 0
135 146 0
141 152 0
129 143 0
141 155 0
128 138 0
134 146 0
121 133 0
128 140 0
152 167 0
145 161 0
142 156 0
120 131 0
135 147 0
139 152 0
145 160 0
148 164 0
129 142 0
130 143 0
121 135 0
135 146 0
132 143 0
135 151 0
149 163 0
142 152 0
136 149 0
128 142 0
142 152 0
137 149 0
138 149 0
138 150 0
138 149 0
126 134 0
132 140 0
147 158 0
129 139 0
144 162 0
144 154 0
133 147 0
142 150 0
144 156 0
138 147 0
145 155 0
129 139 0
137 147 0
134 143 0
138 147 0
142 152 0
133 139 0
133 145 0
144 157 0
137 147 0
142 153 0
143 148 0
137 147 0
128 134 0
145 154 0
126 134 0
134 142 0
128 136 0
133 142 0
142 151 0
137 149 0
139 149 0
139 148 0
140 153 0
142 150 0
133 141 0
143 154 0
130 131 0
135 140 0
130 137 0
146 154 0
139 149 0
134 142 0
144 155 0
145 154 0
136 146 0
134 140 0
130 139 0
144 153 0
149 154 0
143 154 0
134 143 0
125 130 0
142 150 0
144 151 0
138 146 0
142 154 0
138 148 0
140 150 0
147 156 0
139 145 0
134 141 0
140 147 0
142 149 0
130 146 0
149 167 0
142 160 0
138 155 0
145 162 0
137 154 0
151 171 0
132 148 0
145 161 0
137 153 0
141 158 0
144 160 0
135 151 0
141 158 0
133 149 0
139 156 0
139 154 0
137 153 0
134 151 0
133 148 0
132 148 0
139 155 0
142 158 0
131 146 0
144 161 0
134 150 0
144 161 0
138 155 0
145 163 0
139 156 0
133 150 0
139 156 0
127 143 0
132 151 0
148 165 0
132 149 0
140 156 0
154 172 0
133 151 0
134 152 0
136 151 0
133 149 0
133 149 0
142 160 0
134 151 0
133 151 0
132 148 0
130 146 0
133 150 0
130 145 0
131 148 0
129 146 0
143 161 0
127 143 0
131 146 0
129 146 0
143 160 0
132 147 0
132 147 0
139 156 0
145 164 0
133 148 0
137 152 0
126 142 0
140 160 0
140 159 0
131 148 0
154 174 0
136 155 0
143 161 0
140 158 0
130 148 0
133 150 0
143 161 0
131 149 0
138 156 0
142 159 0
127 142 0
141 160 0
135 152 0
131 148 0
141 159 0
141 160 0
129 144 0
127 142 0
134 152 0
136 154 0
139 156 0
137 155 0
133 150 0
142 161 0
138 157 0
132 150 0
135 153 0
131 149 0
132 149 0
132 149 0
135 153 0
144 161 0
142 159 0
137 155 0
139 159 0
140 158 0
137 155 0
132 151 0
136 154 0
139 156 0
123 140 0
134 153 0
132 150 0
130 146 0
134 151 0
133 152 0
134 151 0
143 161 0
138 158 0
141 162 0
138 157 0
144 164 0
132 151 0
140 158 0
136 155 0
128 145 0
142 162 0
133 153 0
135 153 0
141 161 0
129 148 0
140 159 0
134 153 0
134 153 0
127 144 0
135 154 0
127 145 0
134 152 0
138 158 0
127 145 0
138 156 0
138 158 0
136 154 0
137 155 0
135 153 0
135 155 0
116 132 0
143 161 0
132 151 0
130 149 0
139 157 0
127 145 0
127 144 0
133 152 0
125 141 0
124 141 0
139 159 0
139 158 0
137 155 0
131 148 0
131 148 0
138 157 0
136 155 0
145 166 0
131 148 0
124 141 0
131 152 0
142 161 0
129 145 0
119 135 0
123 141 0
127 145 0
128 145 0
137 156 0
129 147 0
137 157 0
139 158 0
129 147 0
135 152 0
127 144 0
129 146 0
127 145 0
128 146 0
124 144 0
137 156 0
133 152 0
133 153 0
130 149 0
128 146 0
139 157 0
139 157 0
119 134 0
141 157 0
115 131 0
134 151 0
136 154 0
125 142 0
146 165 0
131 150 0
135 152 0
133 150 0
137 154 0
124 140 0
134 152 0
122 140 0
134 152 0
146 166 0
128 147 0
133 151 0
138 155 0
142 159 0
136 155 0
125 142 0
131 149 0
140 156 0
136 152 0
123 138 0
111 126 0
111 128 0
140 158 0
131 148 0
140 159 0
129 147 0
130 146 0
124 144 0
135 153 0
126 144 0
138 158 0
132 149 0
127 143 0
141 157 0
118 132 0
132 148 0
139 158 0
137 154 0
121 136 0
150 170 0
134 150 0
129 144 0
139 159 0
138 156 0
128 145 0
134 150 0
133 149 0
140 157 0
138 158 0
122 139 0
141 161 0
142 161 0
132 151 0
131 149 0
135 154 0
127 143 0
129 144 0
129 141 0
130 146 0
128 142 0
128 143 0
151 168 0
131 147 0
135 149 0
148 164 0
129 142 0
136 154 0
136 152 0
138 153 0
144 164 0
150 167 0
142 159 0
135 153 0
131 150 0
129 145 0
138 154 0
131 142 0
142 158 0
142 155 0
134 151 0
139 156 0
135 151 0
142 158 0
125 139 0
137 154 0
141 157 0
142 157 0
139 156 0
129 142 0
135 151 0
122 132 0
123 135 0
123 134 0
138 153 0
138 150 0
149 165 0
139 157 0
141 155 0
127 142 0
128 140 0
144 159 0
145 158 0
138 153 0
136 151 0
134 149 0
142 156 0
125 134 0
137 152 0
145 159 0
143 160 0
130 142 0
131 147 0
140 151 0
137 155 0
135 147 0
141 155 0
141 157 0
123 132 0
126 141 0
131 139 0
133 146 0
128 139 0
139 153 0
139 154 0
139 153 0
124 135 0
134 146 0
139 152 0
155 168 0
143 157 0
143 157 0
135 149 0
148 157 0
134 146 0
142 155 0
142 157 0
131 139 0
128 138 0
130 139 0
136 146 0
116 122 0
143 154 0
127 138 0
129 140 0
135 144 0
145 152 0
126 132 0
140 151 0
140 150 0
134 145 0
140 149 0
126 133 0
135 144 0
137 151 0
138 147 0
145 154 0
125 132 0
133 143 0
133 140 0
141 149 0
128 134 0
135 147 0
139 147 0
143 153 0
132 137 0
120 127 0
138 148 0
131 136 0
143 154 0
143 155 0
135 142 0
146 156 0
137 146 0
143 153 0
143 153 0
123 128 0
135 143 0
143 152 0
146 157 0
131 139 0
132 143 0
142 149 0
144 154 0
142 154 0
139 149 0
145 154 0
136 144 0
134 145 0
132 143 0
153 164 0
134 140 0
139 144 0
137 144 0
138 146 0
136 139 0
138 141 0
131 138 0
143 153 0
145 153 0
141 150 0
141 153 0
145 154 0
145 156 0
132 139 0
141 153 0
137 142 0
143 162 0
139 155 0
141 159 0
144 161 0
136 153 0
143 160 0
135 151 0
142 158 0
135 152 0
136 155 0
142 160 0
142 158 0
124 139 0
133 149 0
137 154 0
130 146 0
137 154 0
133 149 0
135 150 0
135 152 0
138 154 0
140 156 0
140 156 0
129 146 0
136 153 0
143 160 0
143 159 0
132 148 0
134 152 0
140 156 0
141 158 0
143 162 0
131 148 0
134 150 0
140 157 0
139 154 0
145 164 0
144 161 0
134 150 0
144 162 0
134 149 0
137 153 0
137 155 0
135 152 0
146 165 0
133 150 0
142 160 0
134 150 0
134 152 0
143 159 0
137 155 0
127 142 0
124 140 0
139 155 0
141 157 0
136 153 0
134 151 0
135 152 0
147 166 0
126 141 0
134 150 0
137 154 0
144 161 0
143 162 0
139 156 0
135 152 0
145 164 0
131 147 0
147 167 0
150 169 0
133 149 0
138 156 0
144 163 0
131 149 0
129 147 0
135 152 0
135 152 0
138 156 0
137 155 0
139 158 0
147 165 0
129 146 0
131 149 0
133 148 0
126 142 0
132 149 0
138 158 0
141 156 0
136 155 0
140 158 0
132 150 0
137 155 0
135 153 0
139 158 0
139 158 0
149 168 0
129 145 0
132 149 0
138 156 0
131 149 0
136 154 0
138 157 0
153 172 0
138 158 0
136 154 0
121 139 0
136 154 0
140 160 0
146 165 0
137 155 0
145 165 0
137 154 0
140 159 0
139 159 0
125 141 0
139 159 0
134 154 0
137 156 0
136 154 0
130 149 0
139 157 0
128 145 0
151 171 0
125 142 0
137 156 0
138 156 0
140 158 0
128 146 0
134 153 0
148 169 0
138 157 0
146 165 0
130 148 0
128 144 0
131 151 0
138 157 0
146 165 0
137 157 0
135 155 0
125 145 0
125 141 0
129 147 0
137 157 0
126 144 0
135 153 0
136 155 0
143 161 0
142 160 0
138 156 0
150 170 0
123 140 0
146 165 0
133 152 0
133 151 0
135 154 0
136 154 0
130 146 0
144 164 0
140 159 0
141 161 0
137 154 0
133 150 0
116 129 0
132 151 0
127 144 0
130 150 0
111 125 0
133 152 0
138 156 0
137 155 0
130 146 0
147 168 0
133 151 0
131 147 0
118 137 0
130 150 0
127 143 0
132 151 0
134 149 0
137 157 0
127 145 0
135 154 0
131 147 0
145 165 0
141 162 0
119 136 0
119 136 0
124 142 0
126 142 0
139 157 0
136 154 0
124 143 0
131 149 0
132 150 0
122 139 0
129 147 0
116 132 0
133 151 0
142 162 0
127 144 0
135 154 0
144 163 0
129 144 0
142 162 0
126 142 0
138 157 0
134 152 0
132 149 0
127 146 0
139 158 0
124 142 0
126 144 0
137 155 0
123 140 0
138 155 0
136 154 0
132 150 0
130 145 0
138 158 0
119 136 0
142 163 0
145 164 0
128 144 0
132 150 0
131 147 0
124 139 0
123 142 0
136 153 0
132 149 0
117 133 0
132 150 0
138 157 0
127 145 0
134 149 0
132 152 0
126 145 0
124 141 0
124 137 0
129 146 0
135 154 0
132 149 0
125 143 0
115 134 0
131 150 0
135 153 0
143 161 0
123 139 0
139 156 0
132 148 0
133 149 0
142 159 0
143 163 0
142 158 0
141 158 0
140 155 0
135 150 0
129 143 0
135 149 0
150 169 0
139 156 0
129 145 0
134 150 0
140 158 0
139 153 0
145 163 0
133 148 0
141 156 0
147 165 0
135 154 0
143 160 0
142 158 0
130 144 0
148 164 0
141 155 0
133 148 0
147 167 0
139 155 0
123 136 0
138 156 0
134 151 0
133 149 0
140 156 0
137 151 0
141 159 0
136 153 0
119 134 0
131 147 0
138 151 0
139 152 0
127 140 0
138 154 0
131 148 0
148 164 0
141 153 0
141 153 0
134 146 0
145 159 0
132 150 0
145 162 0
130 142 0
146 160 0
131 143 0
139 155 0
135 149 0
125 140 0
139 152 0
140 155 0
142 156 0
144 158 0
142 154 0
127 137 0
139 150 0
130 142 0
135 149 0
143 158 0
127 140 0
130 144 0
136 149 0
127 140 0
125 135 0
139 156 0
141 157 0
142 155 0
136 149 0
136 150 0
140 154 0
144 159 0
122 132 0
136 149 0
136 148 0
137 149 0
142 153 0
134 147 0
138 151 0
130 141 0
141 153 0
135 147 0
153 168 0
144 156 0
130 140 0
132 138 0
137 145 0
125 136 0
133 145 0
145 159 0
145 155 0
134 140 0
151 165 0
130 138 0
124 133 0
143 152 0
141 148 0
150 162 0
137 147 0
136 144 0
127 130 0
129 138 0
134 143 0
147 161 0
135 144 0
138 144 0
137 142 0
145 159 0
141 153 0
140 149 0
144 155 0
137 146 0
132 137 0
143 154 0
129 138 0
137 147 0
131 137 0
142 149 0
141 152 0
138 148 0
139 150 0
140 151 0
132 140 0
150 161 0
143 153 0
136 145 0
142 153 0
144 152 0
144 151 0
126 130 0
135 142 0
139 151 0
143 150 0
143 149 0
127 134 0
141 152 0
135 146 0
147 159 0
143 153 0
139 147 0
142 151 0
140 150 0
142 150 0
145 156 0
143 149 0
145 163 0
149 167 0
144 161 0
138 156 0
148 165 0
139 157 0
143 161 0
149 168 0
140 156 0
138 153 0
153 172 0
134 151 0
139 156 0
151 167 0
147 164 0
144 162 0
136 152 0
137 155 0
143 159 0
135 151 0
137 154 0
138 155 0
146 162 0
135 152 0
140 158 0
138 155 0
139 155 0
131 148 0
137 153 0
131 147 0
134 151 0
137 154 0
147 166 0
134 150 0
140 157 0
147 163 0
137 156 0
134 151 0
142 159 0
138 155 0
140 156 0
130 147 0
139 157 0
128 142 0
131 149 0
134 151 0
131 147 0
134 151 0
133 148 0
146 165 0
141 160 0
129 145 0
140 158 0
147 164 0
136 152 0
133 149 0
143 162 0
133 151 0
130 146 0
145 162 0
147 166 0
134 150 0
133 150 0
131 146 0
138 154 0
126 143 0
137 154 0
145 164 0
140 160 0
139 157 0
136 155 0
133 150 0
141 158 0
139 156 0
131 148 0
138 156 0
137 155 0
134 153 0
129 147 0
145 164 0
134 151 0
140 159 0
142 159 0
151 169 0
134 151 0
129 147 0
132 149 0
144 161 0
141 159 0
144 161 0
147 164 0
129 145 0
139 157 0
155 174 0
143 161 0
138 156 0
123 139 0
138 156 0
127 143 0
138 156 0
133 152 0
144 162 0
142 161 0
144 162 0
132 149 0
145 163 0
129 148 0
123 139 0
146 166 0
131 150 0
131 148 0
142 160 0
140 161 0
124 140 0
132 149 0
137 155 0
123 141 0
136 153 0
129 147 0
127 145 0
121 139 0
146 166 0
129 147 0
134 151 0
128 146 0
123 141 0
131 149 0
133 152 0
141 159 0
128 143 0
139 158 0
128 148 0
131 148 0
120 137 0
129 148 0
127 144 0
144 165 0
127 144 0
125 144 0
134 151 0
130 146 0
139 160 0
139 160 0
130 149 0
133 154 0
129 148 0
137 155 0
129 147 0
151 173 0
133 151 0
140 157 0
138 157 0
134 154 0
140 159 0
136 155 0
131 150 0
120 137 0
122 140 0
134 154 0
131 148 0
129 147 0
130 148 0
129 145 0
137 156 0
133 152 0
127 144 0
132 150 0
140 159 0
138 157 0
142 162 0
136 156 0
128 143 0
137 156 0
125 143 0
142 161 0
132 148 0
142 160 0
117 134 0
132 151 0
135 155 0
130 147 0
124 142 0
123 140 0
141 161 0
132 150 0
120 137 0
125 143 0
132 151 0
134 151 0
127 148 0
123 140 0
133 150 0
137 155 0
131 152 0
134 151 0
136 153 0
144 164 0
125 143 0
123 140 0
142 163 0
127 143 0
133 148 0
134 154 0
136 155 0
124 141 0
130 150 0
122 139 0
136 154 0
138 156 0
125 143 0
138 155 0
127 145 0
133 152 0
130 148 0
130 147 0
129 147 0
131 148 0
137 154 0
141 161 0
125 144 0
133 152 0
131 150 0
130 149 0
133 150 0
133 152 0
129 146 0
138 154 0
140 158 0
139 155 0
128 146 0
135 153 0
131 149 0
128 145 0
143 163 0
131 149 0
137 153 0
133 152 0
130 148 0
132 150 0
138 157 0
141 158 0
140 158 0
126 142 0
135 154 0
129 146 0
138 155 0
137 153 0
143 164 0
137 152 0
131 147 0
140 159 0
127 144 0
122 130 0
142 162 0
129 144 0
138 154 0
119 133 0
133 150 0
142 160 0
145 165 0
126 139 0
144 162 0
137 154 0
126 141 0
138 154 0
138 155 0
135 151 0
144 163 0
137 155 0
123 136 0
136 154 0
133 149 0
127 142 0
144 160 0
130 145 0
133 150 0
135 151 0
131 145 0
136 153 0
133 150 0
137 156 0
141 156 0
140 156 0
136 149 0
138 151 0
131 148 0
134 151 0
126 139 0
128 142 0
143 158 0
136 151 0
148 164 0
130 145 0
135 148 0
136 152 0
138 151 0
156 175 0
133 144 0
144 157 0
147 162 0
135 153 0
139 155 0
134 146 0
145 157 0
136 150 0
137 150 0
143 157 0
147 163 0
132 146 0
155 170 0
139 154 0
139 153 0
137 152 0
134 144 0
131 145 0
144 159 0
131 146 0
146 158 0
141 156 0
145 159 0
129 142 0
134 145 0
145 159 0
141 152 0
138 150 0
150 165 0
126 136 0
135 148 0
140 150 0
136 147 0
143 153 0
128 142 0
134 148 0
135 151 0
133 144 0
135 149 0
135 148 0
139 151 0
140 153 0
136 145 0
137 148 0
140 153 0
135 147 0
138 149 0
151 163 0
134 145 0
134 146 0
141 154 0
140 152 0
134 142 0
143 157 0
132 141 0
135 143 0
125 134 0
124 131 0
142 156 0
132 139 0
129 136 0
146 159 0
136 147 0
139 146 0
139 150 0
136 146 0
135 148 0
136 147 0
141 154 0
132 143 0
139 148 0
141 153 0
129 137 0
131 138 0
144 155 0
141 152 0
137 146 0
135 147 0
151 161 0
138 144 0
139 149 0
132 140 0
132 141 0
138 147 0
134 138 0
137 141 0
142 148 0
139 146 0
133 139 0
134 141 0
137 148 0
137 145 0
141 150 0
149 157 0
138 150 0
133 141 0
145 153 0
145 153 0
155 166 0
132 143 0
143 154 0
120 124 0
152 167 0
138 156 0
155 172 0
143 161 0
146 165 0
149 166 0
141 158 0
137 152 0
146 165 0
136 153 0
146 164 0
144 161 0
140 157 0
146 163 0
139 155 0
142 158 0
133 150 0
130 147 0
147 165 0
148 167 0
130 147 0
154 170 0
136 154 0
131 147 0
145 162 0
134 152 0
142 157 0
138 155 0
139 157 0
133 149 0
135 151 0
137 154 0
144 161 0
134 151 0
140 157 0
133 150 0
142 159 0
141 158 0
134 149 0
141 159 0
143 162 0
128 144 0
136 155 0
136 151 0
135 152 0
143 159 0
141 159 0
129 144 0
142 160 0
133 151 0
141 158 0
133 150 0
131 148 0
132 147 0
139 156 0
137 154 0
131 147 0
127 142 0
125 140 0
143 161 0
134 150 0
132 148 0
142 159 0
129 146 0
144 161 0
141 160 0
141 161 0
142 160 0
143 161 0
132 150 0
136 154 0
143 161 0
135 154 0
134 153 0
137 154 0
147 166 0
137 154 0
131 147 0
147 166 0
135 151 0
135 152 0
143 162 0
141 161 0
131 148 0
132 150 0
144 163 0
150 169 0
140 159 0
130 147 0
145 163 0
144 163 0
140 157 0
132 150 0
150 170 0
140 158 0
135 152 0
146 165 0
136 155 0
147 167 0
133 152 0
134 152 0
144 163 0
139 156 0
130 149 0
141 159 0
144 161 0
134 151 0
133 152 0
144 162 0
136 153 0
148 167 0
142 160 0
133 152 0
126 144 0
132 151 0
127 146 0
136 156 0
132 148 0
135 154 0
135 153 0
133 151 0
126 144 0
135 155 0
132 150 0
140 157 0
151 171 0
135 154 0
137 155 0
143 163 0
144 163 0
123 141 0
141 161 0
142 162 0
144 164 0
141 161 0
130 148 0
134 154 0
137 156 0
119 136 0
138 156 0
133 153 0
143 163 0
139 158 0
123 141 0
126 144 0
136 156 0
140 159 0
129 149 0
141 160 0
136 153 0
134 151 0
131 150 0
126 144 0
133 151 0
121 139 0
143 162 0
131 150 0
150 169 0
127 144 0
134 152 0
127 145 0
111 127 0
130 146 0
140 158 0
142 162 0
125 140 0
137 155 0
124 140 0
140 159 0
125 143 0
143 164 0
131 150 0
120 136 0
141 157 0
130 147 0
137 157 0
131 148 0
123 140 0
134 152 0
127 145 0
127 142 0
136 156 0
139 157 0
136 157 0
137 156 0
133 151 0
130 146 0
124 139 0
129 147 0
141 162 0
127 145 0
129 145 0
144 162 0
146 166 0
126 143 0
117 135 0
140 158 0
130 148 0
124 142 0
117 135 0
143 162 0
131 148 0
127 143 0
121 137 0
122 139 0
132 151 0
142 161 0
138 157 0
129 146 0
118 134 0
129 149 0
135 152 0
140 155 0
127 143 0
125 140 0
131 149 0
136 153 0
117 133 0
150 170 0
127 146 0
138 155 0
128 146 0
139 157 0
144 162 0
141 160 0
123 139 0
139 159 0
139 156 0
133 148 0
129 145 0
140 155 0
123 141 0
141 160 0
134 151 0
147 165 0
136 154 0
122 138 0
134 151 0
126 144 0
130 146 0
133 149 0
142 160 0
129 147 0
143 160 0
130 146 0
136 155 0
141 161 0
150 168 0
139 156 0
137 155 0
132 150 0
126 143 0
130 146 0
138 156 0
124 138 0
127 144 0
139 155 0
138 153 0
132 147 0
131 146 0
132 150 0
127 142 0
136 154 0
130 146 0
123 137 0
142 155 0
145 161 0
133 148 0
123 138 0
142 160 0
130 146 0
140 156 0
137 155 0
140 155 0
116 128 0
127 144 0
130 148 0
125 140 0
128 142 0
124 137 0
139 155 0
137 155 0
131 146 0
133 147 0
144 160 0
139 156 0
143 162 0
136 150 0
136 151 0
149 166 0
131 144 0
138 155 0
133 144 0
137 152 0
150 165 0
123 137 0
145 161 0
138 155 0
134 150 0
131 142 0
139 151 0
135 151 0
129 144 0
127 140 0
124 133 0
138 150 0
137 152 0
145 159 0
130 145 0
137 149 0
128 138 0
132 144 0
140 154 0
142 157 0
134 146 0
137 152 0
137 151 0
143 157 0
137 148 0
139 151 0
145 161 0
136 151 0
135 151 0
132 144 0
155 172 0
139 154 0
123 135 0
142 157 0
146 161 0
132 146 0
134 147 0
123 133 0
143 160 0
132 146 0
133 142 0
129 137 0
142 153 0
132 140 0
135 145 0
130 137 0
137 149 0
137 150 0
135 150 0
142 158 0
133 141 0
141 154 0
135 142 0
142 154 0
143 155 0
132 143 0
139 150 0
139 152 0
127 138 0
142 155 0
133 143 0
146 161 0
144 152 0
137 146 0
135 140 0
139 149 0
146 158 0
134 140 0
136 146 0
128 141 0
135 145 0
144 155 0
142 155 0
144 154 0
127 133 0
134 144 0
147 158 0
138 148 0
129 137 0
150 163 0
137 148 0
134 142 0
138 146 0
148 157 0
143 150 0
142 149 0
143 156 0
142 148 0
146 157 0
139 146 0
127 135 0
134 142 0
144 153 0
136 147 0
128 137 0
135 143 0
145 156 0
140 147 0
141 152 0
138 142 0
143 152 0
135 143 0
143 156 0
145 153 0
139 146 0
141 148 0
125 130 0
135 153 0
147 165 0
135 151 0
143 161 0
148 164 0
148 165 0
149 167 0
146 165 0
138 154 0
137 152 0
135 152 0
145 163 0
145 163 0
135 151 0
134 148 0
143 161 0
122 136 0
127 142 0
141 159 0
129 145 0
132 148 0
140 157 0
142 159 0
151 170 0
136 152 0
133 149 0
137 153 0
138 154 0
148 167 0
151 169 0
139 156 0
137 154 0
133 149 0
137 153 0
133 149 0
136 152 0
130 146 0
133 151 0
136 152 0
135 152 0
131 147 0
144 164 0
140 157 0
136 154 0
149 165 0
133 150 0
127 144 0
138 155 0
130 146 0
133 151 0
130 147 0
149 168 0
137 155 0
142 159 0
127 144 0
141 159 0
125 141 0
139 158 0
129 145 0
135 151 0
138 155 0
143 163 0
140 157 0
134 151 0
144 162 0
140 157 0
134 150 0
132 150 0
140 159 0
127 145 0
128 144 0
130 147 0
129 145 0
139 156 0
140 159 0
148 166 0
136 154 0
136 153 0
138 155 0
135 152 0
133 150 0
127 142 0
132 148 0
137 155 0
140 158 0
137 156 0
122 139 0
144 162 0
131 149 0
145 163 0
141 160 0
145 164 0
139 157 0
128 145 0
147 166 0
146 166 0
133 151 0
139 158 0
143 159 0
136 154 0
144 163 0
134 152 0
137 157 0
147 168 0
128 146 0
127 146 0
141 162 0
134 150 0
138 157 0
135 152 0
153 171 0
148 168 0
142 161 0
144 164 0
135 152 0
129 148 0
145 164 0
138 157 0
138 156 0
138 156 0
143 162 0
134 152 0
147 167 0
139 157 0
140 158 0
136 154 0
132 150 0
125 139 0
125 143 0
145 165 0
138 157 0
141 160 0
141 161 0
137 157 0
141 160 0
130 149 0
137 156 0
140 158 0
140 158 0
132 150 0
131 148 0
136 156 0
131 149 0
141 160 0
138 157 0
134 155 0
134 152 0
141 159 0
130 149 0
135 153 0
143 164 0
142 159 0
132 151 0
130 149 0
135 154 0
133 153 0
129 148 0
138 157 0
143 163 0
132 151 0
142 162 0
126 144 0
129 147 0
126 145 0
140 158 0
131 147 0
138 157 0
128 145 0
131 147 0
138 156 0
135 152 0
141 162 0
141 159 0
149 171 0
133 150 0
131 149 0
130 147 0
144 165 0
130 146 0
129 147 0
131 148 0
137 155 0
128 146 0
141 161 0
129 148 0
135 156 0
143 160 0
132 150 0
142 161 0
137 156 0
148 166 0
136 155 0
131 149 0
147 165 0
129 147 0
130 146 0
134 152 0
125 142 0
142 160 0
143 163 0
125 143 0
128 148 0
122 139 0
138 155 0
120 137 0
121 137 0
126 143 0
129 146 0
139 158 0
135 151 0
129 144 0
132 148 0
134 153 0
138 155 0
132 152 0
112 128 0
137 154 0
133 152 0
129 146 0
144 164 0
137 156 0
134 154 0
121 135 0
130 147 0
139 160 0
132 148 0
144 162 0
134 153 0
129 146 0
131 150 0
125 141 0
130 148 0
123 140 0
130 149 0
133 153 0
129 144 0
143 162 0
136 151 0
132 150 0
127 143 0
138 154 0
137 156 0
138 154 0
135 152 0
132 148 0
137 154 0
136 153 0
135 151 0
135 153 0
135 152 0
138 155 0
143 161 0
145 166 0
128 143 0
142 160 0
128 143 0
132 147 0
141 159 0
132 147 0
135 153 0
138 154 0
130 149 0
134 150 0
131 148 0
134 151 0
140 157 0
135 151 0
138 156 0
125 142 0
127 139 0
135 152 0
127 143 0
124 137 0
135 154 0
141 157 0
137 153 0
141 157 0
126 142 0
120 134 0
133 148 0
134 148 0
132 146 0
146 163 0
138 153 0
134 149 0
141 158 0
141 157 0
132 147 0
140 155 0
138 156 0
129 143 0
145 163 0
133 146 0
127 142 0
135 148 0
125 140 0
136 151 0
144 162 0
142 158 0
141 156 0
136 149 0
145 158 0
136 152 0
140 158 0
136 153 0
134 147 0
128 143 0
130 143 0
149 166 0
133 144 0
135 152 0
133 148 0
140 154 0
136 154 0
139 150 0
140 155 0
147 159 0
134 144 0
122 135 0
131 144 0
149 163 0
134 146 0
142 157 0
152 167 0
133 147 0
128 140 0
147 159 0
134 148 0
129 138 0
121 132 0
139 151 0
131 145 0
136 143 0
139 151 0
130 140 0
138 150 0
137 151 0
132 142 0
133 146 0
139 155 0
138 150 0
144 157 0
143 154 0
143 156 0
127 141 0
144 156 0
138 147 0
133 143 0
137 148 0
147 163 0
127 137 0
135 147 0
136 150 0
135 142 0
133 143 0
148 161 0
137 147 0
145 161 0
137 144 0
137 148 0
132 142 0
132 139 0
144 156 0
149 162 0
147 158 0
140 151 0
152 164 0
134 141 0
150 159 0
143 157 0
146 157 0
138 146 0
121 126 0
137 148 0
141 151 0
141 151 0
141 153 0
137 146 0
141 150 0
145 155 0
146 158 0
145 153 0
128 137 0
137 146 0
141 153 0
147 159 0
134 140 0
150 160 0
143 151 0
133 139 0
126 131 0
143 155 0
156 167 0
142 149 0
140 145 0
142 151 0
139 149 0
139 149 0
148 156 0
129 134 0
142 160 0
148 167 0
146 165 0
142 158 0
148 166 0
142 160 0
139 157 0
142 158 0
141 160 0
139 156 0
146 164 0
134 150 0
135 151 0
132 150 0
138 156 0
142 160 0
138 152 0
137 153 0
137 153 0
143 161 0
134 152 0
137 153 0
141 159 0
132 150 0
147 165 0
135 151 0
145 163 0
134 150 0
144 162 0
125 142 0
135 150 0
128 143 0
140 158 0
134 150 0
142 160 0
142 159 0
135 153 0
141 158 0
143 162 0
137 154 0
138 154 0
138 155 0
145 163 0
137 152 0
140 158 0
128 144 0
139 158 0
138 155 0
133 152 0
142 160 0
148 168 0
151 170 0
140 160 0
135 151 0
145 162 0
148 167 0
132 150 0
135 152 0
122 138 0
152 173 0
142 160 0
137 156 0
138 155 0
127 142 0
127 145 0
154 173 0
146 163 0
142 161 0
131 147 0
138 156 0
147 164 0
150 167 0
129 146 0
138 157 0
138 156 0
134 153 0
139 158 0
133 148 0
142 160 0
132 149 0
136 155 0
133 151 0
141 162 0
142 160 0
134 152 0
148 168 0
136 153 0
142 160 0
135 153 0
120 137 0
147 167 0
143 162 0
134 150 0
139 158 0
136 152 0
126 142 0
130 147 0
137 153 0
142 160 0
140 160 0
136 154 0
138 156 0
139 154 0
130 146 0
134 151 0
126 143 0
134 151 0
126 144 0
126 143 0
133 152 0
140 159 0
145 164 0
149 168 0
127 144 0
131 149 0
139 158 0
139 160 0
146 164 0
132 151 0
129 146 0
125 143 0
137 156 0
136 156 0
134 153 0
141 159 0
133 149 0
137 157 0
134 153 0
144 163 0
132 149 0
141 160 0
152 173 0
129 147 0
136 156 0
128 144 0
135 153 0
129 147 0
149 170 0
139 158 0
142 159 0
135 154 0
135 154 0
147 168 0
130 150 0
137 156 0
139 158 0
148 167 0
133 149 0
126 144 0
130 147 0
136 153 0
134 153 0
135 153 0
143 162 0
130 148 0
141 159 0
139 158 0
137 156 0
139 157 0
140 161 0
125 143 0
139 160 0
127 144 0
128 147 0
134 152 0
131 148 0
141 160 0
138 157 0
138 155 0
125 144 0
134 154 0
134 152 0
124 141 0
139 158 0
136 154 0
126 142 0
152 172 0
142 160 0
142 158 0
137 154 0
141 160 0
128 143 0
139 158 0
130 147 0
141 161 0
120 138 0
137 154 0
130 148 0
122 138 0
145 164 0
136 155 0
121 138 0
132 149 0
145 167 0
117 135 0
139 158 0
139 160 0
132 150 0
135 152 0
132 150 0
143 161 0
139 159 0
135 151 0
134 152 0
125 142 0
139 158 0
128 141 0
130 143 0
135 153 0
112 124 0
133 149 0
132 150 0
131 149 0
137 156 0
139 157 0
132 146 0
129 147 0
129 146 0
142 160 0
122 139 0
136 154 0
132 150 0
139 157 0
137 153 0
129 143 0
125 141 0
132 148 0
125 141 0
136 154 0
139 158 0
140 156 0
130 145 0
141 158 0
131 149 0
140 158 0
141 160 0
130 144 0
136 153 0
131 147 0
133 148 0
134 151 0
131 149 0
139 158 0
138 156 0
140 159 0
146 165 0
145 165 0
134 150 0
141 160 0
140 155 0
138 154 0
130 143 0
124 140 0
144 163 0
134 153 0
132 150 0
134 150 0
153 172 0
134 152 0
136 153 0
137 156 0
141 161 0
143 161 0
138 154 0
135 152 0
136 154 0
135 152 0
141 159 0
137 154 0
141 158 0
138 151 0
125 140 0
142 159 0
138 152 0
143 162 0
141 156 0
122 140 0
140 154 0
123 135 0
139 157 0
130 145 0
141 156 0
129 144 0
129 145 0
141 157 0
127 140 0
130 141 0
139 152 0
136 150 0
149 168 0
141 159 0
142 159 0
127 141 0
140 155 0
135 149 0
139 156 0
139 155 0
133 149 0
146 161 0
141 156 0
132 149 0
135 149 0
146 164 0
147 163 0
127 141 0
140 155 0
132 145 0
149 162 0
140 157 0
130 144 0
133 146 0
141 158 0
143 157 0
143 159 0
143 155 0
137 151 0
138 156 0
144 160 0
147 163 0
144 161 0
129 141 0
129 142 0
141 154 0
134 143 0
145 156 0
139 152 0
136 145 0
137 149 0
119 130 0
129 142 0
142 154 0
129 136 0
136 149 0
146 161 0
136 150 0
138 149 0
144 159 0
144 157 0
130 143 0
132 140 0
129 141 0
144 158 0
147 165 0
136 147 0
127 138 0
140 156 0
130 140 0
136 146 0
136 146 0
134 145 0
141 154 0
134 143 0
147 163 0
144 154 0
145 159 0
128 134 0
136 147 0
137 148 0
143 154 0
135 146 0
137 148 0
139 148 0
132 139 0
140 148 0
146 156 0
137 146 0
136 145 0
139 150 0
127 132 0
133 140 0
129 141 0
126 134 0
142 157 0
122 124 0
141 151 0
141 151 0
152 164 0
129 140 0
130 136 0
139 151 0
135 143 0
133 140 0
141 150 0
141 149 0
137 145 0
135 148 0
149 160 0
139 147 0
144 154 0
147 159 0
143 154 0
131 140 0
134 140 0
134 139 0
135 146 0
142 154 0
141 152 0
143 152 0
143 155 0
150 164 0
136 150 0
143 161 0
137 153 0
147 164 0
138 155 0
140 157 0
126 142 0
137 155 0
140 158 0
146 163 0
130 146 0
136 152 0
134 150 0
140 157 0
138 156 0
148 166 0
151 169 0
139 155 0
149 167 0
134 150 0
137 153 0
135 151 0
129 147 0
119 134 0
141 159 0
138 155 0
140 158 0
133 150 0
133 149 0
132 147 0
136 153 0
137 154 0
142 159 0
141 159 0
139 155 0
142 161 0
135 152 0
132 149 0
144 162 0
124 139 0
142 160 0
140 159 0
148 164 0
134 151 0
135 152 0
131 148 0
127 143 0
140 158 0
141 159 0
144 163 0
142 160 0
135 152 0
136 152 0
146 165 0
144 164 0
144 162 0
136 153 0
135 153 0
143 163 0
135 152 0
137 153 0
145 165 0
130 147 0
151 171 0
138 155 0
129 144 0
145 164 0
139 158 0
151 170 0
149 167 0
141 161 0
133 151 0
139 158 0
133 150 0
143 162 0
134 151 0
141 161 0
138 156 0
133 149 0
134 152 0
140 159 0
131 148 0
140 159 0
149 168 0
135 150 0
136 155 0
146 166 0
133 151 0
136 154 0
131 150 0
137 157 0
144 164 0
140 159 0
142 158 0
120 135 0
137 156 0
130 148 0
133 148 0
121 137 0
130 148 0
144 161 0
138 157 0
150 171 0
144 162 0
144 163 0
143 163 0
133 149 0
136 154 0
131 149 0
132 149 0
138 157 0
134 152 0
133 152 0
129 145 0
132 151 0
144 163 0
134 152 0
133 153 0
145 163 0
142 162 0
131 148 0
148 168 0
135 153 0
136 154 0
136 155 0
138 155 0
141 161 0
148 168 0
137 157 0
149 170 0
139 157 0
143 162 0
128 146 0
134 154 0
151 169 0
130 148 0
139 157 0
144 163 0
142 163 0
140 159 0
137 156 0
144 164 0
127 145 0
138 157 0
138 159 0
133 151 0
132 150 0
135 153 0
139 157 0
126 142 0
131 149 0
141 159 0
132 153 0
139 157 0
137 156 0
130 148 0
144 164 0
137 156 0
142 161 0
132 147 0
142 164 0
135 152 0
131 148 0
138 157 0
132 152 0
129 146 0
133 152 0
149 168 0
128 146 0
129 148 0
138 159 0
143 162 0
132 152 0
137 155 0
135 152 0
126 144 0
134 151 0
129 149 0
138 158 0
121 139 0
140 159 0
132 150 0
127 146 0
128 144 0
147 167 0
127 146 0
130 149 0
128 144 0
147 165 0
130 149 0
120 134 0
143 163 0
136 156 0
126 144 0
141 157 0
127 145 0
137 155 0
134 152 0
135 151 0
137 155 0
123 140 0
117 134 0
132 149 0
134 152 0
131 148 0
125 141 0
127 144 0
127 143 0
135 153 0
137 155 0
122 138 0
139 158 0
134 152 0
141 160 0
133 152 0
124 143 0
143 159 0
118 137 0
138 153 0
134 152 0
148 169 0
128 145 0
136 154 0
135 151 0
122 139 0
130 147 0
139 156 0
122 139 0
131 148 0
147 165 0
144 162 0
142 159 0
128 145 0
135 152 0
137 157 0
132 150 0
135 153 0
132 149 0
130 147 0
133 150 0
116 131 0
144 163 0
138 157 0
138 158 0
135 152 0
131 149 0
134 151 0
128 141 0
136 154 0
124 136 0
133 149 0
127 141 0
125 141 0
147 165 0
132 147 0
132 148 0
127 143 0
135 151 0
143 161 0
135 150 0
131 148 0
133 150 0
135 154 0
133 147 0
141 157 0
143 160 0
153 173 0
143 159 0
130 146 0
137 155 0
133 148 0
134 151 0
131 146 0
126 142 0
132 149 0
135 152 0
135 149 0
147 166 0
142 157 0
135 151 0
139 157 0
125 138 0
137 153 0
143 159 0
142 158 0
142 156 0
128 144 0
130 145 0
140 156 0
148 166 0
140 156 0
151 167 0
142 157 0
154 170 0
136 149 0
134 147 0
129 144 0
142 159 0
139 155 0
139 157 0
131 144 0
142 159 0
134 149 0
149 165 0
140 154 0
130 143 0
138 151 0
139 152 0
152 167 0
146 161 0
141 158 0
140 156 0
141 156 0
140 152 0
138 153 0
140 153 0
148 161 0
145 158 0
138 153 0
131 142 0
141 154 0
143 159 0
142 154 0
135 149 0
142 155 0
137 150 0
135 148 0
147 160 0
146 159 0
142 154 0
136 149 0
141 155 0
139 155 0
141 156 0
132 144 0
132 146 0
135 142 0
146 164 0
136 147 0
138 150 0
129 141 0
146 157 0
151 168 0
140 152 0
142 156 0
147 163 0
145 161 0
139 153 0
140 149 0
147 162 0
128 139 0
142 156 0
138 150 0
140 152 0
139 149 0
136 149 0
140 153 0
130 141 0
132 141 0
141 154 0
137 148 0
145 158 0
137 149 0
133 145 0
146 160 0
131 140 0
150 162 0
141 153 0
127 133 0
150 165 0
143 153 0
137 145 0
140 150 0
143 151 0
145 154 0
129 142 0
126 133 0
136 146 0
149 161 0
141 153 0
145 157 0
142 152 0
144 154 0
142 153 0
142 153 0
142 151 0
150 161 0
137 145 0
147 159 0
144 152 0
132 136 0
144 156 0
134 145 0
135 145 0
133 141 0
150 164 0
138 147 0
135 145 0
134 143 0
144 154 0
139 157 0
134 150 0
130 147 0
150 167 0
148 166 0
139 155 0
141 160 0
147 166 0
138 154 0
143 161 0
148 165 0
148 166 0
134 151 0
141 157 0
127 143 0
151 169 0
145 163 0
131 147 0
136 153 0
143 159 0
141 158 0
145 162 0
139 155 0
141 157 0
130 146 0
143 162 0
130 147 0
136 154 0
130 147 0
142 160 0
142 159 0
144 160 0
138 155 0
134 151 0
140 157 0
139 157 0
132 148 0
139 156 0
139 157 0
147 166 0
141 159 0
140 157 0
148 167 0
131 148 0
154 173 0
139 156 0
141 160 0
119 135 0
138 155 0
139 157 0
145 163 0
132 150 0
133 151 0
131 149 0
137 154 0
144 162 0
141 159 0
149 170 0
128 146 0
137 154 0
137 155 0
142 160 0
139 156 0
143 160 0
136 153 0
137 156 0
149 168 0
143 163 0
147 167 0
145 164 0
147 166 0
142 160 0
136 153 0
139 159 0
140 159 0
141 158 0
150 170 0
137 156 0
136 154 0
141 159 0
133 152 0
140 158 0
146 165 0
150 169 0
139 157 0
149 168 0
138 158 0
132 147 0
141 159 0
149 166 0
135 155 0
145 165 0
135 151 0
137 156 0
133 151 0
141 160 0
143 164 0
140 158 0
141 159 0
140 159 0
141 160 0
147 166 0
145 165 0
128 143 0
139 156 0
143 162 0
134 151 0
136 154 0
129 146 0
143 163 0
138 155 0
135 153 0
154 174 0
144 164 0
144 164 0
139 158 0
136 154 0
131 147 0
129 147 0
132 150 0
144 163 0
135 155 0
127 145 0
138 158 0
133 148 0
132 150 0
139 156 0
145 165 0
146 167 0
142 161 0
121 138 0
142 161 0
141 159 0
135 153 0
141 160 0
152 173 0
130 148 0
137 157 0
146 165 0
138 156 0
141 161 0
140 159 0
141 159 0
129 145 0
148 169 0
129 146 0
142 162 0
141 160 0
136 153 0
136 155 0
140 158 0
138 157 0
144 164 0
135 152 0
143 163 0
126 144 0
137 156 0
133 150 0
135 154 0
143 162 0
122 140 0
144 164 0
122 140 0
132 151 0
128 147 0
146 164 0
144 163 0
135 154 0
138 156 0
139 157 0
145 164 0
133 153 0
136 155 0
122 139 0
135 154 0
129 148 0
139 159 0
129 147 0
143 163 0
135 153 0
133 150 0
142 161 0
140 158 0
139 158 0
134 153 0
127 144 0
142 161 0
130 147 0
149 169 0
127 144 0
146 168 0
141 157 0
129 146 0
131 149 0
145 166 0
134 152 0
125 142 0
131 149 0
140 158 0
145 163 0
117 132 0
144 164 0
143 160 0
130 149 0
132 150 0
142 162 0
131 146 0
141 162 0
133 152 0
141 162 0
136 154 0
134 152 0
133 151 0
134 152 0
130 149 0
131 146 0
123 140 0
133 149 0
129 147 0
141 162 0
139 156 0
128 142 0
122 138 0
132 148 0
144 163 0
145 166 0
124 138 0
129 149 0
133 150 0
134 154 0
138 156 0
143 162 0
135 154 0
139 159 0
143 162 0
134 151 0
127 144 0
130 148 0
150 170 0
129 146 0
142 161 0
130 147 0
145 164 0
131 149 0
130 146 0
130 147 0
132 148 0
132 149 0
142 159 0
132 149 0
132 149 0
141 161 0
137 156 0
139 157 0
124 139 0
131 145 0
141 158 0
133 151 0
135 151 0
132 149 0
139 152 0
136 154 0
138 155 0
134 149 0
142 160 0
142 156 0
151 170 0
135 152 0
137 156 0
130 145 0
135 151 0
131 146 0
145 165 0
128 141 0
151 168 0
138 156 0
134 154 0
133 148 0
141 159 0
133 147 0
147 167 0
128 144 0
132 149 0
137 148 0
131 145 0
132 149 0
142 158 0
146 161 0
142 159 0
142 156 0
144 159 0
145 162 0
148 166 0
140 157 0
139 158 0
130 144 0
142 157 0
127 142 0
124 137 0
143 156 0
143 158 0
125 137 0
138 153 0
148 166 0
134 149 0
133 149 0
141 157 0
146 162 0
135 150 0
148 161 0
142 157 0
137 149 0
145 161 0
146 162 0
147 165 0
138 154 0
135 150 0
134 145 0
140 156 0
150 168 0
148 165 0
136 149 0
128 143 0
129 139 0
143 155 0
128 137 0
145 160 0
134 147 0
150 165 0
133 145 0
135 148 0
136 151 0
147 161 0
127 137 0
145 159 0
141 156 0
134 143 0
135 147 0
142 157 0
134 149 0
131 143 0
146 162 0
130 140 0
138 151 0
128 134 0
136 146 0
140 152 0
138 150 0
135 145 0
129 142 0
142 153 0
137 147 0
144 158 0
135 147 0
121 130 0
130 142 0
135 147 0
129 139 0
139 150 0
146 158 0
129 141 0
145 155 0
142 151 0
137 147 0
139 148 0
136 146 0
136 145 0
137 149 0
134 144 0
138 151 0
121 122 0
136 144 0
150 165 0
133 144 0
142 151 0
133 141 0
130 140 0
133 144 0
143 156 0
142 154 0
143 152 0
132 143 0
137 149 0
135 143 0
147 158 0
149 161 0
140 150 0
143 155 0
145 154 0
140 152 0
150 159 0
142 152 0
137 145 0
141 151 0
147 156 0
147 158 0
130 133 0
135 141 0
141 151 0
144 153 0
141 158 0
145 163 0
139 154 0
130 147 0
125 141 0
141 159 0
137 155 0
137 153 0
133 148 0
143 160 0
137 151 0
142 160 0
146 165 0
141 158 0
145 164 0
135 150 0
136 154 0
134 149 0
138 155 0
127 142 0
135 151 0
139 158 0
137 154 0
139 158 0
139 155 0
138 156 0
139 155 0
134 150 0
137 154 0
148 165 0
142 158 0
144 162 0
137 153 0
129 144 0
136 152 0
132 146 0
136 153 0
137 154 0
136 156 0
142 159 0
147 165 0
146 165 0
141 159 0
143 160 0
121 136 0
143 160 0
130 146 0
144 161 0
150 168 0
134 152 0
146 164 0
144 161 0
128 145 0
135 153 0
145 164 0
130 146 0
134 150 0
135 152 0
147 165 0
142 160 0
140 157 0
135 153 0
139 157 0
144 163 0
150 169 0
139 157 0
143 161 0
146 165 0
142 159 0
143 160 0
138 156 0
145 164 0
128 145 0
140 159 0
142 159 0
141 159 0
129 148 0
144 163 0
137 155 0
134 153 0
140 158 0
145 163 0
136 154 0
141 161 0
138 157 0
136 153 0
127 145 0
128 145 0
138 157 0
142 160 0
139 157 0
142 161 0
151 172 0
135 154 0
134 152 0
136 154 0
132 149 0
145 165 0
132 150 0
146 165 0
141 160 0
150 169 0
144 163 0
129 146 0
145 164 0
148 167 0
143 162 0
131 149 0
132 151 0
148 168 0
140 158 0
148 168 0
138 156 0
139 158 0
136 154 0
140 159 0
142 161 0
129 146 0
136 156 0
142 162 0
135 155 0
147 166 0
137 158 0
138 155 0
142 160 0
124 142 0
144 164 0
141 159 0
137 157 0
138 155 0
133 151 0
143 162 0
140 159 0
139 158 0
130 147 0
142 162 0
142 161 0
129 148 0
132 150 0
141 160 0
133 150 0
130 148 0
135 153 0
142 161 0
141 161 0
132 153 0
140 158 0
133 150 0
133 153 0
138 158 0
140 160 0
140 160 0
132 149 0
130 149 0
142 163 0
140 159 0
141 160 0
151 171 0
128 147 0
134 153 0
131 149 0
136 155 0
124 141 0
137 156 0
137 156 0
146 166 0
133 152 0
138 157 0
134 152 0
143 162 0
135 154 0
132 151 0
139 159 0
130 147 0
136 155 0
136 157 0
140 158 0
135 154 0
142 161 0
137 157 0
139 159 0
151 171 0
142 162 0
140 160 0
131 150 0
117 133 0
131 148 0
145 163 0
140 159 0
125 142 0
126 143 0
140 159 0
136 155 0
130 150 0
141 160 0
128 145 0
139 157 0
132 149 0
139 160 0
131 151 0
130 146 0
140 157 0
138 158 0
129 147 0
133 152 0
145 163 0
140 158 0
130 148 0
139 157 0
141 158 0
129 145 0
136 156 0
128 146 0
129 147 0
131 147 0
143 162 0
129 147 0
142 162 0
139 158 0
136 152 0
140 157 0
128 145 0
116 130 0
133 150 0
131 147 0
140 155 0
133 151 0
142 161 0
129 147 0
144 161 0
129 146 0
136 152 0
126 145 0
129 148 0
138 154 0
144 161 0
132 148 0
131 147 0
133 149 0
130 147 0
125 143 0
132 150 0
142 161 0
135 152 0
128 143 0
134 150 0
138 156 0
141 158 0
123 140 0
129 147 0
133 149 0
139 156 0
130 147 0
133 149 0
139 157 0
131 146 0
141 159 0
143 161 0
145 163 0
140 158 0
132 147 0
140 156 0
141 157 0
142 161 0
140 158 0
138 153 0
140 155 0
134 148 0
136 154 0
138 156 0
141 160 0
130 147 0
146 163 0
136 151 0
131 145 0
141 158 0
142 161 0
136 152 0
141 161 0
129 142 0
141 155 0
134 148 0
141 159 0
142 161 0
139 158 0
132 150 0
142 159 0
127 140 0
144 160 0
140 156 0
144 159 0
134 150 0
142 154 0
131 145 0
144 159 0
145 162 0
128 140 0
143 158 0
141 155 0
132 148 0
139 157 0
140 153 0
139 151 0
141 157 0
133 146 0
139 157 0
143 160 0
139 151 0
136 153 0
129 141 0
129 138 0
136 148 0
133 147 0
147 162 0
137 153 0
136 152 0
128 141 0
128 142 0
136 149 0
146 159 0
138 153 0
138 151 0
145 159 0
138 153 0
133 144 0
137 152 0
147 162 0
143 156 0
135 147 0
136 150 0
148 166 0
124 135 0
141 155 0
140 154 0
135 145 0
136 150 0
146 158 0
128 136 0
154 167 0
136 147 0
140 153 0
146 160 0
136 148 0
141 154 0
132 141 0
141 157 0
141 155 0
151 163 0
133 145 0
134 147 0
130 142 0
140 149 0
146 159 0
138 153 0
147 163 0
150 164 0
140 153 0
146 158 0
151 162 0
139 147 0
136 150 0
135 147 0
144 154 0
131 141 0
155 170 0
134 143 0
141 151 0
135 142 0
136 146 0
124 134 0
148 161 0
141 152 0
142 149 0
146 159 0
149 161 0
148 162 0
140 154 0
132 145 0
146 157 0
143 151 0
140 148 0
134 146 0
138 148 0
139 147 0
139 151 0
140 151 0
135 144 0
145 157 0
142 153 0
147 159 0
136 145 0
141 146 0
149 160 0
136 142 0
143 153 0
135 141 0
142 150 0
140 151 0
143 150 0
148 160 0
143 160 0
134 150 0
141 159 0
142 160 0
140 157 0
148 166 0
142 161 0
148 167 0
140 156 0
142 159 0
139 157 0
152 170 0
138 155 0
138 155 0
135 153 0
128 145 0
138 154 0
151 169 0
137 154 0
151 170 0
155 174 0
139 157 0
140 158 0
133 148 0
130 147 0
136 153 0
141 158 0
149 167 0
141 159 0
142 162 0
138 154 0
124 138 0
139 158 0
144 162 0
131 147 0
133 152 0
134 151 0
147 167 0
143 161 0
137 153 0
139 158 0
156 175 0
133 151 0
136 154 0
141 159 0
136 154 0
137 154 0
129 146 0
143 161 0
131 150 0
140 158 0
141 159 0
133 150 0
139 155 0
140 159 0
145 165 0
143 160 0
138 155 0
137 156 0
136 154 0
145 165 0
150 168 0
132 149 0
141 158 0
147 167 0
132 148 0
134 150 0
120 135 0
142 160 0
142 160 0
148 168 0
116 133 0
134 152 0
141 158 0
136 152 0
143 162 0
136 156 0
143 163 0
137 154 0
127 144 0
146 163 0
139 156 0
134 151 0
128 145 0
140 158 0
140 157 0
144 163 0
140 157 0
141 159 0
138 156 0
139 158 0
145 165 0
135 152 0
135 153 0
140 159 0
140 159 0
140 160 0
131 147 0
146 163 0
135 153 0
138 156 0
140 159 0
136 156 0
146 165 0
134 152 0
141 159 0
141 157 0
134 153 0
133 152 0
138 157 0
134 151 0
134 153 0
136 155 0
142 161 0
130 149 0
136 156 0
145 164 0
139 155 0
143 161 0
141 161 0
144 164 0
145 166 0
132 150 0
148 169 0
132 149 0
122 139 0
142 162 0
133 154 0
135 153 0
140 157 0
134 153 0
150 171 0
132 151 0
130 147 0
135 154 0
146 164 0
131 147 0
131 150 0
134 153 0
145 164 0
135 152 0
135 153 0
134 152 0
145 164 0
126 143 0
134 153 0
139 158 0
139 158 0
134 153 0
133 151 0
142 163 0
129 147 0
139 156 0
138 157 0
129 146 0
137 154 0
152 171 0
130 149 0
137 156 0
135 153 0
136 155 0
143 162 0
123 141 0
119 137 0
146 167 0
138 158 0
124 142 0
136 155 0
128 146 0
135 154 0
133 153 0
146 165 0
149 170 0
135 153 0
140 159 0
133 150 0
137 156 0
135 154 0
142 159 0
136 154 0
143 162 0
136 157 0
122 137 0
134 152 0
131 148 0
130 150 0
140 160 0
138 156 0
126 143 0
130 147 0
133 152 0
135 152 0
135 153 0
141 162 0
132 150 0
119 136 0
132 150 0
137 157 0
119 136 0
137 156 0
147 167 0
151 171 0
139 156 0
130 147 0
123 140 0
137 156 0
139 155 0
146 167 0
126 142 0
141 160 0
127 146 0
128 144 0
133 150 0
134 152 0
136 153 0
138 156 0
135 154 0
137 157 0
135 153 0
127 144 0
122 138 0
145 167 0
131 146 0
134 151 0
135 153 0
134 151 0
140 159 0
145 163 0
127 143 0
139 157 0
118 133 0
141 160 0
138 156 0
140 159 0
142 162 0
121 137 0
137 156 0
131 146 0
131 146 0
129 145 0
143 162 0
135 153 0
126 145 0
133 151 0
140 158 0
135 150 0
142 162 0
135 154 0
134 151 0
139 156 0
135 149 0
122 138 0
132 150 0
133 149 0
137 155 0
132 151 0
138 157 0
149 168 0
138 158 0
147 166 0
135 149 0
132 148 0
138 155 0
134 152 0
134 150 0
136 153 0
123 138 0
143 159 0
138 155 0
144 161 0
133 148 0
142 160 0
151 168 0
140 159 0
138 155 0
135 152 0
141 157 0
146 163 0
141 158 0
129 143 0
139 155 0
134 150 0
133 145 0
142 158 0
144 162 0
140 158 0
140 153 0
141 159 0
153 170 0
134 149 0
141 158 0
144 160 0
123 135 0
144 160 0
138 152 0
147 165 0
127 138 0
137 156 0
130 145 0
139 154 0
150 166 0
136 152 0
134 148 0
140 154 0
118 133 0
121 135 0
145 162 0
144 158 0
150 167 0
145 159 0
127 139 0
134 148 0
142 156 0
133 147 0
142 159 0
140 154 0
153 169 0
137 154 0
145 155 0
140 153 0
147 163 0
145 158 0
141 155 0
141 153 0
145 159 0
139 151 0
133 146 0
135 147 0
135 149 0
141 153 0
134 149 0
145 160 0
137 151 0
136 148 0
145 156 0
148 161 0
137 149 0
132 144 0
133 144 0
134 145 0
128 135 0
141 153 0
139 154 0
138 152 0
145 157 0
140 155 0
133 146 0
132 143 0
141 154 0
138 149 0
143 158 0
142 156 0
135 146 0
145 156 0
136 149 0
146 159 0
136 147 0
131 142 0
141 152 0
143 154 0
141 149 0
133 143 0
144 155 0
144 151 0
145 157 0
140 149 0
138 148 0
143 157 0
145 158 0
146 157 0
137 150 0
134 142 0
135 142 0
132 138 0
140 149 0
144 156 0
140 153 0
136 148 0
135 145 0
136 146 0
136 141 0
143 153 0
143 152 0
142 153 0
146 155 0
133 140 0
137 149 0
140 149 0
143 155 0
136 146 0
138 148 0
136 147 0
137 147 0
134 144 0
138 147 0
138 146 0
146 156 0
137 145 0
132 138 0
147 155 0
141 159 0
137 155 0
149 167 0
144 162 0
153 172 0
144 160 0
149 168 0
152 170 0
148 166 0
140 157 0
143 161 0
144 159 0
140 157 0
151 170 0
152 170 0
127 143 0
136 154 0
137 154 0
144 162 0
135 153 0
149 167 0
141 158 0
123 139 0
135 152 0
140 157 0
132 148 0
141 158 0
133 150 0
139 157 0
135 151 0
134 152 0
136 155 0
139 156 0
147 163 0
134 151 0
152 172 0
137 155 0
134 151 0
150 169 0
139 155 0
142 161 0
135 152 0
139 152 0
132 148 0
132 149 0
137 154 0
143 161 0
130 146 0
136 153 0
142 161 0
142 162 0
144 163 0
140 158 0
140 158 0
140 158 0
127 143 0
142 159 0
138 156 0
138 155 0
140 158 0
152 172 0
134 151 0
145 163 0
134 151 0
137 155 0
134 153 0
134 149 0
135 154 0
149 169 0
134 152 0
134 152 0
156 175 0
138 156 0
140 159 0
141 158 0
138 156 0
137 156 0
130 149 0
130 147 0
135 153 0
144 164 0
140 158 0
138 156 0
126 144 0
135 153 0
136 154 0
148 168 0
144 164 0
139 155 0
142 161 0
138 158 0
135 154 0
142 160 0
140 159 0
146 166 0
141 160 0
144 162 0
149 169 0
140 159 0
138 156 0
135 154 0
138 156 0
150 170 0
140 160 0
136 154 0
137 155 0
145 163 0
130 148 0
140 161 0
142 160 0
131 149 0
128 145 0
141 160 0
128 146 0
127 146 0
145 163 0
138 157 0
134 152 0
135 154 0
134 152 0
141 161 0
138 158 0
132 150 0
130 147 0
136 154 0
122 139 0
134 154 0
145 165 0
142 160 0
138 157 0
143 161 0
135 154 0
132 151 0
128 146 0
140 160 0
148 169 0
138 158 0
127 144 0
143 162 0
140 159 0
138 156 0
140 158 0
139 160 0
131 147 0
138 156 0
141 160 0
135 154 0
133 153 0
133 151 0
130 145 0
144 164 0
137 156 0
127 146 0
145 165 0
138 158 0
143 159 0
141 159 0
152 172 0
144 163 0
135 154 0
139 157 0
136 153 0
131 150 0
132 151 0
136 154 0
139 157 0
139 158 0
132 151 0
151 173 0
139 157 0
133 153 0
129 148 0
130 148 0
131 149 0
119 135 0
138 156 0
137 157 0
137 155 0
137 156 0
138 156 0
139 157 0
134 151 0
123 141 0
129 148 0
135 153 0
146 166 0
136 154 0
134 151 0
130 147 0
141 159 0
142 160 0
141 158 0
127 145 0
136 153 0
128 145 0
143 163 0
136 155 0
141 160 0
129 147 0
133 151 0
135 152 0
134 153 0
153 173 0
117 134 0
134 152 0
138 157 0
138 158 0
136 155 0
112 125 0
136 152 0
125 143 0
137 157 0
138 156 0
127 145 0
130 147 0
144 162 0
134 150 0
127 144 0
135 154 0
125 144 0
134 151 0
131 149 0
142 159 0
129 146 0
135 152 0
132 149 0
131 147 0
128 147 0
141 160 0
126 140 0
147 164 0
138 157 0
141 159 0
132 150 0
137 156 0
135 154 0
137 154 0
147 166 0
140 158 0
129 146 0
135 154 0
130 149 0
146 167 0
126 140 0
137 153 0
123 140 0
145 166 0
132 149 0
132 148 0
123 139 0
139 154 0
131 148 0
135 152 0
143 161 0
128 143 0
138 154 0
139 156 0
132 150 0
143 160 0
138 155 0
134 153 0
139 157 0
137 155 0
145 163 0
140 153 0
138 154 0
136 151 0
130 147 0
144 160 0
136 151 0
135 149 0
143 162 0
133 149 0
132 151 0
124 139 0
139 159 0
140 159 0
143 163 0
139 154 0
143 159 0
145 162 0
129 143 0
153 173 0
144 161 0
139 157 0
147 163 0
136 148 0
150 165 0
142 157 0
129 143 0
136 153 0
148 166 0
140 154 0
143 159 0
135 151 0
133 148 0
132 146 0
136 153 0
140 155 0
131 144 0
148 166 0
143 159 0
147 164 0
137 154 0
136 149 0
149 166 0
138 154 0
129 143 0
139 154 0
141 156 0
140 152 0
144 158 0
145 158 0
135 148 0
130 142 0
129 138 0
138 154 0
137 150 0
132 147 0
137 151 0
140 153 0
147 162 0
141 159 0
137 153 0
152 171 0
139 155 0
138 152 0
136 148 0
135 146 0
130 144 0
134 145 0
143 157 0
133 145 0
138 154 0
147 161 0
145 158 0
144 159 0
150 166 0
136 150 0
148 163 0
142 155 0
141 155 0
137 151 0
132 143 0
131 144 0
146 161 0
151 166 0
151 164 0
140 150 0
139 153 0
143 154 0
149 165 0
134 142 0
134 147 0
133 147 0
140 152 0
145 159 0
139 150 0
136 146 0
140 152 0
135 143 0
136 142 0
130 144 0
136 146 0
152 166 0
147 160 0
150 165 0
136 146 0
137 147 0
149 162 0
130 139 0
149 162 0
137 145 0
139 147 0
141 152 0
141 152 0
135 145 0
151 157 0
134 140 0
140 153 0
145 161 0
141 153 0
148 160 0
143 155 0
148 161 0
145 158 0
144 153 0
143 154 0
137 144 0
148 158 0
153 167 0
140 150 0
132 141 0
151 165 0
133 140 0
128 136 0
136 147 0
151 163 0
144 156 0
134 147 0
137 154 0
139 156 0
136 152 0
136 154 0
135 150 0
143 161 0
148 166 0
139 156 0
149 169 0
138 156 0
144 161 0
143 161 0
144 161 0
141 158 0
136 154 0
138 155 0
145 164 0
134 150 0
141 158 0
140 157 0
140 157 0
143 162 0
148 166 0
142 160 0
147 165 0
147 166 0
138 155 0
144 162 0
135 152 0
144 161 0
149 168 0
132 148 0
138 154 0
133 148 0
151 170 0
143 161 0
139 158 0
138 156 0
140 157 0
147 164 0
137 153 0
130 146 0
141 158 0
139 156 0
150 167 0
126 141 0
154 174 0
141 159 0
139 158 0
139 158 0
147 165 0
148 166 0
133 151 0
140 159 0
138 155 0
135 152 0
133 150 0
148 166 0
127 143 0
134 152 0
145 164 0
136 154 0
151 169 0
137 154 0
140 158 0
141 159 0
149 167 0
137 155 0
135 154 0
136 151 0
148 168 0
141 159 0
140 158 0
135 153 0
138 157 0
148 166 0
140 158 0
135 152 0
140 160 0
137 156 0
146 166 0
132 149 0
134 152 0
147 167 0
143 162 0
136 155 0
142 160 0
141 160 0
144 163 0
145 164 0
141 159 0
144 163 0
138 155 0
133 150 0
142 161 0
134 152 0
146 164 0
136 153 0
144 159 0
135 154 0
147 166 0
132 149 0
143 162 0
143 163 0
149 171 0
138 157 0
136 154 0
137 156 0
135 153 0
136 156 0
133 150 0
143 161 0
144 163 0
140 160 0
130 146 0
146 164 0
148 167 0
139 159 0
144 164 0
134 153 0
140 158 0
136 154 0
146 165 0
143 163 0
136 155 0
137 156 0
127 145 0
134 152 0
148 168 0
144 165 0
127 144 0
142 161 0
139 159 0
131 149 0
142 159 0
129 146 0
123 142 0
140 160 0
134 152 0
146 166 0
137 156 0
139 159 0
132 151 0
139 159 0
133 151 0
140 157 0
140 161 0
134 152 0
127 145 0
133 151 0
131 151 0
142 162 0
139 158 0
143 161 0
142 163 0
134 152 0
139 158 0
143 164 0
130 146 0
134 150 0
132 149 0
133 151 0
135 152 0
128 146 0
139 160 0
131 149 0
136 156 0
123 141 0
140 158 0
131 150 0
134 153 0
137 158 0
137 152 0
131 148 0
132 149 0
142 160 0
138 157 0
135 152 0
137 155 0
144 165 0
121 138 0
122 136 0
135 156 0
133 150 0
124 139 0
137 153 0
132 148 0
140 160 0
131 149 0
138 156 0
132 151 0
138 156 0
137 154 0
137 155 0
124 141 0
143 161 0
129 145 0
133 152 0
131 150 0
146 164 0
136 153 0
125 142 0
130 148 0
132 150 0
124 141 0
144 163 0
130 149 0
129 147 0
130 144 0
145 164 0
138 157 0
135 152 0
135 153 0
135 152 0
149 168 0
138 155 0
125 143 0
132 149 0
140 160 0
143 161 0
128 144 0
131 150 0
135 155 0
130 147 0
130 145 0
137 156 0
136 155 0
152 170 0
127 145 0
133 150 0
139 159 0
142 161 0
129 144 0
122 141 0
133 151 0
143 160 0
136 153 0
141 162 0
145 166 0
134 147 0
143 159 0
135 152 0
140 157 0
138 155 0
140 158 0
139 156 0
133 150 0
149 167 0
133 150 0
141 161 0
144 163 0
139 158 0
138 156 0
142 162 0
149 165 0
132 147 0
150 171 0
137 154 0
146 164 0
133 148 0
149 169 0
133 148 0
137 155 0
139 158 0
150 167 0
128 144 0
130 144 0
138 157 0
137 153 0
136 152 0
142 159 0
133 149 0
128 144 0
133 150 0
153 173 0
146 164 0
138 154 0
135 150 0
142 160 0
129 145 0
123 139 0
134 149 0
141 158 0
139 156 0
147 166 0
143 160 0
135 148 0
138 154 0
141 155 0
134 151 0
143 159 0
141 157 0
139 156 0
129 142 0
140 158 0
139 156 0
141 158 0
132 147 0
152 171 0
144 162 0
139 155 0
131 144 0
128 144 0
133 145 0
134 148 0
129 144 0
135 148 0
143 158 0
133 147 0
139 152 0
142 157 0
143 159 0
140 157 0
129 142 0
140 153 0
116 131 0
146 159 0
150 166 0
152 167 0
132 147 0
145 161 0
135 151 0
145 160 0
133 148 0
145 160 0
136 151 0
143 158 0
147 162 0
138 150 0
142 155 0
136 149 0
140 156 0
135 148 0
136 151 0
138 151 0
129 140 0
148 162 0
141 157 0
144 160 0
139 153 0
135 150 0
129 142 0
137 151 0
141 152 0
133 146 0
138 154 0
132 144 0
141 154 0
141 153 0
138 150 0
142 153 0
145 158 0
147 162 0
135 150 0
129 139 0
146 161 0
153 167 0
138 148 0
142 154 0
140 153 0
141 149 0
136 147 0
139 153 0
144 158 0
148 162 0
142 156 0
155 168 0
139 152 0
140 153 0
145 159 0
141 148 0
136 146 0
143 157 0
138 148 0
147 158 0
140 152 0
138 153 0
148 162 0
138 150 0
145 156 0
147 156 0
141 154 0
149 160 0
141 151 0
135 145 0
143 151 0
137 148 0
143 152 0
146 157 0
142 154 0
142 155 0
150 159 0
148 161 0
144 157 0
143 155 0
144 154 0
148 162 0
141 151 0
142 152 0
149 161 0
132 149 0
150 169 0
132 149 0
152 171 0
143 161 0
137 152 0
146 164 0
148 167 0
147 166 0
140 156 0
131 148 0
146 164 0
130 145 0
145 165 0
136 154 0
141 159 0
142 160 0
136 154 0
142 159 0
149 166 0
140 157 0
143 159 0
139 157 0
144 162 0
139 156 0
131 149 0
140 157 0
147 165 0
143 160 0
148 166 0
136 155 0
143 162 0
131 147 0
149 168 0
135 152 0
128 145 0
145 163 0
146 165 0
141 158 0
140 159 0
143 161 0
142 160 0
148 168 0
144 161 0
136 153 0
138 157 0
141 160 0
138 155 0
136 155 0
144 163 0
133 151 0
139 157 0
141 158 0
147 164 0
131 147 0
144 163 0
129 146 0
146 164 0
141 160 0
132 149 0
134 150 0
132 149 0
138 155 0
137 152 0
135 153 0
134 151 0
147 166 0
139 157 0
130 148 0
138 156 0
140 159 0
140 158 0
131 148 0
137 154 0
147 168 0
144 163 0
152 172 0
143 163 0
147 166 0
135 154 0
132 149 0
140 158 0
141 159 0
134 154 0
127 144 0
138 156 0
137 156 0
144 165 0
143 160 0
136 155 0
132 149 0
137 157 0
151 171 0
144 162 0
118 134 0
135 152 0
134 154 0
134 152 0
125 144 0
152 171 0
148 167 0
149 169 0
135 155 0
123 140 0
147 167 0
137 155 0
137 154 0
139 159 0
136 154 0
145 165 0
146 166 0
146 167 0
141 159 0
136 154 0
135 154 0
133 152 0
133 152 0
143 162 0
138 158 0
142 161 0
139 158 0
141 161 0
131 148 0
128 144 0
131 148 0
152 172 0
141 160 0
135 151 0
140 159 0
121 138 0
135 154 0
153 173 0
141 160 0
135 152 0
135 152 0
141 161 0
145 164 0
144 165 0
136 153 0
134 154 0
142 161 0
134 153 0
148 166 0
145 164 0
146 166 0
131 149 0
136 156 0
143 163 0
144 164 0
137 157 0
134 153 0
128 146 0
127 145 0
143 161 0
141 160 0
131 150 0
131 147 0
134 152 0
121 137 0
138 158 0
136 156 0
141 160 0
139 158 0
143 162 0
135 155 0
146 166 0
132 151 0
129 147 0
129 147 0
132 150 0
138 158 0
141 161 0
134 151 0
137 156 0
132 150 0
131 150 0
135 152 0
129 149 0
149 169 0
144 163 0
137 156 0
136 155 0
125 143 0
144 162 0
140 160 0
142 160 0
129 147 0
142 160 0
143 161 0
142 161 0
133 150 0
126 142 0
132 147 0
137 155 0
137 156 0
136 154 0
132 148 0
142 161 0
144 165 0
147 166 0
148 167 0
142 162 0
142 162 0
139 158 0
139 157 0
136 154 0
131 151 0
144 164 0
147 168 0
137 154 0
132 147 0
131 150 0
135 152 0
134 151 0
132 151 0
133 151 0
147 167 0
136 153 0
133 152 0
125 141 0
137 154 0
133 149 0
133 150 0
127 144 0
145 160 0
132 150 0
142 159 0
124 140 0
126 143 0
137 155 0
138 157 0
140 159 0
133 151 0
138 155 0
133 151 0
138 157 0
133 151 0
131 149 0
135 154 0
137 155 0
143 161 0
140 159 0
134 151 0
137 153 0
148 170 0
145 163 0
141 157 0
141 160 0
134 153 0
138 158 0
132 149 0
129 146 0
136 155 0
148 164 0
139 157 0
143 162 0
142 160 0
141 160 0
135 153 0
140 157 0
134 150 0
135 152 0
126 140 0
134 149 0
131 146 0
128 142 0
136 155 0
135 150 0
142 160 0
134 151 0
139 156 0
129 146 0
130 146 0
138 155 0
146 163 0
148 166 0
148 163 0
141 157 0
133 147 0
130 145 0
124 140 0
136 153 0
138 157 0
144 162 0
148 166 0
142 160 0
124 141 0
142 162 0
140 154 0
135 151 0
137 153 0
133 152 0
134 148 0
123 138 0
140 156 0
125 141 0
125 141 0
141 155 0
138 154 0
136 151 0
137 152 0
142 155 0
139 156 0
142 157 0
140 156 0
128 142 0
133 151 0
146 164 0
142 158 0
136 153 0
138 152 0
134 149 0
146 161 0
144 160 0
144 160 0
141 155 0
141 156 0
146 159 0
139 156 0
148 164 0
140 152 0
150 168 0
142 156 0
138 154 0
146 163 0
144 158 0
127 136 0
144 155 0
140 155 0
145 161 0
125 134 0
143 157 0
136 151 0
138 152 0
134 148 0
132 145 0
144 158 0
133 148 0
140 152 0
142 161 0
148 165 0
129 139 0
146 161 0
140 152 0
145 160 0
142 158 0
139 152 0
138 149 0
141 153 0
128 137 0
144 157 0
141 155 0
137 144 0
144 160 0
131 138 0
145 155 0
143 156 0
147 162 0
140 154 0
143 155 0
138 150 0
131 142 0
132 145 0
146 158 0
139 150 0
142 155 0
140 151 0
147 160 0
137 148 0
139 148 0
145 158 0
132 140 0
141 153 0
139 152 0
145 158 0
140 154 0
148 161 0
153 167 0
145 155 0
139 148 0
141 152 0
158 173 0
146 159 0
144 156 0
142 154 0
137 147 0
141 149 0
154 166 0
134 138 0
129 135 0
139 150 0
135 143 0
147 159 0
138 151 0
132 135 0
145 157 0
132 142 0
139 156 0
152 167 0
135 144 0
140 159 0
147 163 0
144 161 0
139 155 0
146 163 0
133 149 0
150 168 0
141 157 0
156 173 0
147 167 0
141 157 0
152 171 0
143 160 0
152 169 0
131 147 0
145 161 0
150 168 0
135 152 0
144 164 0
139 156 0
139 155 0
142 159 0
135 149 0
138 153 0
142 160 0
142 161 0
137 153 0
147 165 0
142 161 0
144 163 0
140 158 0
139 157 0
146 165 0
140 157 0
138 155 0
133 149 0
132 148 0
140 158 0
138 156 0
150 169 0
144 163 0
148 165 0
146 165 0
137 154 0
145 164 0
134 151 0
126 139 0
141 159 0
148 167 0
141 159 0
137 154 0
143 161 0
132 147 0
134 150 0
144 163 0
147 165 0
155 175 0
144 164 0
150 170 0
144 165 0
153 173 0
134 152 0
147 166 0
146 165 0
146 164 0
138 156 0
145 164 0
126 143 0
137 156 0
139 158 0
132 150 0
140 159 0
153 172 0
138 157 0
134 152 0
149 169 0
129 143 0
138 156 0
140 159 0
141 160 0
136 156 0
129 146 0
149 166 0
145 162 0
133 151 0
140 157 0
139 156 0
135 154 0
140 158 0
146 167 0
148 168 0
149 169 0
134 153 0
138 158 0
136 155 0
148 170 0
136 156 0
140 159 0
132 149 0
140 158 0
146 167 0
147 167 0
132 150 0
143 162 0
141 162 0
134 153 0
130 148 0
146 167 0
135 154 0
143 161 0
142 160 0
141 160 0
142 163 0
143 163 0
143 163 0
122 138 0
142 162 0
149 170 0
140 157 0
142 162 0
143 163 0
136 154 0
145 165 0
146 164 0
129 148 0
140 157 0
130 147 0
130 148 0
130 149 0
129 147 0
134 154 0
147 166 0
139 157 0
137 153 0
127 145 0
135 154 0
138 157 0
154 175 0
148 167 0
148 165 0
132 150 0
136 154 0
135 155 0
148 167 0
140 159 0
130 149 0
136 155 0
126 141 0
137 156 0
136 155 0
132 150 0
139 158 0
137 155 0
134 152 0
130 148 0
135 153 0
136 154 0
141 161 0
148 170 0
140 160 0
134 153 0
144 161 0
139 159 0
130 147 0
129 146 0
146 166 0
137 157 0
138 159 0
136 154 0
136 155 0
148 169 0
142 163 0
145 166 0
142 161 0
134 153 0
135 155 0
130 151 0
130 147 0
139 157 0
134 149 0
133 154 0
144 164 0
131 149 0
137 157 0
142 162 0
145 163 0
136 155 0
137 156 0
140 160 0
138 155 0
125 141 0
126 144 0
134 152 0
133 153 0
135 152 0
122 138 0
136 154 0
138 159 0
124 142 0
133 149 0
136 155 0
146 165 0
130 148 0
131 148 0
143 161 0
137 157 0
142 161 0
147 167 0
130 147 0
129 146 0
128 145 0
138 155 0
135 151 0
135 152 0
133 150 0
138 155 0
140 159 0
140 159 0
135 152 0
136 153 0
131 148 0
144 164 0
139 157 0
140 161 0
136 154 0
133 152 0
149 169 0
134 152 0
142 160 0
129 146 0
125 142 0
136 155 0
145 164 0
137 156 0
145 164 0
141 160 0
142 162 0
139 153 0
143 164 0
133 148 0
142 160 0
130 145 0
141 160 0
127 144 0
146 164 0
129 147 0
130 147 0
134 152 0
131 145 0
139 157 0
139 158 0
125 143 0
140 157 0
140 159 0
140 159 0
135 152 0
134 150 0
137 154 0
139 159 0
139 157 0
137 155 0
134 154 0
137 152 0
145 162 0
133 147 0
141 159 0
142 160 0
133 150 0
137 153 0
140 159 0
140 157 0
135 152 0
138 154 0
135 152 0
147 166 0
141 159 0
139 157 0
136 156 0
139 157 0
146 163 0
141 157 0
139 158 0
132 146 0
136 152 0
149 167 0
136 155 0
145 163 0
140 154 0
139 153 0
143 161 0
136 149 0
144 156 0
136 151 0
142 156 0
141 157 0
127 143 0
129 143 0
143 162 0
146 162 0
138 153 0
131 143 0
131 145 0
142 157 0
147 163 0
146 166 0
147 165 0
153 169 0
137 152 0
148 166 0
135 153 0
144 158 0
133 150 0
139 150 0
140 155 0
146 165 0
145 162 0
146 163 0
147 166 0
127 140 0
143 158 0
142 156 0
129 140 0
146 161 0
145 162 0
139 152 0
148 162 0
138 151 0
119 129 0
127 137 0
137 152 0
141 156 0
133 149 0
140 153 0
149 166 0
139 151 0
132 145 0
131 143 0
135 147 0
142 157 0
136 151 0
135 149 0
146 159 0
127 137 0
142 157 0
137 149 0
134 146 0
145 162 0
138 149 0
153 170 0
150 167 0
140 157 0
137 150 0
144 159 0
136 148 0
123 135 0
141 158 0
138 152 0
144 153 0
139 154 0
141 152 0
151 165 0
143 159 0
148 161 0
141 152 0
143 156 0
151 166 0
134 144 0
129 139 0
140 153 0
142 155 0
153 165 0
134 146 0
140 152 0
143 156 0
144 156 0
141 155 0
139 154 0
157 175 0
145 158 0
144 154 0
149 164 0
143 158 0
142 152 0
138 147 0
129 141 0
129 140 0
148 159 0
145 155 0
140 154 0
144 157 0
142 153 0
148 161 0
143 154 0
145 152 0
144 155 0
135 147 0
139 149 0
140 152 0
145 154 0
141 149 0
140 159 0
148 167 0
147 165 0
144 163 0
148 164 0
139 159 0
150 168 0
138 155 0
140 156 0
131 148 0
132 148 0
146 164 0
151 171 0
144 161 0
148 166 0
146 164 0
137 154 0
135 151 0
142 158 0
137 154 0
139 156 0
147 164 0
138 155 0
143 161 0
136 153 0
138 154 0
142 160 0
148 165 0
141 159 0
141 159 0
149 168 0
151 171 0
143 161 0
136 153 0
141 158 0
138 155 0
136 154 0
130 146 0
144 162 0
153 172 0
143 161 0
140 158 0
150 169 0
145 163 0
133 152 0
134 153 0
145 164 0
144 165 0
146 164 0
143 161 0
143 161 0
151 170 0
139 157 0
143 162 0
138 156 0
140 158 0
142 161 0
134 151 0
136 155 0
135 153 0
151 171 0
134 152 0
143 162 0
140 157 0
130 146 0
143 160 0
143 160 0
138 156 0
149 168 0
146 165 0
151 170 0
136 155 0
143 162 0
148 167 0
139 155 0
132 150 0
146 166 0
141 159 0
139 158 0
138 154 0
137 155 0
145 162 0
146 165 0
139 155 0
139 158 0
138 157 0
124 142 0
136 155 0
139 160 0
143 162 0
130 147 0
138 156 0
140 159 0
145 166 0
135 154 0
133 153 0
142 162 0
146 167 0
144 163 0
146 165 0
132 149 0
144 164 0
137 156 0
149 168 0
122 141 0
133 152 0
124 141 0
140 159 0
138 156 0
129 147 0
144 165 0
130 149 0
138 157 0
150 170 0
141 160 0
140 159 0
141 159 0
132 150 0
131 148 0
139 157 0
148 168 0
125 142 0
129 146 0
140 159 0
141 160 0
134 152 0
128 143 0
142 160 0
143 163 0
128 146 0
140 158 0
136 155 0
135 153 0
132 148 0
152 171 0
138 157 0
131 152 0
138 158 0
151 171 0
128 145 0
139 154 0
137 156 0
126 144 0
135 153 0
142 160 0
143 163 0
138 159 0
137 156 0
137 156 0
140 160 0
135 155 0
136 157 0
147 165 0
140 160 0
136 155 0
136 152 0
134 151 0
137 155 0
128 145 0
136 155 0
147 168 0
140 159 0
134 152 0
133 152 0
137 157 0
131 149 0
136 156 0
137 156 0
128 147 0
135 154 0
121 140 0
158 180 0
138 158 0
136 154 0
141 161 0
136 155 0
144 165 0
135 152 0
132 153 0
135 153 0
144 163 0
133 151 0
132 151 0
140 158 0
141 159 0
132 150 0
146 165 0
141 162 0
142 162 0
144 161 0
134 153 0
140 160 0
123 141 0
128 145 0
133 151 0
128 146 0
135 154 0
135 152 0
144 165 0
128 146 0
144 167 0
136 155 0
126 144 0
141 161 0
140 158 0
126 143 0
142 162 0
138 156 0
143 160 0
135 154 0
147 166 0
133 150 0
131 148 0
126 141 0
125 142 0
138 157 0
141 160 0
129 146 0
130 148 0
124 142 0
131 148 0
131 151 0
136 154 0
133 152 0
139 157 0
142 163 0
136 154 0
139 157 0
139 157 0
132 147 0
134 153 0
140 157 0
146 163 0
132 149 0
139 157 0
143 162 0
135 152 0
134 152 0
140 158 0
149 169 0
133 150 0
147 165 0
143 162 0
119 134 0
131 149 0
138 158 0
142 161 0
150 170 0
136 151 0
144 164 0
142 159 0
133 149 0
132 150 0
133 150 0
129 147 0
148 166 0
148 168 0
138 155 0
132 148 0
139 156 0
135 152 0
147 166 0
142 161 0
154 171 0
139 154 0
137 154 0
132 148 0
141 161 0
147 165 0
153 171 0
143 163 0
132 148 0
149 169 0
152 170 0
135 153 0
142 156 0
145 162 0
141 159 0
132 147 0
136 152 0
135 151 0
134 149 0
131 146 0
136 151 0
140 159 0
141 158 0
130 143 0
133 150 0
144 162 0
133 147 0
135 152 0
142 159 0
136 151 0
146 163 0
140 155 0
132 147 0
144 161 0
140 153 0
139 153 0
136 152 0
145 161 0
148 164 0
135 152 0
142 157 0
127 141 0
140 156 0
135 147 0
143 156 0
145 163 0
132 148 0
150 167 0
138 155 0
145 160 0
137 156 0
151 168 0
132 144 0
146 162 0
141 157 0
136 151 0
143 162 0
137 150 0
136 149 0
141 155 0
143 159 0
132 146 0
150 165 0
132 145 0
138 155 0
145 162 0
142 158 0
141 158 0
142 160 0
128 144 0
139 155 0
139 152 0
141 155 0
138 151 0
144 157 0
136 150 0
135 149 0
150 168 0
128 143 0
149 164 0
147 162 0
147 163 0
135 148 0
141 153 0
137 149 0
140 149 0
143 161 0
144 159 0
148 165 0
146 161 0
144 159 0
137 151 0
156 172 0
140 154 0
146 161 0
141 158 0
129 143 0
140 151 0
148 162 0
150 165 0
147 165 0
145 153 0
138 150 0
144 152 0
153 167 0
134 145 0
150 165 0
147 160 0
140 150 0
138 150 0
143 154 0
150 164 0
128 135 0
147 161 0
144 157 0
142 152 0
141 151 0
141 154 0
135 145 0
152 168 0
133 140 0
133 142 0
134 143 0
148 159 0
139 151 0
146 156 0
140 151 0
143 156 0
132 140 0
151 166 0
134 141 0
154 164 0
140 151 0
137 146 0
142 154 0
138 154 0
149 163 0
143 161 0
145 162 0
142 161 0
138 155 0
137 155 0
141 159 0
154 173 0
140 158 0
146 165 0
142 160 0
130 146 0
143 162 0
144 162 0
133 151 0
144 162 0
140 158 0
136 153 0
153 173 0
132 148 0
141 160 0
132 147 0
136 153 0
143 161 0
131 149 0
151 171 0
143 162 0
139 157 0
143 161 0
146 164 0
143 162 0
140 157 0
153 172 0
141 158 0
148 166 0
136 152 0
141 159 0
150 169 0
143 161 0
139 158 0
127 143 0
131 148 0
137 155 0
137 156 0
137 153 0
141 158 0
138 156 0
147 162 0
148 167 0
140 159 0
142 162 0
137 154 0
143 160 0
136 153 0
129 147 0
137 154 0
143 161 0
143 163 0
139 156 0
148 168 0
143 162 0
134 152 0
148 166 0
142 160 0
137 156 0
139 156 0
135 152 0
143 162 0
139 158 0
135 154 0
149 167 0
145 164 0
144 164 0
149 169 0
139 156 0
148 169 0
143 164 0
145 163 0
145 165 0
141 162 0
143 162 0
134 152 0
132 149 0
136 155 0
143 161 0
144 164 0
144 165 0
137 157 0
140 157 0
143 162 0
137 156 0
146 167 0
140 157 0
124 140 0
140 160 0
140 157 0
133 151 0
140 160 0
144 163 0
153 172 0
140 159 0
138 157 0
123 143 0
153 173 0
132 149 0
144 164 0
147 167 0
141 161 0
126 144 0
131 147 0
140 158 0
152 172 0
142 160 0
145 162 0
137 154 0
144 165 0
137 156 0
135 154 0
148 167 0
126 144 0
138 156 0
135 152 0
144 164 0
142 163 0
142 160 0
135 154 0
132 150 0
140 157 0
147 167 0
131 150 0
120 138 0
136 156 0
140 158 0
150 169 0
136 153 0
143 162 0
145 163 0
120 138 0
136 156 0
147 166 0
142 161 0
128 144 0
157 178 0
135 153 0
135 150 0
140 159 0
136 153 0
149 170 0
132 152 0
131 148 0
137 156 0
143 161 0
131 148 0
135 153 0
143 161 0
134 154 0
146 164 0
135 152 0
139 159 0
139 157 0
138 158 0
139 157 0
137 157 0
135 154 0
138 156 0
136 153 0
147 166 0
137 158 0
131 150 0
131 150 0
133 152 0
132 151 0
127 144 0
140 159 0
129 148 0
151 172 0
133 151 0
147 168 0
143 161 0
140 157 0
135 152 0
131 149 0
143 162 0
123 139 0
131 151 0
134 151 0
142 160 0
135 152 0
132 151 0
137 157 0
148 169 0
145 163 0
132 150 0
125 141 0
142 160 0
143 163 0
139 158 0
141 159 0
132 150 0
140 160 0
126 141 0
139 158 0
127 143 0
146 165 0
145 164 0
124 138 0
121 137 0
137 154 0
137 154 0
138 157 0
145 166 0
143 160 0
142 159 0
134 154 0
133 151 0
127 142 0
137 154 0
138 155 0
148 170 0
134 152 0
143 162 0
141 158 0
124 139 0
147 166 0
133 150 0
141 158 0
132 148 0
134 154 0
133 152 0
139 159 0
140 157 0
127 146 0
144 161 0
141 159 0
146 163 0
136 154 0
147 167 0
132 151 0
133 150 0
132 148 0
146 165 0
143 162 0
126 142 0
148 170 0
142 159 0
143 161 0
148 168 0
140 158 0
141 160 0
146 165 0
143 158 0
131 150 0
137 156 0
144 164 0
133 150 0
146 165 0
138 154 0
137 154 0
138 153 0
140 159 0
127 142 0
127 142 0
147 167 0
144 162 0
116 129 0
137 151 0
131 145 0
135 153 0
140 158 0
141 159 0
141 160 0
135 151 0
147 163 0
141 156 0
134 147 0
138 154 0
121 136 0
133 149 0
128 145 0
134 153 0
142 157 0
143 160 0
137 154 0
136 153 0
139 155 0
141 158 0
138 150 0
133 149 0
142 156 0
145 160 0
141 156 0
131 147 0
128 141 0
140 157 0
129 146 0
124 138 0
132 148 0
146 162 0
140 157 0
145 165 0
127 143 0
146 163 0
139 156 0
147 167 0
145 162 0
138 153 0
141 156 0
145 158 0
138 154 0
135 151 0
141 157 0
140 156 0
141 154 0
152 168 0
153 172 0
142 160 0
139 152 0
140 154 0
139 154 0
133 149 0
144 158 0
147 160 0
135 151 0
150 167 0
140 157 0
142 160 0
122 131 0
143 157 0
138 150 0
148 164 0
143 159 0
144 161 0
144 158 0
139 153 0
142 156 0
133 141 0
132 144 0
150 162 0
140 153 0
145 161 0
139 152 0
137 150 0
144 161 0
148 164 0
141 158 0
140 153 0
152 168 0
130 141 0
137 150 0
145 161 0
136 149 0
139 150 0
138 151 0
134 149 0
148 164 0
143 157 0
159 173 0
147 160 0
144 157 0
136 148 0
140 153 0
135 146 0
146 159 0
135 145 0
144 159 0
143 158 0
149 164 0
151 168 0
151 166 0
147 163 0
150 164 0
139 154 0
144 156 0
142 154 0
138 153 0
141 152 0
143 156 0
141 151 0
141 151 0
135 147 0
150 163 0
155 170 0
139 153 0
132 143 0
151 166 0
131 145 0
140 151 0
136 145 0
145 156 0
134 140 0
144 156 0
146 161 0
138 149 0
148 163 0
135 144 0
141 152 0
140 150 0
149 159 0
133 141 0
140 156 0
145 160 0
142 160 0
137 154 0
159 178 0
140 157 0
146 165 0
142 159 0
141 157 0
143 160 0
153 172 0
145 164 0
147 165 0
148 165 0
149 166 0
131 146 0
149 168 0
150 168 0
140 159 0
147 165 0
147 165 0
135 151 0
147 166 0
145 165 0
139 158 0
132 148 0
136 154 0
133 151 0
136 153 0
141 159 0
130 146 0
141 160 0
152 171 0
142 160 0
140 157 0
139 155 0
148 167 0
131 148 0
138 155 0
133 149 0
130 147 0
136 152 0
145 163 0
146 164 0
141 160 0
139 157 0
138 157 0
140 158 0
138 156 0
140 159 0
145 163 0
144 162 0
136 155 0
143 159 0
146 167 0
144 162 0
136 153 0
144 161 0
146 165 0
138 157 0
135 153 0
143 161 0
138 157 0
136 152 0
131 149 0
128 143 0
148 168 0
150 169 0
145 163 0
148 166 0
137 156 0
150 170 0
138 155 0
140 158 0
140 160 0
145 164 0
135 152 0
141 162 0
138 157 0
136 156 0
150 169 0
140 160 0
146 166 0
137 155 0
141 160 0
144 163 0
149 168 0
133 149 0
135 153 0
133 150 0
137 155 0
154 172 0
140 158 0
140 158 0
141 160 0
138 156 0
154 176 0
139 158 0
144 162 0
146 166 0
135 153 0
145 164 0
138 157 0
148 169 0
148 168 0
134 150 0
144 164 0
140 159 0
146 164 0
140 161 0
143 162 0
142 161 0
128 144 0
134 153 0
143 163 0
140 160 0
143 163 0
148 169 0
132 149 0
153 172 0
143 163 0
150 169 0
140 159 0
141 160 0
145 164 0
146 165 0
145 165 0
145 164 0
147 167 0
136 155 0
139 158 0
156 177 0
146 168 0
145 166 0
137 156 0
133 152 0
133 152 0
129 149 0
133 153 0
133 150 0
133 151 0
136 155 0
143 162 0
144 164 0
127 145 0
136 153 0
133 151 0
143 163 0
137 153 0
136 153 0
138 158 0
129 147 0
139 158 0
148 167 0
141 161 0
136 157 0
131 147 0
141 159 0
131 149 0
139 158 0
133 152 0
136 153 0
124 141 0
129 146 0
122 141 0
137 154 0
132 149 0
141 160 0
139 157 0
148 167 0
127 144 0
142 161 0
146 165 0
131 149 0
133 151 0
135 153 0
139 159 0
139 159 0
142 164 0
127 144 0
147 167 0
147 168 0
135 154 0
123 139 0
139 159 0
133 151 0
144 162 0
139 157 0
125 143 0
132 150 0
133 152 0
133 151 0
141 157 0
131 147 0
146 164 0
139 158 0
138 154 0
138 152 0
131 150 0
133 153 0
139 156 0
139 159 0
145 163 0
134 152 0
133 151 0
140 158 0
128 146 0
130 149 0
130 145 0
143 160 0
134 153 0
138 156 0
140 159 0
148 168 0
141 160 0
142 162 0
146 164 0
139 158 0
138 156 0
140 160 0
136 155 0
132 148 0
132 148 0
129 146 0
142 160 0
144 163 0
135 154 0
144 162 0
143 162 0
144 162 0
147 164 0
129 145 0
150 169 0
147 166 0
135 153 0
123 140 0
144 164 0
135 151 0
139 156 0
137 156 0
136 156 0
143 161 0
136 153 0
146 165 0
144 165 0
130 146 0
140 157 0
130 148 0
145 162 0
146 164 0
135 153 0
145 162 0
140 158 0
137 153 0
127 143 0
143 160 0
138 156 0
139 155 0
140 156 0
138 156 0
140 159 0
136 153 0
151 172 0
142 160 0
125 142 0
133 150 0
139 155 0
131 148 0
131 149 0
133 149 0
146 166 0
148 167 0
138 156 0
146 165 0
143 161 0
145 165 0
136 152 0
138 154 0
146 163 0
138 154 0
135 150 0
150 168 0
140 156 0
138 155 0
134 153 0
128 146 0
143 161 0
137 156 0
145 161 0
133 150 0
139 155 0
132 146 0
144 163 0
148 164 0
136 152 0
133 150 0
136 151 0
118 130 0
132 145 0
133 149 0
142 161 0
140 158 0
147 164 0
142 159 0
139 156 0
142 161 0
135 149 0
142 160 0
133 150 0
131 146 0
137 154 0
141 157 0
139 153 0
138 152 0
150 168 0
151 170 0
127 141 0
140 155 0
137 152 0
141 159 0
141 156 0
139 156 0
142 158 0
138 152 0
147 163 0
145 157 0
139 157 0
146 162 0
131 145 0
142 158 0
134 149 0
144 158 0
138 152 0
139 154 0
136 150 0
143 161 0
132 146 0
145 160 0
140 153 0
149 168 0
150 167 0
143 159 0
147 162 0
155 171 0
135 146 0
137 147 0
146 157 0
143 155 0
137 148 0
137 150 0
140 155 0
131 144 0
128 142 0
136 151 0
141 155 0
140 153 0
137 151 0
146 161 0
131 142 0
138 148 0
134 150 0
145 157 0
140 150 0
145 160 0
130 144 0
135 144 0
140 151 0
138 154 0
139 148 0
145 160 0
138 152 0
146 159 0
145 158 0
140 156 0
140 153 0
149 160 0
142 155 0
143 155 0
145 152 0
144 157 0
141 155 0
125 131 0
146 161 0
132 139 0
136 144 0
136 147 0
141 151 0
132 146 0
148 161 0
147 159 0
136 147 0
148 162 0
142 152 0
146 157 0
138 149 0
151 165 0
142 155 0
129 137 0
141 154 0
134 137 0
140 153 0
142 150 0
139 156 0
139 157 0
147 166 0
145 162 0
137 155 0
144 162 0
138 154 0
135 150 0
144 161 0
129 144 0
148 167 0
147 166 0
142 159 0
142 160 0
139 157 0
153 172 0
136 152 0
135 152 0
134 152 0
140 159 0
141 158 0
141 159 0
141 160 0
144 163 0
131 146 0
132 148 0
139 158 0
146 165 0
137 152 0
142 162 0
149 167 0
133 150 0
144 161 0
150 170 0
149 168 0
140 158 0
141 158 0
132 150 0
137 154 0
149 168 0
144 163 0
151 171 0
143 163 0
136 155 0
131 148 0
150 171 0
140 159 0
142 160 0
143 164 0
143 159 0
146 165 0
135 152 0
133 152 0
140 160 0
144 163 0
141 161 0
144 163 0
149 168 0
143 162 0
143 161 0
136 154 0
141 157 0
136 155 0
143 161 0
138 156 0
148 169 0
140 159 0
145 161 0
142 161 0
139 159 0
147 167 0
143 160 0
148 169 0
143 161 0
153 174 0
136 153 0
136 153 0
143 162 0
137 153 0
139 159 0
135 152 0
151 171 0
137 155 0
135 154 0
144 163 0
146 166 0
148 168 0
144 164 0
141 159 0
132 151 0
140 158 0
128 145 0
145 162 0
131 150 0
139 157 0
133 153 0
133 149 0
137 156 0
144 165 0
147 165 0
136 155 0
133 150 0
136 153 0
146 166 0
142 162 0
134 153 0
141 158 0
136 156 0
139 160 0
131 149 0
145 166 0
139 156 0
149 169 0
140 159 0
140 158 0
133 150 0
123 140 0
135 154 0
137 158 0
147 165 0
126 145 0
137 158 0
127 142 0
147 166 0
149 168 0
142 161 0
136 154 0
149 168 0
138 159 0
142 161 0
145 166 0
139 157 0
135 154 0
148 167 0
150 170 0
144 164 0
127 144 0
138 158 0
141 161 0
144 164 0
124 141 0
142 160 0
133 151 0
142 159 0
132 152 0
143 162 0
141 161 0
140 160 0
132 151 0
147 167 0
136 156 0
138 155 0
149 168 0
149 169 0
142 161 0
130 147 0
143 164 0
127 143 0
136 156 0
144 162 0
150 170 0
138 156 0
132 151 0
133 151 0
146 165 0
138 156 0
131 146 0
131 151 0
139 158 0
139 158 0
133 152 0
133 152 0
149 168 0
142 161 0
136 155 0
144 164 0
136 156 0
146 167 0
133 149 0
135 155 0
145 165 0
131 149 0
141 159 0
124 141 0
139 157 0
135 153 0
138 155 0
143 162 0
143 163 0
135 152 0
147 167 0
124 142 0
147 165 0
141 162 0
137 155 0
142 161 0
128 145 0
137 155 0
147 168 0
122 139 0
135 153 0
134 153 0
131 150 0
144 164 0
129 145 0
133 149 0
133 153 0
142 162 0
137 155 0
145 163 0
135 155 0
149 168 0
138 157 0
132 149 0
126 143 0
141 160 0
133 152 0
137 154 0
135 153 0
130 148 0
148 169 0
140 159 0
136 154 0
131 147 0
126 142 0
141 161 0
137 153 0
140 160 0
137 157 0
148 166 0
134 152 0
133 153 0
139 153 0
144 163 0
140 158 0
136 152 0
146 164 0
149 169 0
146 166 0
143 160 0
127 143 0
135 149 0
140 157 0
140 158 0
138 155 0
148 167 0
146 164 0
138 158 0
141 161 0
147 165 0
144 162 0
131 147 0
140 156 0
129 147 0
138 157 0
148 167 0
137 155 0
130 146 0
149 167 0
136 153 0
139 155 0
136 155 0
146 164 0
138 157 0
141 159 0
134 150 0
138 156 0
138 155 0
136 152 0
134 152 0
124 138 0
141 157 0
124 139 0
137 152 0
149 166 0
138 153 0
147 167 0
143 158 0
134 153 0
148 164 0
144 160 0
133 149 0
142 161 0
137 151 0
149 165 0
141 158 0
136 151 0
131 146 0
141 154 0
134 150 0
138 155 0
140 157 0
149 168 0
136 153 0
133 147 0
143 160 0
140 159 0
140 156 0
138 156 0
136 148 0
142 157 0
144 161 0
153 169 0
139 154 0
131 147 0
143 160 0
144 162 0
148 164 0
135 149 0
138 152 0
142 159 0
151 166 0
142 156 0
143 158 0
135 151 0
138 152 0
145 160 0
138 156 0
145 161 0
142 158 0
145 159 0
135 151 0
131 147 0
151 167 0
149 167 0
142 159 0
136 149 0
127 139 0
145 161 0
142 158 0
136 150 0
126 139 0
150 168 0
129 142 0
134 148 0
131 146 0
145 160 0
143 157 0
136 146 0
148 162 0
146 162 0
138 150 0
138 153 0
119 133 0
145 158 0
132 149 0
146 159 0
151 168 0
139 151 0
139 151 0
142 157 0
147 158 0
136 148 0
137 150 0
151 168 0
141 156 0
143 155 0
144 155 0
150 163 0
142 156 0
141 154 0
142 155 0
149 164 0
144 159 0
143 153 0
144 159 0
140 151 0
135 146 0
136 144 0
150 162 0
133 145 0
143 161 0
145 157 0
144 159 0
133 146 0
144 158 0
137 147 0
135 147 0
140 149 0
140 153 0
137 151 0
136 150 0
144 157 0
142 157 0
134 145 0
142 156 0
146 157 0
140 152 0
149 160 0
139 147 0
142 156 0
137 150 0
149 159 0
130 136 0
140 152 0
142 152 0
144 156 0
135 143 0
140 152 0
138 147 0
146 164 0
140 158 0
145 164 0
137 154 0
149 169 0
141 159 0
148 165 0
142 159 0
143 161 0
137 154 0
155 174 0
134 151 0
137 155 0
145 164 0
132 149 0
139 158 0
150 170 0
143 162 0
138 155 0
149 169 0
144 162 0
136 152 0
147 167 0
139 158 0
128 143 0
136 153 0
155 174 0
146 165 0
142 160 0
145 165 0
148 168 0
146 163 0
137 156 0
146 165 0
153 173 0
128 145 0
142 160 0
142 160 0
139 157 0
133 151 0
138 157 0
141 159 0
135 152 0
143 162 0
153 172 0
147 165 0
138 158 0
134 151 0
141 159 0
141 158 0
141 161 0
140 158 0
142 160 0
133 150 0
142 163 0
130 149 0
148 165 0
139 156 0
158 178 0
148 167 0
141 159 0
142 162 0
132 151 0
136 154 0
135 154 0
142 162 0
135 153 0
154 175 0
125 140 0
141 160 0
149 169 0
129 145 0
145 162 0
137 156 0
135 151 0
129 147 0
133 149 0
138 157 0
144 163 0
141 160 0
136 155 0
151 172 0
136 154 0
146 166 0
140 160 0
133 152 0
146 167 0
144 164 0
137 155 0
147 167 0
147 167 0
145 166 0
146 166 0
143 165 0
144 162 0
146 164 0
136 155 0
143 161 0
148 169 0
144 163 0
142 161 0
137 157 0
136 155 0
139 159 0
138 157 0
139 157 0
141 160 0
140 159 0
144 164 0
127 146 0
139 159 0
137 157 0
139 158 0
144 163 0
135 152 0
141 161 0
135 151 0
141 160 0
150 171 0
134 152 0
137 156 0
141 161 0
139 159 0
141 160 0
144 162 0
148 167 0
144 164 0
140 159 0
132 152 0
139 155 0
154 174 0
140 160 0
146 166 0
138 157 0
152 174 0
146 162 0
133 150 0
141 161 0
133 152 0
140 160 0
153 173 0
136 154 0
150 171 0
144 165 0
132 151 0
135 155 0
133 150 0
132 151 0
126 144 0
137 155 0
133 153 0
141 160 0
137 155 0
131 147 0
130 147 0
140 159 0
144 163 0
135 154 0
136 154 0
144 162 0
136 156 0
140 159 0
137 156 0
142 161 0
141 160 0
129 146 0
132 151 0
145 166 0
129 147 0
126 143 0
142 161 0
133 150 0
143 162 0
136 155 0
137 157 0
135 155 0
122 140 0
136 155 0
127 146 0
150 172 0
134 152 0
147 168 0
140 159 0
131 151 0
139 155 0
129 147 0
144 162 0
138 156 0
133 149 0
144 165 0
130 148 0
131 148 0
132 148 0
128 145 0
132 150 0
131 149 0
125 141 0
135 151 0
129 148 0
141 160 0
136 154 0
143 162 0
143 161 0
133 153 0
138 157 0
137 157 0
125 144 0
142 161 0
138 157 0
138 155 0
139 158 0
139 159 0
149 169 0
140 161 0
143 162 0
131 149 0
145 164 0
128 146 0
142 163 0
147 168 0
137 154 0
130 146 0
143 164 0
139 158 0
136 154 0
136 154 0
127 145 0
139 158 0
134 151 0
144 164 0
137 155 0
123 140 0
143 159 0
142 159 0
140 161 0
134 153 0
153 174 0
146 163 0
136 155 0
137 151 0
136 154 0
142 160 0
137 155 0
132 148 0
128 146 0
130 148 0
143 162 0
139 155 0
141 159 0
130 148 0
131 148 0
138 156 0
144 161 0
135 149 0
134 152 0
143 161 0
126 141 0
144 163 0
135 149 0
138 156 0
151 172 0
138 155 0
122 138 0
137 156 0
137 154 0
138 153 0
141 157 0
132 149 0
152 173 0
139 155 0
136 154 0
145 164 0
148 167 0
126 141 0
143 160 0
148 166 0
141 158 0
137 153 0
131 144 0
145 163 0
121 137 0
141 156 0
133 148 0
141 159 0
134 150 0
147 165 0
134 151 0
145 162 0
129 143 0
141 157 0
140 158 0
138 154 0
133 146 0
146 162 0
134 151 0
146 166 0
156 175 0
127 141 0
146 163 0
138 154 0
137 154 0
137 152 0
142 161 0
145 163 0
138 154 0
136 151 0
141 158 0
136 153 0
133 149 0
139 156 0
148 164 0
141 158 0
133 148 0
141 159 0
134 150 0
138 151 0
142 156 0
149 164 0
133 147 0
138 155 0
134 151 0
140 157 0
153 169 0
136 151 0
144 159 0
143 158 0
137 149 0
144 159 0
142 155 0
142 156 0
144 161 0
143 159 0
132 143 0
127 140 0
141 156 0
138 154 0
133 147 0
139 151 0
141 156 0
132 141 0
150 169 0
140 152 0
149 166 0
142 157 0
143 158 0
146 159 0
152 166 0
133 147 0
143 158 0
144 155 0
142 158 0
135 145 0
146 156 0
139 151 0
133 144 0
137 154 0
142 157 0
147 162 0
141 151 0
151 163 0
137 150 0
152 168 0
144 155 0
138 152 0
143 157 0
132 148 0
137 147 0
146 161 0
139 152 0
151 164 0
137 151 0
140 153 0
137 151 0
150 166 0
145 162 0
137 148 0
143 154 0
144 157 0
134 144 0
141 154 0
151 166 0
151 165 0
140 152 0
141 154 0
142 157 0
129 139 0
134 146 0
148 163 0
133 141 0
146 159 0
138 148 0
141 154 0
141 153 0
152 165 0
136 148 0
136 143 0
131 137 0
136 146 0
140 151 0
142 156 0
133 151 0
141 159 0
147 164 0
134 152 0
149 168 0
140 158 0
145 163 0
148 166 0
141 159 0
145 163 0
142 160 0
151 170 0
140 159 0
148 167 0
143 162 0
134 151 0
124 141 0
152 172 0
139 157 0
146 164 0
142 160 0
148 167 0
144 163 0
140 158 0
139 158 0
139 157 0
141 160 0
149 169 0
146 164 0
144 162 0
142 161 0
142 159 0
150 169 0
142 162 0
137 155 0
137 155 0
139 157 0
141 158 0
143 162 0
141 160 0
142 160 0
141 161 0
135 152 0
146 166 0
135 152 0
138 156 0
149 169 0
143 163 0
146 166 0
131 149 0
127 143 0
142 161 0
133 151 0
151 170 0
140 156 0
149 169 0
140 159 0
144 164 0
131 150 0
145 164 0
141 159 0
146 167 0
146 166 0
144 164 0
139 156 0
141 162 0
148 168 0
136 153 0
153 174 0
142 161 0
144 163 0
130 148 0
149 169 0
139 156 0
146 165 0
141 159 0
137 155 0
138 157 0
137 154 0
146 165 0
141 159 0
142 161 0
149 167 0
146 166 0
140 158 0
134 152 0
144 161 0
135 154 0
142 162 0
123 141 0
135 153 0
146 164 0
132 150 0
142 161 0
141 161 0
140 161 0
139 158 0
145 166 0
141 157 0
144 164 0
135 154 0
138 156 0
136 156 0
153 175 0
137 155 0
132 151 0
142 162 0
137 157 0
138 157 0
143 162 0
145 165 0
140 159 0
140 160 0
141 161 0
131 149 0
138 157 0
141 160 0
143 163 0
138 158 0
149 170 0
137 156 0
140 159 0
141 159 0
147 164 0
139 157 0
144 163 0
136 155 0
142 162 0
143 162 0
137 157 0
135 154 0
138 156 0
148 168 0
139 159 0
132 150 0
141 162 0
131 151 0
153 173 0
130 147 0
138 158 0
143 162 0
134 151 0
152 173 0
148 168 0
142 163 0
136 154 0
156 176 0
144 162 0
135 152 0
141 160 0
147 165 0
138 157 0
144 164 0
136 154 0
137 157 0
134 154 0
149 169 0
131 151 0
143 165 0
120 136 0
140 158 0
134 153 0
136 155 0
138 157 0
131 149 0
138 158 0
144 164 0
132 149 0
144 164 0
143 163 0
143 163 0
145 166 0
140 159 0
135 152 0
135 153 0
129 148 0
131 149 0
129 145 0
142 163 0
137 155 0
135 153 0
137 155 0
134 154 0
142 160 0
135 155 0
134 152 0
119 138 0
130 149 0
146 166 0
134 155 0
139 157 0
146 165 0
141 161 0
129 147 0
140 159 0
138 156 0
132 150 0
142 161 0
148 168 0
140 159 0
145 165 0
140 158 0
134 152 0
140 159 0
136 154 0
154 175 0
133 153 0
128 144 0
136 155 0
150 170 0
143 161 0
145 167 0
133 152 0
141 161 0
141 157 0
132 146 0
137 157 0
148 167 0
128 145 0
141 161 0
130 147 0
142 162 0
139 155 0
136 154 0
134 152 0
140 155 0
153 173 0
137 154 0
121 137 0
133 151 0
145 165 0
136 153 0
147 165 0
137 157 0
140 156 0
141 161 0
147 166 0
141 158 0
127 142 0
143 164 0
147 166 0
142 159 0
140 160 0
136 153 0
140 159 0
148 167 0
126 140 0
134 151 0
140 160 0
145 164 0
143 159 0
135 153 0
135 151 0
134 153 0
136 155 0
145 164 0
141 158 0
149 167 0
137 156 0
143 164 0
137 152 0
148 168 0
140 157 0
126 140 0
136 155 0
138 153 0
139 155 0
141 158 0
144 161 0
126 143 0
142 158 0
149 167 0
144 160 0
130 149 0
143 160 0
136 150 0
131 148 0
148 168 0
137 151 0
141 159 0
133 150 0
132 147 0
147 167 0
140 157 0
147 166 0
136 151 0
143 160 0
134 149 0
133 147 0
129 144 0
152 170 0
123 138 0
150 170 0
145 161 0
147 163 0
143 158 0
134 151 0
131 145 0
147 165 0
140 157 0
148 166 0
124 137 0
142 156 0
145 161 0
148 169 0
152 172 0
146 164 0
126 140 0
148 167 0
144 158 0
141 160 0
138 154 0
146 162 0
134 151 0
157 174 0
137 154 0
135 150 0
144 161 0
141 155 0
136 151 0
137 153 0
135 149 0
135 150 0
144 161 0
147 163 0
125 138 0
153 171 0
136 153 0
131 147 0
130 145 0
139 154 0
141 157 0
142 157 0
147 159 0
142 156 0
128 142 0
146 163 0
142 157 0
139 157 0
151 167 0
147 165 0
145 160 0
130 147 0
147 161 0
140 153 0
143 159 0
150 166 0
146 161 0
134 145 0
139 151 0
144 158 0
142 158 0
135 147 0
136 149 0
140 152 0
139 152 0
153 169 0
144 155 0
145 158 0
143 158 0
139 153 0
146 163 0
143 157 0
135 146 0
148 164 0
137 147 0
125 137 0
137 151 0
139 153 0
139 151 0
134 146 0
131 142 0
150 165 0
144 158 0
133 143 0
142 158 0
146 160 0
143 154 0
145 158 0
153 168 0
131 143 0
149 160 0
127 135 0
145 156 0
140 152 0
142 155 0
146 161 0
146 159 0
143 156 0
149 163 0
138 148 0
145 160 0
143 154 0
137 149 0
136 146 0
145 157 0
150 161 0
138 150 0
149 161 0
136 149 0
139 156 0
147 165 0
139 155 0
148 166 0
137 154 0
156 176 0
150 169 0
139 155 0
149 167 0
139 155 0
135 153 0
156 174 0
137 154 0
135 153 0
151 170 0
136 153 0
132 149 0
134 152 0
136 154 0
144 163 0
156 176 0
134 152 0
147 166 0
153 171 0
142 161 0
141 161 0
146 166 0
137 155 0
129 146 0
123 140 0
149 168 0
136 153 0
139 157 0
127 143 0
145 165 0
144 162 0
137 154 0
142 161 0
145 164 0
133 152 0
145 163 0
136 153 0
144 162 0
141 160 0
129 146 0
139 158 0
139 157 0
132 150 0
139 158 0
136 155 0
146 166 0
144 163 0
138 157 0
141 160 0
141 159 0
145 161 0
144 163 0
143 162 0
143 160 0
132 149 0
139 157 0
138 157 0
145 165 0
141 160 0
140 159 0
131 147 0
148 167 0
154 174 0
153 173 0
136 154 0
142 161 0
142 160 0
136 152 0
137 156 0
139 158 0
144 163 0
139 157 0
144 163 0
148 168 0
154 174 0
142 162 0
144 164 0
147 165 0
144 163 0
146 165 0
134 152 0
135 153 0
130 147 0
136 155 0
145 165 0
140 157 0
139 158 0
141 160 0
149 170 0
136 153 0
133 151 0
143 163 0
151 170 0
143 162 0
138 157 0
142 159 0
153 174 0
130 149 0
135 154 0
136 154 0
146 165 0
139 159 0
151 171 0
139 159 0
132 150 0
136 156 0
149 170 0
136 154 0
149 169 0
137 154 0
144 164 0
143 163 0
137 155 0
133 153 0
145 165 0
147 168 0
138 158 0
147 167 0
151 173 0
146 163 0
144 164 0
144 165 0
132 151 0
137 155 0
133 151 0
143 163 0
150 171 0
144 165 0
133 152 0
143 162 0
140 159 0
143 161 0
141 159 0
135 155 0
139 159 0
143 164 0
143 161 0
146 164 0
144 164 0
131 150 0
148 170 0
124 140 0
144 163 0
137 154 0
127 147 0
141 159 0
133 154 0
134 151 0
137 156 0
136 156 0
133 152 0
139 159 0
140 159 0
126 145 0
141 162 0
149 170 0
128 147 0
131 150 0
136 155 0
145 166 0
141 160 0
135 154 0
133 152 0
140 158 0
134 152 0
145 162 0
137 156 0
140 160 0
146 165 0
141 158 0
130 148 0
128 147 0
133 151 0
139 159 0
131 152 0
141 160 0
128 145 0
125 143 0
135 153 0
136 155 0
142 162 0
145 165 0
142 160 0
142 162 0
144 162 0
137 156 0
148 168 0
138 156 0
128 146 0
148 168 0
145 164 0
143 163 0
145 165 0
132 150 0
141 161 0
139 158 0
139 157 0
135 153 0
143 161 0
125 141 0
138 154 0
137 156 0
131 147 0
132 150 0
128 145 0
145 164 0
145 164 0
133 152 0
138 157 0
129 148 0
145 163 0
130 146 0
137 155 0
140 159 0
135 152 0
143 162 0
137 154 0
147 166 0
141 161 0
124 142 0
137 156 0
121 139 0
140 157 0
131 148 0
134 151 0
125 143 0
148 168 0
129 148 0
139 157 0
148 170 0
126 145 0
131 147 0
136 155 0
132 150 0
142 162 0
139 156 0
144 164 0
131 147 0
143 163 0
138 155 0
141 159 0
135 151 0
144 161 0
147 166 0
130 148 0
140 159 0
134 153 0
130 147 0
149 170 0
138 155 0
128 145 0
138 152 0
133 150 0
139 156 0
132 150 0
136 153 0
136 153 0
137 155 0
140 157 0
139 157 0
144 161 0
140 159 0
140 159 0
143 163 0
138 153 0
132 150 0
140 159 0
142 162 0
141 159 0
130 147 0
134 153 0
148 162 0
142 161 0
147 167 0
137 152 0
138 151 0
143 163 0
143 161 0
139 155 0
145 161 0
131 148 0
142 154 0
135 154 0
134 148 0
138 152 0
133 145 0
146 167 0
145 162 0
130 144 0
141 160 0
153 171 0
139 153 0
124 140 0
151 169 0
144 165 0
131 148 0
140 154 0
136 150 0
149 165 0
151 169 0
147 165 0
129 144 0
138 152 0
140 160 0
136 153 0
135 151 0
145 163 0
145 161 0
140 156 0
136 149 0
145 163 0
145 158 0
140 157 0
145 161 0
136 150 0
154 173 0
140 156 0
136 150 0
148 167 0
126 142 0
148 165 0
149 167 0
140 154 0
140 157 0
133 146 0
147 165 0
140 156 0
142 157 0
142 155 0
143 158 0
135 149 0
137 151 0
146 162 0
142 155 0
150 166 0
133 147 0
151 167 0
136 149 0
130 142 0
152 167 0
142 154 0
149 165 0
132 144 0
138 152 0
136 151 0
140 155 0
143 154 0
141 153 0
144 161 0
145 160 0
145 163 0
133 148 0
148 166 0
149 163 0
155 172 0
141 156 0
139 151 0
148 164 0
135 147 0
141 159 0
146 159 0
146 161 0
148 161 0
136 149 0
146 160 0
143 161 0
151 166 0
144 156 0
133 146 0
145 163 0
140 150 0
139 150 0
148 164 0
143 157 0
131 140 0
136 145 0
144 153 0
133 143 0
136 154 0
138 152 0
143 154 0
146 158 0
141 152 0
150 162 0
144 157 0
146 159 0
141 152 0
138 151 0
145 159 0
144 155 0
132 145 0
153 165 0
135 147 0
132 144 0
127 136 0
